%
O01001
(Using high feed G1 F500. instead of G0.)
(T1 D=0.25 CR=0. TAPER=118deg - ZMIN=0.28 - center drill)
(T2 D=0.207 CR=0. TAPER=118deg - ZMIN=-0.1322 - drill)
(T3 D=0.53 CR=0. TAPER=120deg - ZMIN=0.275 - countersink)
(T4 D=0.25 CR=0. - ZMIN=-0.02 - flat end mill)
N10 G90 G17
N15 G20
N20 G53 G0 Z0.

(Drill1)
N25 T1 M6
N30 S5000 M3
N35 G54
N40 G17 G90
N45 M8
N50 G1 X2. Y-1. F500.
N55 G0 G43 Z0.975 H1
N60 T2
N65 G0 Z0.575
N70 G98 G81 X2. Y-1. Z0.28 R0.575 F13.333
N75 Y-2.
N80 X1.
N85 G80
N90 G0 Z0.975
N95 M9
N100 M5
N105 G53 G0 Z0.

(Drill1 2)
N110 M1
N115 T2 M6
N120 S7500 M3
N125 G54
N130 G17 G90
N135 M8
N140 G1 X2. Y-1. F500.
N145 G0 G43 Z0.975 H2
N150 T3
N155 G0 Z0.575
N160 G98 G83 X2. Y-1. Z-0.1322 R0.575 Q0.0518 F40.
N165 Y-2.
N170 G80
N175 G0 Z0.975
N180 M9
N185 M5
N190 G53 G0 Z0.

(Drill2)
N195 M1
N200 T3 M6
N205 S7500 M3
N210 G54
N215 G17 G90
N220 M8
N225 G1 X1. Y-2. F500.
N230 G0 G43 Z0.975 H3
N235 T4
N240 G0 Z0.575
N245 G98 G81 X1. Y-2. Z0.275 R0.575 F13.333
N250 G80
N255 G0 Z0.975
N260 M9
N265 M5
N270 G53 G0 Z0.

(Bore1)
N275 M1
N280 T4 M6
N285 S12500 M3
N290 G54
N295 G17 G90
N300 M8
N305 G1 X1.0262 Y-1.025 F500.
N310 G0 G43 Z0.975 H4
N315 T1
N320 G1 Z0.455 F500.
N325 Z0.4 F78.75
N330 G18 G2 X1.0512 Z0.375 I0.025 K0.
N335 G1 X1.0638
N340 G17 G3 X1.0887 Y-1. I0. J0.025
N345 X1.0884 Y-1.0077 Z0.3603 I-0.0887 J0.
N350 X1.0874 Y-1.0154 Z0.3456 I-0.0884 J0.0077
N355 X1.0857 Y-1.023 Z0.3308 I-0.0874 J0.0154
N360 X1.0834 Y-1.0304 Z0.3161 I-0.0857 J0.023
N365 X1.0804 Y-1.0375 Z0.3014 I-0.0834 J0.0304
N370 X1.0769 Y-1.0444 Z0.2867 I-0.0804 J0.0375
N375 X1.0727 Y-1.0509 Z0.272 I-0.0769 J0.0444
N380 X1.068 Y-1.057 Z0.2572 I-0.0727 J0.0509
N385 X1.0628 Y-1.0628 Z0.2425 I-0.068 J0.057
N390 X1.057 Y-1.068 Z0.2278 I-0.0628 J0.0628
N395 X1.0509 Y-1.0727 Z0.2131 I-0.057 J0.068
N400 X1.0444 Y-1.0769 Z0.1983 I-0.0509 J0.0727
N405 X1.0375 Y-1.0804 Z0.1836 I-0.0444 J0.0769
N410 X1.0304 Y-1.0834 Z0.1689 I-0.0375 J0.0804
N415 X1.023 Y-1.0857 Z0.1542 I-0.0304 J0.0834
N420 X1.0154 Y-1.0874 Z0.1395 I-0.023 J0.0857
N425 X1.0077 Y-1.0884 Z0.1247 I-0.0154 J0.0874
N430 X0.9233 Y-0.9554 Z0.115 I-0.0077 J0.0884
N435 X1.0767 Y-1.0446 I0.0767 J-0.0446
N440 X0.9233 Y-0.9554 I-0.0767 J0.0446
N445 X0.9323 Y-0.9896 I0.0216 J-0.0126
N450 G1 X0.9431 Y-0.9959
N455 X0.9465 Y-0.9978 Z0.1153
N460 X0.9498 Y-0.9997 Z0.1162
N465 X0.9529 Y-1.0016 Z0.1177
N470 X0.9558 Y-1.0032 Z0.1198
N475 X0.9584 Y-1.0047 Z0.1223
N480 X0.9606 Y-1.006 Z0.1253
N485 X0.9624 Y-1.0071 Z0.1287
N490 X0.9637 Y-1.0078 Z0.1323
N495 X0.9645 Y-1.0083 Z0.1361
N500 X0.9647 Y-1.0084 Z0.14
N505 X1.0313 Y-1.025
N510 G18 G2 X1.0563 Z0.115 I0.025 K0.
N515 G1 X1.0687
N520 G17 G3 X1.0938 Y-1. I0. J0.025
N525 X0.9062 I-0.0938 J0.
N530 X1.0938 I0.0938 J0.
N535 X1.0687 Y-0.975 I-0.025 J0.
N540 G1 X1.0563
N545 G18 G3 X1.0313 Z0.14 I0. K0.025
N550 G1 Z0.575 F500.
N555 X1. Y-1.
N560 Z0.18
N565 Z0.125 F78.75
N570 X1.0015 Y-1.0015
N575 X1.0023 Y-1.0013
N580 X1.0028 Y-1.0007
N585 X1.003 Y-1.
N590 X1.0027 Y-0.9987 Z0.1243
N595 X1.0018 Y-0.9976 Z0.1237
N600 X1.0006 Y-0.9971 Z0.123
N605 X0.9992 Z0.1224
N610 X0.998 Y-0.9977 Z0.1217
N615 X0.9972 Y-0.9989 Z0.1211
N620 X0.997 Y-1.0002 Z0.1204
N625 X0.9974 Y-1.0015 Z0.1198
N630 X0.9983 Y-1.0025 Z0.1191
N635 X0.9996 Y-1.003 Z0.1185
N640 X1.001 Y-1.0028 Z0.1178
N645 X1.0021 Y-1.0021 Z0.1172
N650 X1.0028 Y-1.001 Z0.1165
N655 X1.003 Y-0.9996 Z0.1159
N660 X1.0025 Y-0.9983 Z0.1152
N665 X1.0015 Y-0.9974 Z0.1146
N670 X1.0002 Y-0.997 Z0.1139
N675 X0.9988 Y-0.9972 Z0.1133
N680 X0.9977 Y-0.998 Z0.1126
N685 X0.9971 Y-0.9992 Z0.112
N690 Y-1.0006 Z0.1113
N695 X0.9976 Y-1.0018 Z0.1107
N700 X0.9987 Y-1.0027 Z0.11
N705 X1. Y-1.003 Z0.1093
N710 X1.0013 Y-1.0027 Z0.1087
N715 X1.0024 Y-1.0018 Z0.108
N720 X1.0029 Y-1.0006 Z0.1074
N725 Y-0.9992 Z0.1067
N730 X1.0022 Y-0.998 Z0.1061
N735 X1.0011 Y-0.9972 Z0.1054
N740 X0.9998 Y-0.997 Z0.1048
N745 X0.9985 Y-0.9974 Z0.1041
N750 X0.9975 Y-0.9984 Z0.1035
N755 X0.997 Y-0.9996 Z0.1028
N760 X0.9972 Y-1.001 Z0.1022
N765 X0.9979 Y-1.0021 Z0.1015
N770 X0.9991 Y-1.0028 Z0.1009
N775 X1.0004 Y-1.003 Z0.1002
N780 X1.0017 Y-1.0025 Z0.0996
N785 X1.0026 Y-1.0015 Z0.0989
N790 X1.003 Y-1.0002 Z0.0983
N795 X1.0028 Y-0.9988 Z0.0976
N800 X1.002 Y-0.9977 Z0.097
N805 X1.0007 Y-0.9971 Z0.0963
N810 X0.9994 Z0.0957
N815 X0.9981 Y-0.9976 Z0.095
N820 X0.9973 Y-0.9987 Z0.0943
N825 X0.997 Y-1. Z0.0937
N830 X0.9973 Y-1.0014 Z0.093
N835 X0.9982 Y-1.0024 Z0.0924
N840 X0.9994 Y-1.0029 Z0.0917
N845 X1.0008 Z0.0911
N850 X1.002 Y-1.0022 Z0.0904
N855 X1.0028 Y-1.0011 Z0.0898
N860 X1.003 Y-0.9998 Z0.0891
N865 X1.0026 Y-0.9985 Z0.0885
N870 X1.0016 Y-0.9975 Z0.0878
N875 X1.0004 Y-0.997 Z0.0872
N880 X0.999 Y-0.9972 Z0.0865
N885 X0.9979 Y-0.9979 Z0.0859
N890 X0.9971 Y-0.9991 Z0.0852
N895 X0.997 Y-1.0004 Z0.0846
N900 X0.9975 Y-1.0017 Z0.0839
N905 X0.9985 Y-1.0026 Z0.0833
N910 X0.9998 Y-1.003 Z0.0826
N915 X1.0012 Y-1.0028 Z0.082
N920 X1.0023 Y-1.0019 Z0.0813
N925 X1.0029 Y-1.0007 Z0.0807
N930 Y-0.9994 Z0.08
N935 X1.0024 Y-0.9981 Z0.0793
N940 X1.0013 Y-0.9973 Z0.0787
N945 X1. Y-0.997 Z0.078
N950 X0.9986 Y-0.9973 Z0.0774
N955 X0.9976 Y-0.9982 Z0.0767
N960 X0.997 Y-0.9995 Z0.0761
N965 X0.9971 Y-1.0008 Z0.0754
N970 X0.9978 Y-1.002 Z0.0748
N975 X0.9989 Y-1.0028 Z0.0741
N980 X1.0002 Y-1.003 Z0.0735
N985 X1.0015 Y-1.0026 Z0.0728
N990 X1.0025 Y-1.0016 Z0.0722
N995 X1.003 Y-1.0003 Z0.0715
N1000 X1.0028 Y-0.999 Z0.0709
N1005 X1.0021 Y-0.9978 Z0.0702
N1010 X1.0009 Y-0.9971 Z0.0696
N1015 X0.9996 Y-0.997 Z0.0689
N1020 X0.9983 Y-0.9975 Z0.0683
N1025 X0.9974 Y-0.9986 Z0.0676
N1030 X0.997 Y-0.9999 Z0.067
N1035 X0.9973 Y-1.0012 Z0.0663
N1040 X0.9981 Y-1.0023 Z0.0657
N1045 X0.9993 Y-1.0029 Z0.065
N1050 X1.0006 Z0.0643
N1055 X1.0019 Y-1.0023 Z0.0637
N1060 X1.0027 Y-1.0013 Z0.063
N1065 X1.003 Y-0.9999 Z0.0624
N1070 X1.0027 Y-0.9986 Z0.0617
N1075 X1.0018 Y-0.9976 Z0.0611
N1080 X1.0005 Y-0.997 Z0.0604
N1085 X0.9992 Y-0.9971 Z0.0598
N1090 X0.998 Y-0.9978 Z0.0591
N1095 X0.9972 Y-0.9989 Z0.0585
N1100 X0.997 Y-1.0003 Z0.0578
N1105 X0.9974 Y-1.0016 Z0.0572
N1110 X0.9984 Y-1.0025 Z0.0565
N1115 X0.9997 Y-1.003 Z0.0559
N1120 X1.001 Y-1.0028 Z0.0552
N1125 X1.0022 Y-1.0021 Z0.0546
N1130 X1.0029 Y-1.0009 Z0.0539
N1135 X1.003 Y-0.9995 Z0.0533
N1140 X1.0025 Y-0.9983 Z0.0526
N1145 X1.0014 Y-0.9974 Z0.052
N1150 X1.0001 Y-0.997 Z0.0513
N1155 X0.9988 Y-0.9973 Z0.0507
N1160 X0.9977 Y-0.9981 Z0.05
N1165 X0.9971 Y-0.9993 Z0.0493
N1170 Y-1.0007 Z0.0487
N1175 X0.9977 Y-1.0019 Z0.048
N1180 X0.9987 Y-1.0027 Z0.0474
N1185 X1.0001 Y-1.003 Z0.0467
N1190 X1.0014 Y-1.0027 Z0.0461
N1195 X1.0024 Y-1.0018 Z0.0454
N1200 X1.003 Y-1.0005 Z0.0448
N1205 X1.0029 Y-0.9991 Z0.0441
N1210 X1.0022 Y-0.998 Z0.0435
N1215 X1.0011 Y-0.9972 Z0.0428
N1220 X0.9997 Y-0.997 Z0.0422
N1225 X0.9984 Y-0.9974 Z0.0415
N1230 X0.9975 Y-0.9984 Z0.0409
N1235 X0.997 Y-0.9997 Z0.0402
N1240 X0.9972 Y-1.001 Z0.0396
N1245 X0.9979 Y-1.0022 Z0.0389
N1250 X0.9991 Y-1.0029 Z0.0383
N1255 X1.0005 Y-1.003 Z0.0376
N1260 X1.0017 Y-1.0024 Z0.037
N1265 X1.0026 Y-1.0014 Z0.0363
N1270 X1.003 Y-1.0001 Z0.0357
N1275 X1.0027 Y-0.9988 Z0.035
N1280 X1.0019 Y-0.9977 Z0.0343
N1285 X1.0007 Y-0.9971 Z0.0337
N1290 X0.9993 Z0.033
N1295 X0.9981 Y-0.9977 Z0.0324
N1300 X0.9973 Y-0.9988 Z0.0317
N1305 X0.997 Y-1.0001 Z0.0311
N1310 X0.9974 Y-1.0014 Z0.0304
N1315 X0.9983 Y-1.0024 Z0.0298
N1320 X0.9995 Y-1.003 Z0.0291
N1325 X1.0009 Y-1.0029 Z0.0285
N1330 X1.0021 Y-1.0022 Z0.0278
N1335 X1.0028 Y-1.0011 Z0.0272
N1340 X1.003 Y-0.9997 Z0.0265
N1345 X1.0025 Y-0.9984 Z0.0259
N1350 X1.0016 Y-0.9974 Z0.0252
N1355 X1.0003 Y-0.997 Z0.0246
N1360 X0.9989 Y-0.9972 Z0.0239
N1365 X0.9978 Y-0.998 Z0.0233
N1370 X0.9971 Y-0.9991 Z0.0226
N1375 X0.997 Y-1.0005 Z0.022
N1380 X0.9976 Y-1.0018 Z0.0213
N1385 X0.9986 Y-1.0027 Z0.0207
N1390 X0.9999 Y-1.003 Z0.02
N1395 X1.0012 Y-1.0027 Z0.0193
N1400 X1.0023 Y-1.0019 Z0.0187
N1405 X1.0029 Y-1.0007 Z0.018
N1410 Y-0.9993 Z0.0174
N1415 X1.0023 Y-0.9981 Z0.0167
N1420 X1.0012 Y-0.9973 Z0.0161
N1425 X0.9999 Y-0.997 Z0.0154
N1430 X0.9986 Y-0.9974 Z0.0148
N1435 X0.9976 Y-0.9983 Z0.0141
N1440 X0.997 Y-0.9995 Z0.0135
N1445 X0.9971 Y-1.0009 Z0.0128
N1450 X0.9978 Y-1.0021 Z0.0122
N1455 X0.999 Y-1.0028 Z0.0115
N1460 X1.0003 Y-1.003 Z0.0109
N1465 X1.0016 Y-1.0025 Z0.0102
N1470 X1.0026 Y-1.0016 Z0.0096
N1475 X1.003 Y-1.0003 Z0.0089
N1480 X1.0028 Y-0.9989 Z0.0083
N1485 X1.002 Y-0.9978 Z0.0076
N1490 X1.0008 Y-0.9971 Z0.007
N1495 X0.9995 Y-0.997 Z0.0063
N1500 X0.9982 Y-0.9976 Z0.0057
N1505 X0.9973 Y-0.9986 Z0.005
N1510 X0.997 Y-0.9999 Z0.0043
N1515 X0.9973 Y-1.0013 Z0.0037
N1520 X0.9981 Y-1.0023 Z0.003
N1525 X0.9993 Y-1.0029 Z0.0024
N1530 X1.0007 Z0.0017
N1535 X1.0019 Y-1.0023 Z0.0011
N1540 X1.0027 Y-1.0012 Z0.0004
N1545 X1.003 Y-0.9999 Z-0.0002
N1550 X1.0026 Y-0.9986 Z-0.0009
N1555 X1.0017 Y-0.9975 Z-0.0015
N1560 X1.0005 Y-0.997 Z-0.0022
N1565 X0.9991 Y-0.9971 Z-0.0028
N1570 X0.9979 Y-0.9978 Z-0.0035
N1575 X0.9972 Y-0.999 Z-0.0041
N1580 X0.997 Y-1.0003 Z-0.0048
N1585 X0.9975 Y-1.0016 Z-0.0054
N1590 X0.9984 Y-1.0026 Z-0.0061
N1595 X0.9997 Y-1.003 Z-0.0067
N1600 X1.0011 Y-1.0028 Z-0.0074
N1605 X1.0022 Y-1.002 Z-0.008
N1610 X1.0029 Y-1.0008 Z-0.0087
N1615 X1.003 Y-0.9995 Z-0.0093
N1620 X1.0024 Y-0.9982 Z-0.01
N1625 G17 G3 X0.9976 Y-1.0018 I-0.0024 J-0.0018
N1630 X1.0024 Y-0.9982 I0.0024 J0.0018
N1635 G1 X1.0018 Y-0.9977
N1640 X1.001 Y-0.9976
N1645 X1.0003 Y-0.9979
N1650 X1. Y-1.
N1655 X1.004 Y-1.004
N1660 X1.0055 Y-1.0037
N1665 X1.0068 Y-1.0028
N1670 X1.0077 Y-1.0015
N1675 X1.008 Y-1.
N1680 G3 X0.992 I-0.008 J0.
N1685 X1.008 I0.008 J0.
N1690 G1 X1.0077 Y-0.9985
N1695 X1.0068 Y-0.9972
N1700 X1.0055 Y-0.9963
N1705 X1.004 Y-0.996
N1710 X1. Y-1.
N1715 Z0.975 F500.

(Bore1 2)
N1720 G1 X1. Y-2. F500.
N1725 G1 Z0.975
N1730 Z0.43
N1735 Z0.375 F78.75
N1740 X1.0015 Y-2.0015
N1745 X1.0023 Y-2.0013
N1750 X1.0028 Y-2.0007
N1755 X1.003 Y-2.
N1760 X1.0027 Y-1.9987 Z0.3743
N1765 X1.0018 Y-1.9976 Z0.3737
N1770 X1.0006 Y-1.9971 Z0.373
N1775 X0.9992 Z0.3724
N1780 X0.998 Y-1.9977 Z0.3717
N1785 X0.9972 Y-1.9989 Z0.3711
N1790 X0.997 Y-2.0002 Z0.3704
N1795 X0.9974 Y-2.0015 Z0.3698
N1800 X0.9983 Y-2.0025 Z0.3691
N1805 X0.9996 Y-2.003 Z0.3685
N1810 X1.001 Y-2.0028 Z0.3678
N1815 X1.0021 Y-2.0021 Z0.3672
N1820 X1.0028 Y-2.0009 Z0.3665
N1825 X1.003 Y-1.9996 Z0.3659
N1830 X1.0025 Y-1.9983 Z0.3652
N1835 X1.0015 Y-1.9974 Z0.3646
N1840 X1.0002 Y-1.997 Z0.3639
N1845 X0.9988 Y-1.9972 Z0.3633
N1850 X0.9977 Y-1.998 Z0.3626
N1855 X0.9971 Y-1.9993 Z0.3619
N1860 Y-2.0006 Z0.3613
N1865 X0.9976 Y-2.0019 Z0.3606
N1870 X0.9987 Y-2.0027 Z0.36
N1875 X1. Y-2.003 Z0.3593
N1880 X1.0014 Y-2.0027 Z0.3587
N1885 X1.0024 Y-2.0018 Z0.358
N1890 X1.0029 Y-2.0005 Z0.3574
N1895 Y-1.9992 Z0.3567
N1900 X1.0022 Y-1.998 Z0.3561
N1905 X1.0011 Y-1.9972 Z0.3554
N1910 X0.9998 Y-1.997 Z0.3548
N1915 X0.9985 Y-1.9974 Z0.3541
N1920 X0.9975 Y-1.9984 Z0.3535
N1925 X0.997 Y-1.9997 Z0.3528
N1930 X0.9972 Y-2.001 Z0.3522
N1935 X0.9979 Y-2.0022 Z0.3515
N1940 X0.9991 Y-2.0029 Z0.3509
N1945 X1.0004 Y-2.003 Z0.3502
N1950 X1.0017 Y-2.0025 Z0.3496
N1955 X1.0026 Y-2.0014 Z0.3489
N1960 X1.003 Y-2.0001 Z0.3482
N1965 X1.0027 Y-1.9988 Z0.3476
N1970 X1.0019 Y-1.9977 Z0.3469
N1975 X1.0007 Y-1.9971 Z0.3463
N1980 X0.9994 Z0.3456
N1985 X0.9981 Y-1.9977 Z0.345
N1990 X0.9973 Y-1.9987 Z0.3443
N1995 X0.997 Y-2.0001 Z0.3437
N2000 X0.9973 Y-2.0014 Z0.343
N2005 X0.9982 Y-2.0024 Z0.3424
N2010 X0.9995 Y-2.003 Z0.3417
N2015 X1.0008 Y-2.0029 Z0.3411
N2020 X1.002 Y-2.0022 Z0.3404
N2025 X1.0028 Y-2.0011 Z0.3398
N2030 X1.003 Y-1.9997 Z0.3391
N2035 X1.0026 Y-1.9984 Z0.3385
N2040 X1.0016 Y-1.9975 Z0.3378
N2045 X1.0003 Y-1.997 Z0.3372
N2050 X0.999 Y-1.9972 Z0.3365
N2055 X0.9978 Y-1.9979 Z0.3358
N2060 X0.9971 Y-1.9991 Z0.3352
N2065 X0.997 Y-2.0005 Z0.3345
N2070 X0.9976 Y-2.0017 Z0.3339
N2075 X0.9986 Y-2.0026 Z0.3332
N2080 X0.9999 Y-2.003 Z0.3326
N2085 X1.0012 Y-2.0027 Z0.3319
N2090 X1.0023 Y-2.0019 Z0.3313
N2095 X1.0029 Y-2.0007 Z0.3306
N2100 Y-1.9993 Z0.33
N2105 X1.0023 Y-1.9981 Z0.3293
N2110 X1.0012 Y-1.9973 Z0.3287
N2115 X0.9999 Y-1.997 Z0.328
N2120 X0.9986 Y-1.9974 Z0.3274
N2125 X0.9976 Y-1.9983 Z0.3267
N2130 X0.997 Y-1.9995 Z0.3261
N2135 X0.9971 Y-2.0009 Z0.3254
N2140 X0.9978 Y-2.0021 Z0.3248
N2145 X0.999 Y-2.0028 Z0.3241
N2150 X1.0003 Y-2.003 Z0.3234
N2155 X1.0016 Y-2.0025 Z0.3228
N2160 X1.0026 Y-2.0016 Z0.3221
N2165 X1.003 Y-2.0003 Z0.3215
N2170 X1.0028 Y-1.9989 Z0.3208
N2175 X1.002 Y-1.9978 Z0.3202
N2180 X1.0008 Y-1.9971 Z0.3195
N2185 X0.9995 Y-1.997 Z0.3189
N2190 X0.9982 Y-1.9976 Z0.3182
N2195 X0.9973 Y-1.9986 Z0.3176
N2200 X0.997 Y-1.9999 Z0.3169
N2205 X0.9973 Y-2.0013 Z0.3163
N2210 X0.9981 Y-2.0023 Z0.3156
N2215 X0.9994 Y-2.0029 Z0.315
N2220 X1.0007 Z0.3143
N2225 X1.0019 Y-2.0023 Z0.3137
N2230 X1.0027 Y-2.0012 Z0.313
N2235 X1.003 Y-1.9999 Z0.3124
N2240 X1.0026 Y-1.9985 Z0.3117
N2245 X1.0017 Y-1.9975 Z0.3111
N2250 X1.0004 Y-1.997 Z0.3104
N2255 X0.9991 Y-1.9971 Z0.3097
N2260 X0.9979 Y-1.9978 Z0.3091
N2265 X0.9972 Y-1.999 Z0.3084
N2270 X0.997 Y-2.0003 Z0.3078
N2275 X0.9975 Y-2.0016 Z0.3071
N2280 X0.9985 Y-2.0026 Z0.3065
N2285 X0.9998 Y-2.003 Z0.3058
N2290 X1.0011 Y-2.0028 Z0.3052
N2295 X1.0022 Y-2.002 Z0.3045
N2300 X1.0029 Y-2.0008 Z0.3039
N2305 Y-1.9995 Z0.3032
N2310 X1.0024 Y-1.9982 Z0.3026
N2315 X1.0014 Y-1.9973 Z0.3019
N2320 X1. Y-1.997 Z0.3013
N2325 X0.9987 Y-1.9973 Z0.3006
N2330 X0.9976 Y-1.9982 Z0.3
N2335 X0.9971 Y-1.9994 Z0.2993
N2340 Y-2.0008 Z0.2987
N2345 X0.9977 Y-2.002 Z0.298
N2350 X0.9988 Y-2.0028 Z0.2973
N2355 X1.0002 Y-2.003 Z0.2967
N2360 X1.0015 Y-2.0026 Z0.296
N2365 X1.0025 Y-2.0017 Z0.2954
N2370 X1.003 Y-2.0004 Z0.2947
N2375 X1.0028 Y-1.9991 Z0.2941
N2380 X1.0021 Y-1.9979 Z0.2934
N2385 X1.001 Y-1.9972 Z0.2928
N2390 X0.9996 Y-1.997 Z0.2921
N2395 X0.9983 Y-1.9975 Z0.2915
N2400 X0.9974 Y-1.9985 Z0.2908
N2405 X0.997 Y-1.9998 Z0.2902
N2410 X0.9972 Y-2.0011 Z0.2895
N2415 X0.998 Y-2.0023 Z0.2889
N2420 X0.9992 Y-2.0029 Z0.2882
N2425 X1.0006 Z0.2876
N2430 X1.0018 Y-2.0024 Z0.2869
N2435 X1.0027 Y-2.0013 Z0.2863
N2440 X1.003 Y-2. Z0.2856
N2445 X1.0027 Y-1.9987 Z0.2849
N2450 X1.0018 Y-1.9976 Z0.2843
N2455 X1.0006 Y-1.9971 Z0.2836
N2460 X0.9992 Z0.283
N2465 X0.998 Y-1.9978 Z0.2823
N2470 X0.9972 Y-1.9989 Z0.2817
N2475 X0.997 Y-2.0002 Z0.281
N2480 X0.9974 Y-2.0015 Z0.2804
N2485 X0.9983 Y-2.0025 Z0.2797
N2490 X0.9996 Y-2.003 Z0.2791
N2495 X1.001 Y-2.0028 Z0.2784
N2500 X1.0021 Y-2.0021 Z0.2778
N2505 X1.0028 Y-2.0009 Z0.2771
N2510 X1.003 Y-1.9996 Z0.2765
N2515 X1.0025 Y-1.9983 Z0.2758
N2520 X1.0015 Y-1.9974 Z0.2752
N2525 X1.0002 Y-1.997 Z0.2745
N2530 X0.9988 Y-1.9972 Z0.2739
N2535 X0.9977 Y-1.998 Z0.2732
N2540 X0.9971 Y-1.9993 Z0.2726
N2545 Y-2.0006 Z0.2719
N2550 X0.9976 Y-2.0019 Z0.2712
N2555 X0.9987 Y-2.0027 Z0.2706
N2560 X1. Y-2.003 Z0.2699
N2565 X1.0014 Y-2.0027 Z0.2693
N2570 X1.0024 Y-2.0018 Z0.2686
N2575 X1.003 Y-2.0005 Z0.268
N2580 X1.0029 Y-1.9992 Z0.2673
N2585 X1.0022 Y-1.998 Z0.2667
N2590 X1.0011 Y-1.9972 Z0.266
N2595 X0.9998 Y-1.997 Z0.2654
N2600 X0.9985 Y-1.9974 Z0.2647
N2605 X0.9975 Y-1.9984 Z0.2641
N2610 X0.997 Y-1.9997 Z0.2634
N2615 X0.9972 Y-2.001 Z0.2628
N2620 X0.9979 Y-2.0022 Z0.2621
N2625 X0.9991 Y-2.0029 Z0.2615
N2630 X1.0004 Y-2.003 Z0.2608
N2635 X1.0017 Y-2.0025 Z0.2602
N2640 X1.0026 Y-2.0014 Z0.2595
N2645 X1.003 Y-2.0001 Z0.2588
N2650 X1.0027 Y-1.9988 Z0.2582
N2655 X1.0019 Y-1.9977 Z0.2575
N2660 X1.0007 Y-1.9971 Z0.2569
N2665 X0.9993 Z0.2562
N2670 X0.9981 Y-1.9977 Z0.2556
N2675 X0.9973 Y-1.9987 Z0.2549
N2680 X0.997 Y-2.0001 Z0.2543
N2685 X0.9973 Y-2.0014 Z0.2536
N2690 X0.9982 Y-2.0024 Z0.253
N2695 X0.9995 Y-2.003 Z0.2523
N2700 X1.0009 Y-2.0029 Z0.2517
N2705 X1.002 Y-2.0022 Z0.251
N2710 X1.0028 Y-2.0011 Z0.2504
N2715 X1.003 Y-1.9997 Z0.2497
N2720 X1.0026 Y-1.9984 Z0.2491
N2725 X1.0016 Y-1.9975 Z0.2484
N2730 X1.0003 Y-1.997 Z0.2478
N2735 X0.999 Y-1.9972 Z0.2471
N2740 X0.9978 Y-1.9979 Z0.2464
N2745 X0.9971 Y-1.9991 Z0.2458
N2750 X0.997 Y-2.0005 Z0.2451
N2755 X0.9976 Y-2.0017 Z0.2445
N2760 X0.9986 Y-2.0026 Z0.2438
N2765 X0.9999 Y-2.003 Z0.2432
N2770 X1.0012 Y-2.0027 Z0.2425
N2775 X1.0023 Y-2.0019 Z0.2419
N2780 X1.0029 Y-2.0007 Z0.2412
N2785 Y-1.9993 Z0.2406
N2790 X1.0023 Y-1.9981 Z0.2399
N2795 X1.0012 Y-1.9973 Z0.2393
N2800 X0.9999 Y-1.997 Z0.2386
N2805 X0.9986 Y-1.9974 Z0.238
N2810 X0.9976 Y-1.9983 Z0.2373
N2815 X0.997 Y-1.9995 Z0.2367
N2820 X0.9971 Y-2.0009 Z0.236
N2825 X0.9978 Y-2.0021 Z0.2354
N2830 X0.999 Y-2.0028 Z0.2347
N2835 X1.0003 Y-2.003 Z0.2341
N2840 X1.0016 Y-2.0025 Z0.2334
N2845 X1.0026 Y-2.0016 Z0.2327
N2850 X1.003 Y-2.0003 Z0.2321
N2855 X1.0028 Y-1.9989 Z0.2314
N2860 X1.002 Y-1.9978 Z0.2308
N2865 X1.0008 Y-1.9971 Z0.2301
N2870 X0.9995 Y-1.997 Z0.2295
N2875 X0.9982 Y-1.9976 Z0.2288
N2880 X0.9973 Y-1.9986 Z0.2282
N2885 X0.997 Y-1.9999 Z0.2275
N2890 X0.9973 Y-2.0013 Z0.2269
N2895 X0.9981 Y-2.0023 Z0.2262
N2900 X0.9994 Y-2.0029 Z0.2256
N2905 X1.0007 Z0.2249
N2910 X1.0019 Y-2.0023 Z0.2243
N2915 X1.0027 Y-2.0012 Z0.2236
N2920 X1.003 Y-1.9999 Z0.223
N2925 X1.0026 Y-1.9985 Z0.2223
N2930 X1.0017 Y-1.9975 Z0.2217
N2935 X1.0004 Y-1.997 Z0.221
N2940 X0.9991 Y-1.9971 Z0.2203
N2945 X0.9979 Y-1.9978 Z0.2197
N2950 X0.9972 Y-1.999 Z0.219
N2955 X0.997 Y-2.0003 Z0.2184
N2960 X0.9975 Y-2.0016 Z0.2177
N2965 X0.9985 Y-2.0026 Z0.2171
N2970 X0.9998 Y-2.003 Z0.2164
N2975 X1.0011 Y-2.0028 Z0.2158
N2980 X1.0022 Y-2.002 Z0.2151
N2985 X1.0029 Y-2.0008 Z0.2145
N2990 Y-1.9994 Z0.2138
N2995 X1.0024 Y-1.9982 Z0.2132
N3000 X1.0014 Y-1.9973 Z0.2125
N3005 X1. Y-1.997 Z0.2119
N3010 X0.9987 Y-1.9973 Z0.2112
N3015 X0.9976 Y-1.9982 Z0.2106
N3020 X0.9971 Y-1.9994 Z0.2099
N3025 Y-2.0008 Z0.2093
N3030 X0.9977 Y-2.002 Z0.2086
N3035 X0.9988 Y-2.0028 Z0.2079
N3040 X1.0002 Y-2.003 Z0.2073
N3045 X1.0015 Y-2.0026 Z0.2066
N3050 X1.0025 Y-2.0017 Z0.206
N3055 X1.003 Y-2.0004 Z0.2053
N3060 X1.0028 Y-1.999 Z0.2047
N3065 X1.0021 Y-1.9979 Z0.204
N3070 X1.001 Y-1.9972 Z0.2034
N3075 X0.9996 Y-1.997 Z0.2027
N3080 X0.9983 Y-1.9975 Z0.2021
N3085 X0.9974 Y-1.9985 Z0.2014
N3090 X0.997 Y-1.9998 Z0.2008
N3095 X0.9972 Y-2.0011 Z0.2001
N3100 X0.998 Y-2.0023 Z0.1995
N3105 X0.9992 Y-2.0029 Z0.1988
N3110 X1.0006 Z0.1982
N3115 X1.0018 Y-2.0024 Z0.1975
N3120 X1.0027 Y-2.0013 Z0.1969
N3125 X1.003 Y-2. Z0.1962
N3130 X1.0027 Y-1.9987 Z0.1956
N3135 X1.0018 Y-1.9976 Z0.1949
N3140 X1.0006 Y-1.9971 Z0.1942
N3145 X0.9992 Z0.1936
N3150 X0.998 Y-1.9978 Z0.1929
N3155 X0.9972 Y-1.9989 Z0.1923
N3160 X0.997 Y-2.0002 Z0.1916
N3165 X0.9974 Y-2.0015 Z0.191
N3170 X0.9983 Y-2.0025 Z0.1903
N3175 X0.9996 Y-2.003 Z0.1897
N3180 X1.001 Y-2.0028 Z0.189
N3185 X1.0021 Y-2.0021 Z0.1884
N3190 X1.0028 Y-2.0009 Z0.1877
N3195 X1.003 Y-1.9996 Z0.1871
N3200 X1.0025 Y-1.9983 Z0.1864
N3205 X1.0015 Y-1.9974 Z0.1858
N3210 X1.0002 Y-1.997 Z0.1851
N3215 X0.9988 Y-1.9972 Z0.1845
N3220 X0.9977 Y-1.998 Z0.1838
N3225 X0.9971 Y-1.9993 Z0.1832
N3230 Y-2.0006 Z0.1825
N3235 X0.9976 Y-2.0019 Z0.1818
N3240 X0.9987 Y-2.0027 Z0.1812
N3245 X1. Y-2.003 Z0.1805
N3250 X1.0014 Y-2.0027 Z0.1799
N3255 X1.0024 Y-2.0018 Z0.1792
N3260 X1.003 Y-2.0005 Z0.1786
N3265 X1.0029 Y-1.9992 Z0.1779
N3270 X1.0022 Y-1.998 Z0.1773
N3275 X1.0011 Y-1.9972 Z0.1766
N3280 X0.9998 Y-1.997 Z0.176
N3285 X0.9985 Y-1.9974 Z0.1753
N3290 X0.9975 Y-1.9984 Z0.1747
N3295 X0.997 Y-1.9997 Z0.174
N3300 X0.9972 Y-2.001 Z0.1734
N3305 X0.9979 Y-2.0022 Z0.1727
N3310 X0.9991 Y-2.0029 Z0.1721
N3315 X1.0005 Y-2.003 Z0.1714
N3320 X1.0017 Y-2.0025 Z0.1708
N3325 X1.0026 Y-2.0014 Z0.1701
N3330 X1.003 Y-2.0001 Z0.1694
N3335 X1.0027 Y-1.9988 Z0.1688
N3340 X1.0019 Y-1.9977 Z0.1681
N3345 X1.0007 Y-1.9971 Z0.1675
N3350 X0.9993 Z0.1668
N3355 X0.9981 Y-1.9977 Z0.1662
N3360 X0.9973 Y-1.9987 Z0.1655
N3365 X0.997 Y-2.0001 Z0.1649
N3370 X0.9973 Y-2.0014 Z0.1642
N3375 X0.9982 Y-2.0024 Z0.1636
N3380 X0.9995 Y-2.003 Z0.1629
N3385 X1.0009 Y-2.0029 Z0.1623
N3390 X1.002 Y-2.0022 Z0.1616
N3395 X1.0028 Y-2.0011 Z0.161
N3400 X1.003 Y-1.9997 Z0.1603
N3405 X1.0026 Y-1.9984 Z0.1597
N3410 X1.0016 Y-1.9975 Z0.159
N3415 X1.0003 Y-1.997 Z0.1584
N3420 X0.999 Y-1.9972 Z0.1577
N3425 X0.9978 Y-1.9979 Z0.1571
N3430 X0.9971 Y-1.9991 Z0.1564
N3435 X0.997 Y-2.0005 Z0.1557
N3440 X0.9976 Y-2.0017 Z0.1551
N3445 X0.9986 Y-2.0026 Z0.1544
N3450 X0.9999 Y-2.003 Z0.1538
N3455 X1.0012 Y-2.0027 Z0.1531
N3460 X1.0023 Y-2.0019 Z0.1525
N3465 X1.0029 Y-2.0007 Z0.1518
N3470 Y-1.9993 Z0.1512
N3475 X1.0023 Y-1.9981 Z0.1505
N3480 X1.0012 Y-1.9973 Z0.1499
N3485 X0.9999 Y-1.997 Z0.1492
N3490 X0.9986 Y-1.9974 Z0.1486
N3495 X0.9976 Y-1.9983 Z0.1479
N3500 X0.997 Y-1.9995 Z0.1473
N3505 X0.9971 Y-2.0009 Z0.1466
N3510 X0.9978 Y-2.0021 Z0.146
N3515 X0.999 Y-2.0028 Z0.1453
N3520 X1.0003 Y-2.003 Z0.1447
N3525 X1.0016 Y-2.0025 Z0.144
N3530 X1.0026 Y-2.0016 Z0.1433
N3535 X1.003 Y-2.0003 Z0.1427
N3540 X1.0028 Y-1.9989 Z0.142
N3545 X1.002 Y-1.9978 Z0.1414
N3550 X1.0008 Y-1.9971 Z0.1407
N3555 X0.9995 Y-1.997 Z0.1401
N3560 X0.9982 Y-1.9976 Z0.1394
N3565 X0.9973 Y-1.9986 Z0.1388
N3570 X0.997 Y-1.9999 Z0.1381
N3575 X0.9973 Y-2.0013 Z0.1375
N3580 X0.9981 Y-2.0023 Z0.1368
N3585 X0.9994 Y-2.0029 Z0.1362
N3590 X1.0007 Z0.1355
N3595 X1.0019 Y-2.0023 Z0.1349
N3600 X1.0028 Y-2.0012 Z0.1342
N3605 X1.003 Y-1.9999 Z0.1336
N3610 X1.0026 Y-1.9985 Z0.1329
N3615 X1.0017 Y-1.9975 Z0.1323
N3620 X1.0004 Y-1.997 Z0.1316
N3625 X0.9991 Y-1.9971 Z0.1309
N3630 X0.9979 Y-1.9978 Z0.1303
N3635 X0.9972 Y-1.999 Z0.1296
N3640 X0.997 Y-2.0003 Z0.129
N3645 X0.9975 Y-2.0016 Z0.1283
N3650 X0.9985 Y-2.0026 Z0.1277
N3655 X0.9998 Y-2.003 Z0.127
N3660 X1.0011 Y-2.0028 Z0.1264
N3665 X1.0022 Y-2.002 Z0.1257
N3670 X1.0029 Y-2.0008 Z0.1251
N3675 Y-1.9994 Z0.1244
N3680 X1.0024 Y-1.9982 Z0.1238
N3685 X1.0014 Y-1.9973 Z0.1231
N3690 X1. Y-1.997 Z0.1225
N3695 X0.9987 Y-1.9973 Z0.1218
N3700 X0.9976 Y-1.9982 Z0.1212
N3705 X0.9971 Y-1.9994 Z0.1205
N3710 Y-2.0008 Z0.1199
N3715 X0.9977 Y-2.002 Z0.1192
N3720 X0.9988 Y-2.0028 Z0.1186
N3725 X1.0002 Y-2.003 Z0.1179
N3730 X1.0015 Y-2.0026 Z0.1172
N3735 X1.0025 Y-2.0017 Z0.1166
N3740 X1.003 Y-2.0004 Z0.1159
N3745 X1.0028 Y-1.999 Z0.1153
N3750 X1.0021 Y-1.9979 Z0.1146
N3755 X1.001 Y-1.9972 Z0.114
N3760 X0.9996 Y-1.997 Z0.1133
N3765 X0.9983 Y-1.9975 Z0.1127
N3770 X0.9974 Y-1.9985 Z0.112
N3775 X0.997 Y-1.9998 Z0.1114
N3780 X0.9972 Y-2.0011 Z0.1107
N3785 X0.998 Y-2.0023 Z0.1101
N3790 X0.9992 Y-2.0029 Z0.1094
N3795 X1.0006 Z0.1088
N3800 X1.0018 Y-2.0024 Z0.1081
N3805 X1.0027 Y-2.0013 Z0.1075
N3810 X1.003 Y-2. Z0.1068
N3815 X1.0027 Y-1.9987 Z0.1062
N3820 X1.0018 Y-1.9976 Z0.1055
N3825 X1.0006 Y-1.9971 Z0.1048
N3830 X0.9992 Z0.1042
N3835 X0.998 Y-1.9978 Z0.1035
N3840 X0.9972 Y-1.9989 Z0.1029
N3845 X0.997 Y-2.0002 Z0.1022
N3850 X0.9974 Y-2.0015 Z0.1016
N3855 X0.9984 Y-2.0025 Z0.1009
N3860 X0.9996 Y-2.003 Z0.1003
N3865 X1.001 Y-2.0028 Z0.0996
N3870 X1.0021 Y-2.0021 Z0.099
N3875 X1.0028 Y-2.0009 Z0.0983
N3880 X1.003 Y-1.9996 Z0.0977
N3885 X1.0025 Y-1.9983 Z0.097
N3890 X1.0015 Y-1.9974 Z0.0964
N3895 X1.0002 Y-1.997 Z0.0957
N3900 X0.9988 Y-1.9972 Z0.0951
N3905 X0.9977 Y-1.998 Z0.0944
N3910 X0.9971 Y-1.9993 Z0.0938
N3915 Y-2.0006 Z0.0931
N3920 X0.9976 Y-2.0019 Z0.0924
N3925 X0.9987 Y-2.0027 Z0.0918
N3930 X1. Y-2.003 Z0.0911
N3935 X1.0014 Y-2.0027 Z0.0905
N3940 X1.0024 Y-2.0018 Z0.0898
N3945 X1.003 Y-2.0005 Z0.0892
N3950 X1.0029 Y-1.9992 Z0.0885
N3955 X1.0022 Y-1.998 Z0.0879
N3960 X1.0011 Y-1.9972 Z0.0872
N3965 X0.9998 Y-1.997 Z0.0866
N3970 X0.9985 Y-1.9974 Z0.0859
N3975 X0.9975 Y-1.9984 Z0.0853
N3980 X0.997 Y-1.9997 Z0.0846
N3985 X0.9972 Y-2.001 Z0.084
N3990 X0.9979 Y-2.0022 Z0.0833
N3995 X0.9991 Y-2.0029 Z0.0827
N4000 X1.0005 Y-2.003 Z0.082
N4005 X1.0017 Y-2.0025 Z0.0814
N4010 X1.0026 Y-2.0014 Z0.0807
N4015 X1.003 Y-2.0001 Z0.0801
N4020 X1.0027 Y-1.9988 Z0.0794
N4025 X1.0019 Y-1.9977 Z0.0787
N4030 X1.0007 Y-1.9971 Z0.0781
N4035 X0.9993 Z0.0774
N4040 X0.9981 Y-1.9977 Z0.0768
N4045 X0.9973 Y-1.9987 Z0.0761
N4050 X0.997 Y-2.0001 Z0.0755
N4055 X0.9973 Y-2.0014 Z0.0748
N4060 X0.9982 Y-2.0024 Z0.0742
N4065 X0.9995 Y-2.003 Z0.0735
N4070 X1.0009 Y-2.0029 Z0.0729
N4075 X1.002 Y-2.0022 Z0.0722
N4080 X1.0028 Y-2.0011 Z0.0716
N4085 X1.003 Y-1.9997 Z0.0709
N4090 X1.0026 Y-1.9984 Z0.0703
N4095 X1.0016 Y-1.9975 Z0.0696
N4100 X1.0003 Y-1.997 Z0.069
N4105 X0.9989 Y-1.9972 Z0.0683
N4110 X0.9978 Y-1.9979 Z0.0677
N4115 X0.9971 Y-1.9991 Z0.067
N4120 X0.997 Y-2.0005 Z0.0663
N4125 X0.9976 Y-2.0017 Z0.0657
N4130 X0.9986 Y-2.0026 Z0.065
N4135 X0.9999 Y-2.003 Z0.0644
N4140 X1.0012 Y-2.0027 Z0.0637
N4145 X1.0023 Y-2.0019 Z0.0631
N4150 X1.0029 Y-2.0007 Z0.0624
N4155 Y-1.9993 Z0.0618
N4160 X1.0023 Y-1.9981 Z0.0611
N4165 X1.0012 Y-1.9973 Z0.0605
N4170 X0.9999 Y-1.997 Z0.0598
N4175 X0.9986 Y-1.9974 Z0.0592
N4180 X0.9976 Y-1.9983 Z0.0585
N4185 X0.997 Y-1.9995 Z0.0579
N4190 X0.9971 Y-2.0009 Z0.0572
N4195 X0.9978 Y-2.0021 Z0.0566
N4200 X0.999 Y-2.0028 Z0.0559
N4205 X1.0003 Y-2.003 Z0.0553
N4210 X1.0016 Y-2.0025 Z0.0546
N4215 X1.0026 Y-2.0016 Z0.0539
N4220 X1.003 Y-2.0003 Z0.0533
N4225 X1.0028 Y-1.9989 Z0.0526
N4230 X1.002 Y-1.9978 Z0.052
N4235 X1.0008 Y-1.9971 Z0.0513
N4240 X0.9995 Y-1.997 Z0.0507
N4245 X0.9982 Y-1.9976 Z0.05
N4250 X0.9973 Y-1.9986 Z0.0494
N4255 X0.997 Y-1.9999 Z0.0487
N4260 X0.9973 Y-2.0013 Z0.0481
N4265 X0.9981 Y-2.0023 Z0.0474
N4270 X0.9994 Y-2.0029 Z0.0468
N4275 X1.0007 Z0.0461
N4280 X1.0019 Y-2.0023 Z0.0455
N4285 X1.0028 Y-2.0012 Z0.0448
N4290 X1.003 Y-1.9999 Z0.0442
N4295 X1.0026 Y-1.9985 Z0.0435
N4300 X1.0017 Y-1.9975 Z0.0429
N4305 X1.0004 Y-1.997 Z0.0422
N4310 X0.9991 Y-1.9971 Z0.0416
N4315 X0.9979 Y-1.9978 Z0.0409
N4320 X0.9972 Y-1.999 Z0.0402
N4325 X0.997 Y-2.0004 Z0.0396
N4330 X0.9975 Y-2.0016 Z0.0389
N4335 X0.9985 Y-2.0026 Z0.0383
N4340 X0.9998 Y-2.003 Z0.0376
N4345 X1.0011 Y-2.0028 Z0.037
N4350 X1.0022 Y-2.002 Z0.0363
N4355 X1.0029 Y-2.0008 Z0.0357
N4360 Y-1.9994 Z0.035
N4365 X1.0024 Y-1.9982 Z0.0344
N4370 X1.0014 Y-1.9973 Z0.0337
N4375 X1. Y-1.997 Z0.0331
N4380 X0.9987 Y-1.9973 Z0.0324
N4385 X0.9976 Y-1.9982 Z0.0318
N4390 X0.9971 Y-1.9994 Z0.0311
N4395 Y-2.0008 Z0.0305
N4400 X0.9977 Y-2.002 Z0.0298
N4405 X0.9988 Y-2.0028 Z0.0292
N4410 X1.0002 Y-2.003 Z0.0285
N4415 X1.0015 Y-2.0026 Z0.0278
N4420 X1.0025 Y-2.0017 Z0.0272
N4425 X1.003 Y-2.0004 Z0.0265
N4430 X1.0028 Y-1.999 Z0.0259
N4435 X1.0021 Y-1.9979 Z0.0252
N4440 X1.001 Y-1.9972 Z0.0246
N4445 X0.9996 Y-1.997 Z0.0239
N4450 X0.9983 Y-1.9975 Z0.0233
N4455 X0.9974 Y-1.9985 Z0.0226
N4460 X0.997 Y-1.9998 Z0.022
N4465 X0.9972 Y-2.0011 Z0.0213
N4470 X0.998 Y-2.0023 Z0.0207
N4475 X0.9992 Y-2.0029 Z0.02
N4480 X1.0006 Z0.0194
N4485 X1.0018 Y-2.0024 Z0.0187
N4490 X1.0027 Y-2.0013 Z0.0181
N4495 X1.003 Y-2. Z0.0174
N4500 X1.0027 Y-1.9987 Z0.0168
N4505 X1.0018 Y-1.9976 Z0.0161
N4510 X1.0006 Y-1.9971 Z0.0154
N4515 X0.9992 Z0.0148
N4520 X0.998 Y-1.9978 Z0.0141
N4525 X0.9972 Y-1.9989 Z0.0135
N4530 X0.997 Y-2.0002 Z0.0128
N4535 X0.9974 Y-2.0015 Z0.0122
N4540 X0.9984 Y-2.0025 Z0.0115
N4545 X0.9996 Y-2.003 Z0.0109
N4550 X1.001 Y-2.0028 Z0.0102
N4555 X1.0021 Y-2.0021 Z0.0096
N4560 X1.0028 Y-2.0009 Z0.0089
N4565 X1.003 Y-1.9996 Z0.0083
N4570 X1.0025 Y-1.9983 Z0.0076
N4575 X1.0015 Y-1.9974 Z0.007
N4580 X1.0002 Y-1.997 Z0.0063
N4585 X0.9988 Y-1.9972 Z0.0057
N4590 X0.9977 Y-1.9981 Z0.005
N4595 X0.9971 Y-1.9993 Z0.0044
N4600 Y-2.0006 Z0.0037
N4605 X0.9976 Y-2.0019 Z0.0031
N4610 X0.9987 Y-2.0027 Z0.0024
N4615 X1. Y-2.003 Z0.0017
N4620 X1.0014 Y-2.0027 Z0.0011
N4625 X1.0024 Y-2.0018 Z0.0004
N4630 X1.003 Y-2.0005 Z-0.0002
N4635 X1.0029 Y-1.9992 Z-0.0009
N4640 X1.0022 Y-1.998 Z-0.0015
N4645 X1.0011 Y-1.9972 Z-0.0022
N4650 X0.9997 Y-1.997 Z-0.0028
N4655 X0.9985 Y-1.9974 Z-0.0035
N4660 X0.9975 Y-1.9984 Z-0.0041
N4665 X0.997 Y-1.9997 Z-0.0048
N4670 X0.9972 Y-2.001 Z-0.0054
N4675 X0.9979 Y-2.0022 Z-0.0061
N4680 X0.9991 Y-2.0029 Z-0.0067
N4685 X1.0005 Y-2.003 Z-0.0074
N4690 X1.0017 Y-2.0025 Z-0.008
N4695 X1.0026 Y-2.0014 Z-0.0087
N4700 X1.003 Y-2.0001 Z-0.0093
N4705 X1.0027 Y-1.9988 Z-0.01
N4710 G3 X0.9973 Y-2.0012 I-0.0027 J-0.0012
N4715 X1.0027 Y-1.9988 I0.0027 J0.0012
N4720 G1 X1.0023 Y-1.9982
N4725 X1.0015 Y-1.9979
N4730 X1.0008 Y-1.998
N4735 X1. Y-2.
N4740 X1.004 Y-2.004
N4745 X1.0055 Y-2.0037
N4750 X1.0068 Y-2.0028
N4755 X1.0077 Y-2.0015
N4760 X1.008 Y-2.
N4765 G3 X0.992 I-0.008 J0.
N4770 X1.008 I0.008 J0.
N4775 G1 X1.0077 Y-1.9985
N4780 X1.0068 Y-1.9972
N4785 X1.0055 Y-1.9963
N4790 X1.004 Y-1.996
N4795 X1. Y-2.
N4800 Z0.975 F500.

(2D Contour1)
N4805 G1 X1.525 Y-2.705 F500.
N4810 G0 Z0.975
N4815 Z0.575
N4820 G1 Z0.35 F13.333
N4825 G19 G3 Y-2.68 Z0.325 J0.025 K0. F78.75
N4830 G1 Y-2.655
N4835 G17 G3 X1.5 Y-2.63 I-0.025 J0.
N4840 G1 X0.5
N4845 G2 X0.37 Y-2.5 I0. J0.13
N4850 G1 Y-0.5
N4855 G2 X0.5 Y-0.37 I0.13 J0.
N4860 G1 X2.5
N4865 G2 X2.63 Y-0.5 I0. J-0.13
N4870 G1 Y-2.5
N4875 G2 X2.5 Y-2.63 I-0.13 J0.
N4880 G1 X1.5
N4885 G3 X1.475 Y-2.655 I0. J-0.025
N4890 G1 Y-2.68
N4895 G19 G2 Y-2.705 Z0.35 J0. K0.025
N4900 G0 Z0.575
N4905 X1.525
N4910 G1 Z0.3 F13.333
N4915 G3 Y-2.68 Z0.275 J0.025 K0. F78.75
N4920 G1 Y-2.655
N4925 G17 G3 X1.5 Y-2.63 I-0.025 J0.
N4930 G1 X0.5
N4935 G2 X0.37 Y-2.5 I0. J0.13
N4940 G1 Y-0.5
N4945 G2 X0.5 Y-0.37 I0.13 J0.
N4950 G1 X2.5
N4955 G2 X2.63 Y-0.5 I0. J-0.13
N4960 G1 Y-2.5
N4965 G2 X2.5 Y-2.63 I-0.13 J0.
N4970 G1 X1.5
N4975 G3 X1.475 Y-2.655 I0. J-0.025
N4980 G1 Y-2.68
N4985 G19 G2 Y-2.705 Z0.3 J0. K0.025
N4990 G0 Z0.575
N4995 X1.525
N5000 G1 Z0.25 F13.333
N5005 G3 Y-2.68 Z0.225 J0.025 K0. F78.75
N5010 G1 Y-2.655
N5015 G17 G3 X1.5 Y-2.63 I-0.025 J0.
N5020 G1 X0.5
N5025 G2 X0.37 Y-2.5 I0. J0.13
N5030 G1 Y-0.5
N5035 G2 X0.5 Y-0.37 I0.13 J0.
N5040 G1 X2.5
N5045 G2 X2.63 Y-0.5 I0. J-0.13
N5050 G1 Y-2.5
N5055 G2 X2.5 Y-2.63 I-0.13 J0.
N5060 G1 X1.5
N5065 G3 X1.475 Y-2.655 I0. J-0.025
N5070 G1 Y-2.68
N5075 G19 G2 Y-2.705 Z0.25 J0. K0.025
N5080 G0 Z0.575
N5085 X1.525
N5090 G1 Z0.2 F13.333
N5095 G3 Y-2.68 Z0.175 J0.025 K0. F78.75
N5100 G1 Y-2.655
N5105 G17 G3 X1.5 Y-2.63 I-0.025 J0.
N5110 G1 X0.5
N5115 G2 X0.37 Y-2.5 I0. J0.13
N5120 G1 Y-0.5
N5125 G2 X0.5 Y-0.37 I0.13 J0.
N5130 G1 X2.5
N5135 G2 X2.63 Y-0.5 I0. J-0.13
N5140 G1 Y-2.5
N5145 G2 X2.5 Y-2.63 I-0.13 J0.
N5150 G1 X1.5
N5155 G3 X1.475 Y-2.655 I0. J-0.025
N5160 G1 Y-2.68
N5165 G19 G2 Y-2.705 Z0.2 J0. K0.025
N5170 G0 Z0.575
N5175 X1.525
N5180 G1 Z0.15 F13.333
N5185 G3 Y-2.68 Z0.125 J0.025 K0. F78.75
N5190 G1 Y-2.655
N5195 G17 G3 X1.5 Y-2.63 I-0.025 J0.
N5200 G1 X0.5
N5205 G2 X0.37 Y-2.5 I0. J0.13
N5210 G1 Y-0.5
N5215 G2 X0.5 Y-0.37 I0.13 J0.
N5220 G1 X2.5
N5225 G2 X2.63 Y-0.5 I0. J-0.13
N5230 G1 Y-2.5
N5235 G2 X2.5 Y-2.63 I-0.13 J0.
N5240 G1 X1.5
N5245 G3 X1.475 Y-2.655 I0. J-0.025
N5250 G1 Y-2.68
N5255 G19 G2 Y-2.705 Z0.15 J0. K0.025
N5260 G0 Z0.575
N5265 X1.525
N5270 G1 Z0.1 F13.333
N5275 G3 Y-2.68 Z0.075 J0.025 K0. F78.75
N5280 G1 Y-2.655
N5285 G17 G3 X1.5 Y-2.63 I-0.025 J0.
N5290 G1 X0.5
N5295 G2 X0.37 Y-2.5 I0. J0.13
N5300 G1 Y-0.5
N5305 G2 X0.5 Y-0.37 I0.13 J0.
N5310 G1 X2.5
N5315 G2 X2.63 Y-0.5 I0. J-0.13
N5320 G1 Y-2.5
N5325 G2 X2.5 Y-2.63 I-0.13 J0.
N5330 G1 X1.5
N5335 G3 X1.475 Y-2.655 I0. J-0.025
N5340 G1 Y-2.68
N5345 G19 G2 Y-2.705 Z0.1 J0. K0.025
N5350 G0 Z0.575
N5355 X1.525
N5360 G1 Z0.05 F13.333
N5365 G3 Y-2.68 Z0.025 J0.025 K0. F78.75
N5370 G1 Y-2.655
N5375 G17 G3 X1.5 Y-2.63 I-0.025 J0.
N5380 G1 X1.1113
N5385 Z0.03
N5390 X0.7613
N5395 Z0.025 F13.333
N5400 X0.5 F78.75
N5405 G2 X0.37 Y-2.5 I0. J0.13
N5410 G1 Y-0.5
N5415 G2 X0.5 Y-0.37 I0.13 J0.
N5420 G1 X1.3862
N5425 Z0.03
N5430 X1.7362
N5435 Z0.025 F13.333
N5440 X2.5 F78.75
N5445 G2 X2.63 Y-0.5 I0. J-0.13
N5450 G1 Y-2.5
N5455 G2 X2.5 Y-2.63 I-0.13 J0.
N5460 G1 X2.0916
N5465 Z0.03
N5470 X1.7416
N5475 Z0.025 F13.333
N5480 X1.5 F78.75
N5485 G3 X1.475 Y-2.655 I0. J-0.025
N5490 G1 Y-2.68
N5495 G19 G2 Y-2.705 Z0.05 J0. K0.025
N5500 G0 Z0.575
N5505 X1.525
N5510 G1 Z0.005 F13.333
N5515 G3 Y-2.68 Z-0.02 J0.025 K0. F78.75
N5520 G1 Y-2.655
N5525 G17 G3 X1.5 Y-2.63 I-0.025 J0.
N5530 G1 X1.1113
N5535 Z0.03
N5540 X0.7613
N5545 Z-0.02 F13.333
N5550 X0.5 F78.75
N5555 G2 X0.37 Y-2.5 I0. J0.13
N5560 G1 Y-0.5
N5565 G2 X0.5 Y-0.37 I0.13 J0.
N5570 G1 X1.3862
N5575 Z0.03
N5580 X1.7362
N5585 Z-0.02 F13.333
N5590 X2.5 F78.75
N5595 G2 X2.63 Y-0.5 I0. J-0.13
N5600 G1 Y-2.5
N5605 G2 X2.5 Y-2.63 I-0.13 J0.
N5610 G1 X2.0916
N5615 Z0.03
N5620 X1.7416
N5625 Z-0.02 F13.333
N5630 X1.5 F78.75
N5635 G3 X1.475 Y-2.655 I0. J-0.025
N5640 G1 Y-2.68
N5645 G19 G2 Y-2.705 Z0.005 J0. K0.025
N5650 G0 Z0.975

(2D Contour1 2)
N5655 G17
N5660 G1 X1.525 Y-2.7 F500.
N5665 G0 Z0.975
N5670 Z0.575
N5675 G1 Z0.005 F13.333
N5680 G19 G3 Y-2.675 Z-0.02 J0.025 K0. F3.75
N5685 G1 Y-2.65
N5690 G17 G3 X1.5 Y-2.625 I-0.025 J0.
N5695 G1 X1.1113
N5700 Z0.03
N5705 X0.7613
N5710 Z-0.02 F13.333
N5715 X0.5 F3.75
N5720 G2 X0.375 Y-2.5 I0. J0.125
N5725 G1 Y-0.5
N5730 G2 X0.5 Y-0.375 I0.125 J0.
N5735 G1 X1.3862
N5740 Z0.03
N5745 X1.7362
N5750 Z-0.02 F13.333
N5755 X2.5 F3.75
N5760 G2 X2.625 Y-0.5 I0. J-0.125
N5765 G1 Y-2.5
N5770 G2 X2.5 Y-2.625 I-0.125 J0.
N5775 G1 X2.0916
N5780 Z0.03
N5785 X1.7416
N5790 Z-0.02 F13.333
N5795 X1.5 F3.75
N5800 G3 X1.475 Y-2.65 I0. J-0.025
N5805 G1 Y-2.675
N5810 G19 G2 Y-2.7 Z0.005 J0. K0.025
N5815 G0 Z0.975

N5820 M5
N5825 M9
N5830 G53 G0 Z0.
N5835 X1.5
N5840 G53 G0 Y0.
N5845 M30

%
