%
O01001
(Using high feed G1 F500. instead of G0.)
(T1 D=0.5 CR=0. - ZMIN=0. - flat end mill)
N10 G90 G17
N15 G20
N20 G53 G0 Z0.

(Adaptive1)
N25 T1 M6
N30 S12500 M3
N35 G54
N40 G17 G90
N45 M8
N50 G1 X-1.3012 Y-1.1782 F500.
N55 G0 G43 Z3.85 H1
N60 G0 Z3.45
N65 Z3.105
N70 G1 Z3.055 F187.5
N75 X-1.3011 Y-1.1779 Z3.0494
N80 X-1.3009 Y-1.1769 Z3.0439
N85 X-1.3005 Y-1.1754 Z3.0385
N90 X-1.3 Y-1.1734 Z3.0333
N95 X-1.2993 Y-1.1707 Z3.0284
N100 X-1.2985 Y-1.1676 Z3.0238
N105 X-1.2976 Y-1.164 Z3.0196
N110 X-1.2965 Y-1.1599 Z3.0159
N115 X-1.2954 Y-1.1555 Z3.0127
N120 X-1.2942 Y-1.1507 Z3.01
N125 X-1.2929 Y-1.1457 Z3.0078
N130 X-1.2916 Y-1.1405 Z3.0063
N135 X-1.2902 Y-1.1352 Z3.0053
N140 X-1.2888 Y-1.1297 Z3.005
N145 G3 X-1.2497 Y-0.8575 I-1.2366 J0.3167
N150 G1 Y-0.8515
N155 X-1.2499 Y-0.8455
N160 X-1.2505 Y-0.8396
N165 X-1.2515 Y-0.8336
N170 X-1.2528 Y-0.8269
N175 X-1.2553 Y-0.8162
N180 X-1.2603 Y-0.7971
N185 X-1.2676 Y-0.7729
N190 X-1.2784 Y-0.7409
N195 X-1.2964 Y-0.6924
N200 X-1.3153 Y-0.6441
N205 X-1.3335 Y-0.5956
N210 X-1.3513 Y-0.547
N215 X-1.3679 Y-0.4979
N220 X-1.3828 Y-0.4484
N225 X-1.3966 Y-0.3985
N230 X-1.4087 Y-0.3481
N235 X-1.4189 Y-0.2973
N240 X-1.4276 Y-0.2463
N245 X-1.4346 Y-0.195
N250 X-1.4394 Y-0.1434
N255 X-1.4427 Y-0.0917
N260 X-1.4443 Y-0.04
N265 X-1.4437 Y0.0118
N270 X-1.4414 Y0.0635
N275 X-1.4376 Y0.1152
N280 X-1.4314 Y0.1666
N285 X-1.4235 Y0.2178
N290 X-1.4142 Y0.2687
N295 X-1.4026 Y0.3192
N300 X-1.3892 Y0.3692
N305 X-1.3746 Y0.4189
N310 X-1.3576 Y0.4678
N315 X-1.3389 Y0.5161
N320 X-1.3189 Y0.5639
N325 X-1.2969 Y0.6107
N330 X-1.2731 Y0.6567
N335 X-1.248 Y0.702
N340 X-1.2211 Y0.7463
N345 X-1.1925 Y0.7894
N350 X-1.1627 Y0.8318
N355 X-1.1312 Y0.8729
N360 X-1.0981 Y0.9127
N365 X-1.0639 Y0.9516
N370 X-1.0283 Y0.9892
N375 X-0.9911 Y1.0252
N380 X-0.9529 Y1.0602
N385 X-0.9134 Y1.0937
N390 X-0.8726 Y1.1256
N395 X-0.8308 Y1.1561
N400 X-0.7881 Y1.1854
N405 X-0.7441 Y1.2127
N410 X-0.6992 Y1.2385
N415 X-0.6536 Y1.2631
N420 X-0.6069 Y1.2855
N425 X-0.5595 Y1.3063
N430 X-0.5115 Y1.3259
N435 X-0.4627 Y1.3431
N440 X-0.4133 Y1.3587
N445 X-0.3636 Y1.373
N450 X-0.3132 Y1.3849
N455 X-0.2624 Y1.3951
N460 X-0.2113 Y1.4038
N465 X-0.16 Y1.4104
N470 X-0.1084 Y1.415
N475 X-0.0567 Y1.4181
N480 X-0.0049 Y1.4192
N485 X0.0468 Y1.4183
N490 X0.0986 Y1.4158
N495 X0.1502 Y1.4114
N500 X0.2015 Y1.4049
N505 X0.2527 Y1.3968
N510 X0.3035 Y1.387
N515 X0.3539 Y1.375
N520 X0.4039 Y1.3614
N525 X0.4534 Y1.3463
N530 X0.5022 Y1.329
N535 X0.5504 Y1.3101
N540 X0.5981 Y1.2898
N545 X0.6447 Y1.2673
N550 X0.6906 Y1.2433
N555 X0.7358 Y1.218
N560 X0.7798 Y1.1907
N565 X0.8227 Y1.1618
N570 X0.865 Y1.1318
N575 X0.9058 Y1.1
N580 X0.9454 Y1.0666
N585 X0.9841 Y1.0322
N590 X1.0213 Y0.9962
N595 X1.0571 Y0.9588
N600 X1.0918 Y0.9204
N605 X1.1251 Y0.8806
N610 X1.1566 Y0.8396
N615 X1.187 Y0.7976
N620 X1.2158 Y0.7546
N625 X1.2428 Y0.7104
N630 X1.2684 Y0.6654
N635 X1.2925 Y0.6196
N640 X1.3146 Y0.5727
N645 X1.3351 Y0.5252
N650 X1.3543 Y0.4771
N655 X1.3712 Y0.4281
N660 X1.3865 Y0.3787
N665 X1.4004 Y0.3288
N670 X1.412 Y0.2783
N675 X1.4218 Y0.2275
N680 X1.4304 Y0.1764
N685 X1.4365 Y0.125
N690 X1.4407 Y0.0734
N695 X1.4437 Y0.0217
N700 X1.4443 Y-0.0301
N705 X1.443 Y-0.0819
N710 X1.4402 Y-0.1336
N715 X1.4354 Y-0.1851
N720 X1.4285 Y-0.2365
N725 X1.4202 Y-0.2876
N730 X1.4099 Y-0.3383
N735 X1.3975 Y-0.3886
N740 X1.3837 Y-0.4385
N745 X1.3681 Y-0.4879
N750 X1.3504 Y-0.5366
N755 X1.3312 Y-0.5847
N760 X1.3105 Y-0.6321
N765 X1.2877 Y-0.6786
N770 X1.2634 Y-0.7244
N775 X1.2378 Y-0.7694
N780 X1.2101 Y-0.8131
N785 X1.181 Y-0.856
N790 X1.1507 Y-0.898
N795 X1.1186 Y-0.9386
N800 X1.085 Y-0.978
N805 X1.0504 Y-1.0166
N810 X1.0141 Y-1.0534
N815 X0.9764 Y-1.089
N820 X0.9379 Y-1.1236
N825 X0.8978 Y-1.1564
N830 X0.8565 Y-1.1876
N835 X0.8145 Y-1.2178
N840 X0.7711 Y-1.2462
N845 X0.7267 Y-1.2729
N850 X0.6816 Y-1.2983
N855 X0.6355 Y-1.3219
N860 X0.5886 Y-1.3437
N865 X0.5409 Y-1.364
N870 X0.4922 Y-1.3815
N875 X0.4421 Y-1.3947
N880 X0.3913 Y-1.4045
N885 X0.34 Y-1.4114
N890 X0.2884 Y-1.4163
N895 X0.2367 Y-1.4197
N900 X0.185 Y-1.4219
N905 X0.1332 Y-1.4235
N910 X0.0815 Y-1.4245
N915 X0.0297 Y-1.4252
N920 X-0.0221 Y-1.4256
N925 X-0.0739 Y-1.4259
N930 X-0.1257 Y-1.4261
N935 X-0.1775 Y-1.4262
N940 X-0.2292 Y-1.4263
N945 X-0.281 Y-1.4239
N950 X-0.3324 Y-1.4175
N955 X-0.3833 Y-1.4081
N960 X-0.4337 Y-1.3963
N965 X-0.4833 Y-1.3814
N970 X-0.5321 Y-1.3642
N975 X-0.5803 Y-1.3453
N980 X-0.6276 Y-1.3241
N985 X-0.6739 Y-1.301
N990 X-0.7195 Y-1.2764
N995 X-0.7641 Y-1.25
N1000 X-0.8075 Y-1.2218
N1005 X-0.85 Y-1.1922
N1010 X-0.8914 Y-1.1611
N1015 X-0.9315 Y-1.1283
N1020 X-0.9705 Y-1.0943
N1025 X-1.0084 Y-1.059
N1030 X-1.0446 Y-1.022
N1035 X-1.0797 Y-0.9839
N1040 X-1.1119 Y-0.9433
N1045 X-1.1401 Y-0.8999
N1050 X-1.1652 Y-0.8546
N1055 X-1.1881 Y-0.8082
N1060 X-1.2097 Y-0.7611
N1065 X-1.2303 Y-0.7136
N1070 X-1.2501 Y-0.6657
N1075 X-1.2691 Y-0.6176
N1080 X-1.2872 Y-0.5691
N1085 X-1.3042 Y-0.5201
N1090 X-1.3199 Y-0.4708
N1095 X-1.3342 Y-0.421
N1100 X-1.347 Y-0.3708
N1105 X-1.3582 Y-0.3203
N1110 X-1.3676 Y-0.2694
N1115 X-1.3754 Y-0.2182
N1120 X-1.3813 Y-0.1667
N1125 X-1.3854 Y-0.1151
N1130 X-1.3877 Y-0.0634
N1135 X-1.3881 Y-0.0116
N1140 X-1.3865 Y0.0402
N1145 X-1.3831 Y0.0919
N1150 X-1.3778 Y0.1434
N1155 X-1.3705 Y0.1946
N1160 X-1.3613 Y0.2456
N1165 X-1.3503 Y0.2962
N1170 X-1.3373 Y0.3463
N1175 X-1.3225 Y0.396
N1180 X-1.3059 Y0.445
N1185 X-1.2874 Y0.4934
N1190 X-1.2672 Y0.541
N1195 X-1.2452 Y0.5879
N1200 X-1.2214 Y0.6339
N1205 X-1.1959 Y0.679
N1210 X-1.1688 Y0.7231
N1215 X-1.1401 Y0.7662
N1220 X-1.1098 Y0.8082
N1225 X-1.0779 Y0.849
N1230 X-1.0446 Y0.8886
N1235 X-1.0097 Y0.927
N1240 X-0.9735 Y0.964
N1245 X-0.936 Y0.9996
N1250 X-0.8971 Y1.0338
N1255 X-0.857 Y1.0666
N1260 X-0.8157 Y1.0978
N1265 X-0.7732 Y1.1275
N1270 X-0.7297 Y1.1556
N1275 X-0.6852 Y1.182
N1280 X-0.6396 Y1.2067
N1285 X-0.5933 Y1.2297
N1290 X-0.5461 Y1.251
N1295 X-0.4981 Y1.2704
N1300 X-0.4494 Y1.2881
N1305 X-0.4001 Y1.3039
N1310 X-0.3502 Y1.3179
N1315 X-0.2999 Y1.33
N1320 X-0.2491 Y1.3403
N1325 X-0.198 Y1.3486
N1330 X-0.1466 Y1.355
N1335 X-0.095 Y1.3595
N1340 X-0.0433 Y1.362
N1345 X0.0085 Y1.3627
N1350 X0.0602 Y1.3614
N1355 X0.1119 Y1.3582
N1360 X0.1635 Y1.3531
N1365 X0.2148 Y1.346
N1370 X0.2658 Y1.337
N1375 X0.3164 Y1.3262
N1380 X0.3666 Y1.3135
N1385 X0.4163 Y1.2989
N1390 X0.4654 Y1.2825
N1395 X0.5139 Y1.2643
N1400 X0.5616 Y1.2442
N1405 X0.6086 Y1.2224
N1410 X0.6547 Y1.1988
N1415 X0.6998 Y1.1735
N1420 X0.7441 Y1.1466
N1425 X0.7873 Y1.118
N1430 X0.8293 Y1.0878
N1435 X0.8703 Y1.0561
N1440 X0.91 Y1.0228
N1445 X0.9484 Y0.9881
N1450 X0.9855 Y0.9521
N1455 X1.0213 Y0.9146
N1460 X1.0556 Y0.8758
N1465 X1.0885 Y0.8358
N1470 X1.1199 Y0.7946
N1475 X1.1496 Y0.7522
N1480 X1.1779 Y0.7088
N1485 X1.2044 Y0.6644
N1490 X1.2293 Y0.6189
N1495 X1.2525 Y0.5726
N1500 X1.2739 Y0.5255
N1505 X1.2936 Y0.4776
N1510 X1.3115 Y0.429
N1515 X1.3276 Y0.3798
N1520 X1.3417 Y0.33
N1525 X1.3541 Y0.2797
N1530 X1.3645 Y0.229
N1535 X1.373 Y0.1779
N1540 X1.3796 Y0.1265
N1545 X1.3843 Y0.0749
N1550 X1.387 Y0.0232
N1555 X1.3878 Y-0.0286
N1560 X1.3867 Y-0.0803
N1565 X1.3836 Y-0.132
N1570 X1.3787 Y-0.1836
N1575 X1.3718 Y-0.2349
N1580 X1.363 Y-0.2859
N1585 X1.3523 Y-0.3366
N1590 X1.3397 Y-0.3868
N1595 X1.3253 Y-0.4365
N1600 X1.309 Y-0.4857
N1605 X1.2909 Y-0.5342
N1610 X1.271 Y-0.582
N1615 X1.2494 Y-0.6291
N1620 X1.226 Y-0.6753
N1625 X1.2009 Y-0.7206
N1630 X1.1742 Y-0.7649
N1635 X1.1458 Y-0.8082
N1640 X1.1157 Y-0.8504
N1645 X1.0842 Y-0.8915
N1650 X1.0511 Y-0.9314
N1655 X1.0166 Y-0.9699
N1660 X0.9806 Y-1.0072
N1665 X0.9433 Y-1.0431
N1670 X0.9046 Y-1.0775
N1675 X0.8647 Y-1.1105
N1680 X0.8236 Y-1.142
N1685 X0.7813 Y-1.1719
N1690 X0.738 Y-1.2003
N1695 X0.6936 Y-1.227
N1700 X0.6483 Y-1.252
N1705 X0.602 Y-1.2751
N1710 X0.5544 Y-1.2957
N1715 X0.5057 Y-1.3133
N1720 X0.456 Y-1.3278
N1725 X0.4056 Y-1.3397
N1730 X0.3547 Y-1.349
N1735 X0.3034 Y-1.3563
N1740 X0.2519 Y-1.3618
N1745 X0.2003 Y-1.3659
N1750 X0.1486 Y-1.3689
N1755 X0.0969 Y-1.3711
N1760 X0.0451 Y-1.3727
N1765 X-0.0067 Y-1.3738
N1770 X-0.0584 Y-1.3746
N1775 X-0.1102 Y-1.3752
N1780 X-0.162 Y-1.375
N1785 X-0.2137 Y-1.3728
N1790 X-0.2653 Y-1.3682
N1795 X-0.3166 Y-1.361
N1800 X-0.3675 Y-1.3513
N1805 X-0.4178 Y-1.3391
N1810 X-0.4675 Y-1.3245
N1815 X-0.5164 Y-1.3076
N1820 X-0.5646 Y-1.2885
N1825 X-0.6119 Y-1.2674
N1830 X-0.6582 Y-1.2443
N1835 X-0.7036 Y-1.2193
N1840 X-0.7479 Y-1.1926
N1845 X-0.7912 Y-1.1641
N1850 X-0.8333 Y-1.134
N1855 X-0.8742 Y-1.1023
N1860 X-0.9139 Y-1.069
N1865 X-0.9522 Y-1.0342
N1870 X-0.9886 Y-0.9973
N1875 X-1.0225 Y-0.9582
N1880 X-1.0538 Y-0.917
N1885 X-1.0827 Y-0.874
N1890 X-1.1094 Y-0.8296
N1895 X-1.1342 Y-0.7842
N1900 X-1.1575 Y-0.7379
N1905 X-1.1794 Y-0.691
N1910 X-1.2 Y-0.6435
N1915 X-1.2194 Y-0.5954
N1920 X-1.2375 Y-0.5469
N1925 X-1.2542 Y-0.4979
N1930 X-1.2696 Y-0.4485
N1935 X-1.2834 Y-0.3985
N1940 X-1.2956 Y-0.3482
N1945 X-1.3062 Y-0.2975
N1950 X-1.315 Y-0.2465
N1955 X-1.322 Y-0.1952
N1960 X-1.3271 Y-0.1437
N1965 X-1.3304 Y-0.092
N1970 X-1.3318 Y-0.0402
N1975 X-1.3312 Y0.0116
N1980 X-1.3287 Y0.0633
N1985 X-1.3241 Y0.1149
N1990 X-1.3177 Y0.1663
N1995 X-1.3092 Y0.2173
N2000 X-1.2987 Y0.2681
N2005 X-1.2863 Y0.3183
N2010 X-1.2719 Y0.3681
N2015 X-1.2556 Y0.4172
N2020 X-1.2374 Y0.4657
N2025 X-1.2174 Y0.5135
N2030 X-1.1955 Y0.5604
N2035 X-1.1718 Y0.6064
N2040 X-1.1463 Y0.6515
N2045 X-1.1191 Y0.6956
N2050 X-1.0902 Y0.7385
N2055 X-1.0597 Y0.7804
N2060 X-1.0275 Y0.821
N2065 X-0.9939 Y0.8603
N2070 X-0.9587 Y0.8983
N2075 X-0.922 Y0.9349
N2080 X-0.884 Y0.9701
N2085 X-0.8447 Y1.0037
N2090 X-0.804 Y1.0358
N2095 X-0.7622 Y1.0663
N2100 X-0.7192 Y1.0952
N2105 X-0.6751 Y1.1223
N2110 X-0.63 Y1.1477
N2115 X-0.5839 Y1.1714
N2120 X-0.5369 Y1.1932
N2125 X-0.4891 Y1.2131
N2130 X-0.4406 Y1.2312
N2135 X-0.3914 Y1.2473
N2140 X-0.3416 Y1.2615
N2145 X-0.2913 Y1.2738
N2150 X-0.2405 Y1.2841
N2155 X-0.1894 Y1.2925
N2160 X-0.138 Y1.2988
N2165 X-0.0864 Y1.3032
N2170 X-0.0347 Y1.3055
N2175 X0.0171 Y1.3059
N2180 X0.0688 Y1.3042
N2185 X0.1205 Y1.3005
N2190 X0.172 Y1.2948
N2195 X0.2232 Y1.2872
N2200 X0.2741 Y1.2775
N2205 X0.3245 Y1.2659
N2210 X0.3745 Y1.2524
N2215 X0.4239 Y1.2369
N2220 X0.4727 Y1.2195
N2225 X0.5207 Y1.2002
N2230 X0.568 Y1.179
N2235 X0.6144 Y1.156
N2240 X0.6598 Y1.1312
N2245 X0.7043 Y1.1046
N2250 X0.7477 Y1.0764
N2255 X0.7899 Y1.0464
N2260 X0.831 Y1.0149
N2265 X0.8708 Y0.9817
N2270 X0.9093 Y0.9471
N2275 X0.9464 Y0.9109
N2280 X0.9821 Y0.8734
N2285 X1.0162 Y0.8345
N2290 X1.0489 Y0.7943
N2295 X1.08 Y0.7529
N2300 X1.1094 Y0.7103
N2305 X1.1372 Y0.6666
N2310 X1.1633 Y0.6219
N2315 X1.1876 Y0.5761
N2320 X1.2101 Y0.5295
N2325 X1.2308 Y0.482
N2330 X1.2496 Y0.4338
N2335 X1.2665 Y0.3849
N2340 X1.2816 Y0.3353
N2345 X1.2946 Y0.2852
N2350 X1.3057 Y0.2346
N2355 X1.3148 Y0.1836
N2360 X1.3219 Y0.1323
N2365 X1.327 Y0.0808
N2370 X1.3301 Y0.0291
N2375 X1.3311 Y-0.0227
N2380 X1.3302 Y-0.0745
N2385 X1.3272 Y-0.1261
N2390 X1.3222 Y-0.1777
N2395 X1.3153 Y-0.229
N2400 X1.3063 Y-0.28
N2405 X1.2954 Y-0.3306
N2410 X1.2825 Y-0.3808
N2415 X1.2677 Y-0.4304
N2420 X1.251 Y-0.4794
N2425 X1.2324 Y-0.5278
N2430 X1.2119 Y-0.5753
N2435 X1.1896 Y-0.6221
N2440 X1.1655 Y-0.6679
N2445 X1.1397 Y-0.7128
N2450 X1.1121 Y-0.7566
N2455 X1.0829 Y-0.7993
N2460 X1.0519 Y-0.8409
N2465 X1.0194 Y-0.8812
N2470 X0.9854 Y-0.9202
N2475 X0.9498 Y-0.9578
N2480 X0.9128 Y-0.994
N2485 X0.8744 Y-1.0288
N2490 X0.8346 Y-1.062
N2495 X0.7937 Y-1.0936
N2500 X0.7515 Y-1.1237
N2505 X0.7081 Y-1.152
N2510 X0.6636 Y-1.1785
N2515 X0.6179 Y-1.2028
N2520 X0.5709 Y-1.2245
N2525 X0.5228 Y-1.2437
N2530 X0.4737 Y-1.2601
N2535 X0.4238 Y-1.274
N2540 X0.3733 Y-1.2855
N2545 X0.3224 Y-1.2949
N2550 X0.2711 Y-1.3024
N2555 X0.2197 Y-1.3083
N2560 X0.1681 Y-1.3129
N2565 X0.1165 Y-1.3164
N2570 X0.0647 Y-1.3191
N2575 X0.013 Y-1.3211
N2580 X-0.0388 Y-1.3224
N2585 X-0.0906 Y-1.3228
N2590 X-0.1423 Y-1.3217
N2595 X-0.194 Y-1.3187
N2600 X-0.2456 Y-1.3136
N2605 X-0.2968 Y-1.3061
N2610 X-0.3476 Y-1.2962
N2615 X-0.398 Y-1.284
N2620 X-0.4477 Y-1.2695
N2625 X-0.4966 Y-1.2527
N2630 X-0.5448 Y-1.2336
N2635 X-0.5921 Y-1.2125
N2640 X-0.6384 Y-1.1893
N2645 X-0.6836 Y-1.1642
N2650 X-0.7278 Y-1.1372
N2655 X-0.7709 Y-1.1084
N2660 X-0.8127 Y-1.0778
N2665 X-0.8531 Y-1.0454
N2670 X-0.8917 Y-1.0109
N2675 X-0.9282 Y-0.9742
N2680 X-0.9625 Y-0.9354
N2685 X-0.9947 Y-0.8948
N2690 X-1.0247 Y-0.8526
N2695 X-1.0526 Y-0.809
N2700 X-1.0788 Y-0.7643
N2705 X-1.1032 Y-0.7186
N2710 X-1.126 Y-0.6722
N2715 X-1.1473 Y-0.6249
N2720 X-1.1671 Y-0.5771
N2725 X-1.1854 Y-0.5287
N2730 X-1.2021 Y-0.4797
N2735 X-1.2173 Y-0.4302
N2740 X-1.2309 Y-0.3802
N2745 X-1.2428 Y-0.3298
N2750 X-1.2529 Y-0.279
N2755 X-1.2612 Y-0.2279
N2760 X-1.2676 Y-0.1765
N2765 X-1.2721 Y-0.1249
N2770 X-1.2747 Y-0.0732
N2775 X-1.2752 Y-0.0214
N2780 X-1.2738 Y0.0304
N2785 X-1.2703 Y0.082
N2790 X-1.2648 Y0.1335
N2795 X-1.2572 Y0.1848
N2800 X-1.2476 Y0.2356
N2805 X-1.2359 Y0.2861
N2810 X-1.2222 Y0.336
N2815 X-1.2064 Y0.3853
N2820 X-1.1887 Y0.434
N2825 X-1.169 Y0.4819
N2830 X-1.1474 Y0.5289
N2835 X-1.1238 Y0.5751
N2840 X-1.0985 Y0.6202
N2845 X-1.0713 Y0.6643
N2850 X-1.0424 Y0.7073
N2855 X-1.0118 Y0.749
N2860 X-0.9795 Y0.7895
N2865 X-0.9456 Y0.8286
N2870 X-0.9101 Y0.8664
N2875 X-0.8731 Y0.9026
N2880 X-0.8347 Y0.9374
N2885 X-0.795 Y0.9705
N2890 X-0.7539 Y1.0021
N2895 X-0.7115 Y1.0319
N2900 X-0.668 Y1.06
N2905 X-0.6234 Y1.0863
N2910 X-0.5778 Y1.1107
N2915 X-0.5311 Y1.1332
N2920 X-0.4836 Y1.1538
N2925 X-0.4353 Y1.1725
N2930 X-0.3863 Y1.1891
N2935 X-0.3366 Y1.2038
N2940 X-0.2864 Y1.2164
N2945 X-0.2357 Y1.227
N2950 X-0.1846 Y1.2355
N2955 X-0.1332 Y1.2419
N2960 X-0.0816 Y1.2463
N2965 X-0.0299 Y1.2485
N2970 X0.0219 Y1.2487
N2975 X0.0736 Y1.2467
N2980 X0.1253 Y1.2427
N2985 X0.1767 Y1.2366
N2990 X0.2278 Y1.2284
N2995 X0.2786 Y1.2181
N3000 X0.3289 Y1.2059
N3005 X0.3786 Y1.1915
N3010 X0.4278 Y1.1752
N3015 X0.4762 Y1.1568
N3020 X0.5238 Y1.1366
N3025 X0.5706 Y1.1143
N3030 X0.6164 Y1.0902
N3035 X0.6612 Y1.0642
N3040 X0.7049 Y1.0364
N3045 X0.7474 Y1.0068
N3050 X0.7887 Y0.9756
N3055 X0.8287 Y0.9427
N3060 X0.8673 Y0.9082
N3065 X0.9045 Y0.8721
N3070 X0.9402 Y0.8346
N3075 X0.9743 Y0.7957
N3080 X1.0069 Y0.7554
N3085 X1.0377 Y0.7138
N3090 X1.0669 Y0.671
N3095 X1.0943 Y0.6271
N3100 X1.12 Y0.5821
N3105 X1.1438 Y0.5361
N3110 X1.1657 Y0.4892
N3115 X1.1856 Y0.4414
N3120 X1.2037 Y0.3929
N3125 X1.2197 Y0.3436
N3130 X1.2337 Y0.2938
N3135 X1.2456 Y0.2434
N3140 X1.2555 Y0.1925
N3145 X1.2633 Y0.1413
N3150 X1.269 Y0.0899
N3155 X1.2725 Y0.0382
N3160 X1.274 Y-0.0136
N3165 X1.2734 Y-0.0653
N3170 X1.2706 Y-0.1171
N3175 X1.2658 Y-0.1686
N3180 X1.2589 Y-0.2199
N3185 X1.2499 Y-0.2709
N3190 X1.2389 Y-0.3215
N3195 X1.2258 Y-0.3716
N3200 X1.2107 Y-0.4212
N3205 X1.1936 Y-0.47
N3210 X1.1746 Y-0.5182
N3215 X1.1536 Y-0.5655
N3220 X1.1307 Y-0.612
N3225 X1.106 Y-0.6575
N3230 X1.0794 Y-0.7019
N3235 X1.051 Y-0.7453
N3240 X1.0209 Y-0.7874
N3245 X0.9891 Y-0.8283
N3250 X0.9557 Y-0.8678
N3255 X0.9206 Y-0.9059
N3260 X0.8841 Y-0.9426
N3265 X0.846 Y-0.9777
N3270 X0.8066 Y-1.0113
N3275 X0.7658 Y-1.0432
N3280 X0.7237 Y-1.0733
N3285 X0.6802 Y-1.1014
N3290 X0.6354 Y-1.1274
N3295 X0.5893 Y-1.151
N3300 X0.542 Y-1.172
N3305 X0.4936 Y-1.1905
N3310 X0.4444 Y-1.2066
N3315 X0.3944 Y-1.2203
N3320 X0.3439 Y-1.2317
N3325 X0.293 Y-1.2412
N3330 X0.2418 Y-1.249
N3335 X0.1904 Y-1.2552
N3340 X0.1389 Y-1.2602
N3345 X0.0872 Y-1.2641
N3350 X0.0355 Y-1.2669
N3355 X-0.0162 Y-1.2687
N3360 X-0.068 Y-1.2691
N3365 X-0.1198 Y-1.2678
N3370 X-0.1715 Y-1.2647
N3375 X-0.223 Y-1.2594
N3380 X-0.2742 Y-1.2519
N3385 X-0.3251 Y-1.2421
N3390 X-0.3754 Y-1.23
N3395 X-0.4251 Y-1.2155
N3400 X-0.4741 Y-1.1988
N3405 X-0.5223 Y-1.1798
N3410 X-0.5696 Y-1.1587
N3415 X-0.6159 Y-1.1354
N3420 X-0.6611 Y-1.1101
N3425 X-0.7051 Y-1.0829
N3430 X-0.7478 Y-1.0535
N3435 X-0.7889 Y-1.0221
N3440 X-0.8282 Y-0.9884
N3445 X-0.8655 Y-0.9525
N3450 X-0.9008 Y-0.9146
N3455 X-0.9341 Y-0.8749
N3460 X-0.9652 Y-0.8335
N3465 X-0.9944 Y-0.7907
N3470 X-1.0216 Y-0.7467
N3475 X-1.0471 Y-0.7016
N3480 X-1.0707 Y-0.6555
N3485 X-1.0927 Y-0.6086
N3490 X-1.113 Y-0.561
N3495 X-1.1316 Y-0.5127
N3500 X-1.1485 Y-0.4637
N3505 X-1.1637 Y-0.4142
N3510 X-1.1772 Y-0.3642
N3515 X-1.1889 Y-0.3138
N3520 X-1.1986 Y-0.2629
N3525 X-1.2065 Y-0.2117
N3530 X-1.2125 Y-0.1603
N3535 X-1.2164 Y-0.1086
N3540 X-1.2183 Y-0.0569
N3545 X-1.2181 Y-0.0051
N3550 X-1.2158 Y0.0466
N3555 X-1.2114 Y0.0982
N3560 X-1.2049 Y0.1496
N3565 X-1.1963 Y0.2006
N3570 X-1.1855 Y0.2513
N3575 X-1.1725 Y0.3014
N3580 X-1.1575 Y0.351
N3585 X-1.1403 Y0.3998
N3590 X-1.1211 Y0.4479
N3595 X-1.0999 Y0.4952
N3600 X-1.0767 Y0.5415
N3605 X-1.0515 Y0.5867
N3610 X-1.0245 Y0.6309
N3615 X-0.9956 Y0.6739
N3620 X-0.965 Y0.7156
N3625 X-0.9326 Y0.756
N3630 X-0.8985 Y0.795
N3635 X-0.8628 Y0.8325
N3640 X-0.8255 Y0.8685
N3645 X-0.7868 Y0.9028
N3650 X-0.7466 Y0.9355
N3655 X-0.7051 Y0.9665
N3660 X-0.6623 Y0.9956
N3665 X-0.6183 Y1.0229
N3670 X-0.5732 Y1.0483
N3675 X-0.527 Y1.0717
N3680 X-0.4798 Y1.0932
N3685 X-0.4318 Y1.1125
N3690 X-0.383 Y1.1298
N3695 X-0.3335 Y1.145
N3700 X-0.2834 Y1.1581
N3705 X-0.2328 Y1.169
N3710 X-0.1817 Y1.1778
N3715 X-0.1304 Y1.1844
N3720 X-0.0788 Y1.1888
N3725 X-0.027 Y1.1911
N3730 X0.0247
N3735 X0.0765 Y1.189
N3740 X0.1281 Y1.1846
N3745 X0.1795 Y1.1781
N3750 X0.2305 Y1.1694
N3755 X0.2811 Y1.1586
N3760 X0.3313 Y1.1456
N3765 X0.3808 Y1.1305
N3770 X0.4297 Y1.1133
N3775 X0.4777 Y1.094
N3780 X0.5249 Y1.0727
N3785 X0.5711 Y1.0494
N3790 X0.6163 Y1.0241
N3795 X0.6604 Y0.9969
N3800 X0.7032 Y0.9678
N3805 X0.7448 Y0.937
N3810 X0.7851 Y0.9043
N3815 X0.8239 Y0.8701
N3820 X0.8612 Y0.8342
N3825 X0.8969 Y0.7967
N3830 X0.9311 Y0.7578
N3835 X0.9635 Y0.7174
N3840 X0.9943 Y0.6757
N3845 X1.0232 Y0.6328
N3850 X1.0503 Y0.5887
N3855 X1.0755 Y0.5434
N3860 X1.0988 Y0.4972
N3865 X1.12 Y0.4499
N3870 X1.1393 Y0.4019
N3875 X1.1565 Y0.353
N3880 X1.1716 Y0.3035
N3885 X1.1845 Y0.2533
N3890 X1.1953 Y0.2027
N3895 X1.2039 Y0.1516
N3900 X1.2103 Y0.1002
N3905 X1.2144 Y0.0486
N3910 X1.2164 Y-0.0031
N3915 X1.2162 Y-0.0549
N3920 X1.2138 Y-0.1066
N3925 X1.2091 Y-0.1582
N3930 X1.2023 Y-0.2095
N3935 X1.1934 Y-0.2605
N3940 X1.1822 Y-0.3111
N3945 X1.169 Y-0.3612
N3950 X1.1536 Y-0.4106
N3955 X1.1362 Y-0.4594
N3960 X1.1167 Y-0.5074
N3965 X1.0952 Y-0.5545
N3970 X1.0717 Y-0.6006
N3975 X1.0463 Y-0.6458
N3980 X1.019 Y-0.6898
N3985 X0.9899 Y-0.7326
N3990 X0.9589 Y-0.7741
N3995 X0.9262 Y-0.8142
N4000 X0.8917 Y-0.8529
N4005 X0.8557 Y-0.89
N4010 X0.818 Y-0.9256
N4015 X0.7789 Y-0.9595
N4020 X0.7382 Y-0.9916
N4025 X0.6961 Y-1.0216
N4030 X0.6524 Y-1.0495
N4035 X0.6074 Y-1.0751
N4040 X0.5611 Y-1.0983
N4045 X0.5136 Y-1.119
N4050 X0.4652 Y-1.1373
N4055 X0.4159 Y-1.1531
N4060 X0.3659 Y-1.1668
N4065 X0.3155 Y-1.1783
N4070 X0.2646 Y-1.188
N4075 X0.2134 Y-1.196
N4080 X0.162 Y-1.2024
N4085 X0.1105 Y-1.2076
N4090 X0.0589 Y-1.2113
N4095 X0.0071 Y-1.2136
N4100 X-0.0447 Y-1.2144
N4105 X-0.0964 Y-1.2133
N4110 X-0.1481 Y-1.2103
N4115 X-0.1997 Y-1.2052
N4120 X-0.2509 Y-1.1978
N4125 X-0.3018 Y-1.1881
N4130 X-0.3521 Y-1.1761
N4135 X-0.4019 Y-1.1618
N4140 X-0.4509 Y-1.1451
N4145 X-0.4991 Y-1.1262
N4150 X-0.5464 Y-1.105
N4155 X-0.5926 Y-1.0816
N4160 X-0.6376 Y-1.0559
N4165 X-0.6812 Y-1.028
N4170 X-0.7232 Y-0.9978
N4175 X-0.7635 Y-0.9653
N4180 X-0.8019 Y-0.9305
N4185 X-0.8383 Y-0.8937
N4190 X-0.8727 Y-0.8549
N4195 X-0.905 Y-0.8145
N4200 X-0.9353 Y-0.7725
N4205 X-0.9636 Y-0.7291
N4210 X-0.99 Y-0.6846
N4215 X-1.0145 Y-0.639
N4220 X-1.0372 Y-0.5924
N4225 X-1.058 Y-0.545
N4230 X-1.077 Y-0.4968
N4235 X-1.0942 Y-0.4479
N4240 X-1.1095 Y-0.3985
N4245 X-1.1229 Y-0.3485
N4250 X-1.1343 Y-0.298
N4255 X-1.1438 Y-0.2471
N4260 X-1.1513 Y-0.1958
N4265 X-1.1568 Y-0.1443
N4270 X-1.1601 Y-0.0926
N4275 X-1.1613 Y-0.0409
N4280 X-1.1603 Y0.0109
N4285 X-1.1572 Y0.0626
N4290 X-1.1518 Y0.1141
N4295 X-1.1442 Y0.1653
N4300 X-1.1344 Y0.2162
N4305 X-1.1223 Y0.2665
N4310 X-1.108 Y0.3163
N4315 X-1.0915 Y0.3654
N4320 X-1.0728 Y0.4137
N4325 X-1.052 Y0.4611
N4330 X-1.0291 Y0.5076
N4335 X-1.0042 Y0.553
N4340 X-0.9773 Y0.5972
N4345 X-0.9485 Y0.6402
N4350 X-0.9178 Y0.6819
N4355 X-0.8853 Y0.7222
N4360 X-0.851 Y0.7611
N4365 X-0.8151 Y0.7983
N4370 X-0.7775 Y0.8339
N4375 X-0.7384 Y0.8679
N4380 X-0.6978 Y0.9
N4385 X-0.6558 Y0.9303
N4390 X-0.6125 Y0.9587
N4395 X-0.5679 Y0.9851
N4400 X-0.5222 Y1.0095
N4405 X-0.4755 Y1.0318
N4410 X-0.4278 Y1.052
N4415 X-0.3792 Y1.07
N4420 X-0.3299 Y1.0858
N4425 X-0.2799 Y1.0993
N4430 X-0.2294 Y1.1107
N4435 X-0.1784 Y1.1197
N4440 X-0.1271 Y1.1265
N4445 X-0.0755 Y1.131
N4450 X-0.0238 Y1.1332
N4455 X0.028 Y1.1331
N4460 X0.0797 Y1.1307
N4465 X0.1313 Y1.126
N4470 X0.1826 Y1.119
N4475 X0.2336 Y1.1098
N4480 X0.2841 Y1.0983
N4485 X0.334 Y1.0845
N4490 X0.3833 Y1.0686
N4495 X0.4318 Y1.0504
N4500 X0.4794 Y1.0301
N4505 X0.526 Y1.0076
N4510 X0.5716 Y0.9831
N4515 X0.6161 Y0.9565
N4520 X0.6593 Y0.9279
N4525 X0.7011 Y0.8975
N4530 X0.7416 Y0.8652
N4535 X0.7806 Y0.8311
N4540 X0.8181 Y0.7953
N4545 X0.8539 Y0.7579
N4550 X0.888 Y0.719
N4555 X0.9203 Y0.6785
N4560 X0.9509 Y0.6367
N4565 X0.9795 Y0.5936
N4570 X1.0062 Y0.5492
N4575 X1.0309 Y0.5037
N4580 X1.0536 Y0.4571
N4585 X1.0741 Y0.4096
N4590 X1.0925 Y0.3612
N4595 X1.1088 Y0.312
N4600 X1.1227 Y0.2621
N4605 X1.1344 Y0.2117
N4610 X1.1439 Y0.1608
N4615 X1.151 Y0.1095
N4620 X1.1558 Y0.0579
N4625 X1.1583 Y0.0062
N4630 X1.1584 Y-0.0456
N4635 X1.1563 Y-0.0973
N4640 X1.1519 Y-0.1489
N4645 X1.1451 Y-0.2003
N4650 X1.1361 Y-0.2513
N4655 X1.1249 Y-0.3018
N4660 X1.1114 Y-0.3518
N4665 X1.0957 Y-0.4012
N4670 X1.0778 Y-0.4498
N4675 X1.0578 Y-0.4975
N4680 X1.0357 Y-0.5443
N4685 X1.0115 Y-0.5901
N4690 X0.9853 Y-0.6348
N4695 X0.9572 Y-0.6783
N4700 X0.9271 Y-0.7204
N4705 X0.8951 Y-0.7611
N4710 X0.8613 Y-0.8003
N4715 X0.8257 Y-0.838
N4720 X0.7884 Y-0.8739
N4725 X0.7495 Y-0.908
N4730 X0.7088 Y-0.9402
N4735 X0.6666 Y-0.9701
N4740 X0.6229 Y-0.9979
N4745 X0.5777 Y-1.0232
N4750 X0.5313 Y-1.0461
N4755 X0.4837 Y-1.0666
N4760 X0.4352 Y-1.0846
N4765 X0.3859 Y-1.1004
N4770 X0.3359 Y-1.114
N4775 X0.2854 Y-1.1256
N4780 X0.2346 Y-1.1353
N4785 X0.1834 Y-1.1433
N4790 X0.132 Y-1.1497
N4795 X0.0804 Y-1.1544
N4800 X0.0287 Y-1.1575
N4805 X-0.023 Y-1.1587
N4810 X-0.0748 Y-1.1581
N4815 X-0.1265 Y-1.1553
N4820 X-0.1781 Y-1.1504
N4825 X-0.2293 Y-1.1431
N4830 X-0.2802 Y-1.1335
N4835 X-0.3306 Y-1.1216
N4840 X-0.3804 Y-1.1073
N4845 X-0.4294 Y-1.0906
N4850 X-0.4775 Y-1.0715
N4855 X-0.5247 Y-1.05
N4860 X-0.5706 Y-1.0261
N4865 X-0.6152 Y-0.9997
N4870 X-0.6582 Y-0.971
N4875 X-0.6995 Y-0.9397
N4880 X-0.739 Y-0.9062
N4885 X-0.7765 Y-0.8705
N4890 X-0.812 Y-0.8328
N4895 X-0.8454 Y-0.7932
N4900 X-0.8767 Y-0.752
N4905 X-0.9061 Y-0.7093
N4910 X-0.9333 Y-0.6653
N4915 X-0.9586 Y-0.6201
N4920 X-0.9819 Y-0.5738
N4925 X-1.0032 Y-0.5266
N4930 X-1.0225 Y-0.4786
N4935 X-1.0398 Y-0.4298
N4940 X-1.0552 Y-0.3803
N4945 X-1.0685 Y-0.3303
N4950 X-1.0797 Y-0.2797
N4955 X-1.0888 Y-0.2288
N4960 X-1.0958 Y-0.1774
N4965 X-1.1007 Y-0.1259
N4970 X-1.1033 Y-0.0742
N4975 X-1.1036 Y-0.0224
N4980 X-1.1017 Y0.0294
N4985 X-1.0975 Y0.081
N4990 X-1.0909 Y0.1323
N4995 X-1.0819 Y0.1833
N5000 X-1.0707 Y0.2339
N5005 X-1.057 Y0.2838
N5010 X-1.0411 Y0.3331
N5015 X-1.0229 Y0.3816
N5020 X-1.0025 Y0.4292
N5025 X-0.9799 Y0.4758
N5030 X-0.9551 Y0.5213
N5035 X-0.9283 Y0.5656
N5040 X-0.8994 Y0.6085
N5045 X-0.8686 Y0.6501
N5050 X-0.8358 Y0.6903
N5055 X-0.8013 Y0.7288
N5060 X-0.7649 Y0.7657
N5065 X-0.7269 Y0.8009
N5070 X-0.6873 Y0.8342
N5075 X-0.6462 Y0.8657
N5080 X-0.6036 Y0.8951
N5085 X-0.5596 Y0.9225
N5090 X-0.5144 Y0.9478
N5095 X-0.4681 Y0.9709
N5100 X-0.4207 Y0.9918
N5105 X-0.3724 Y1.0104
N5110 X-0.3232 Y1.0267
N5115 X-0.2734 Y1.0407
N5120 X-0.2229 Y1.0523
N5125 X-0.172 Y1.0616
N5130 X-0.1206 Y1.0684
N5135 X-0.069 Y1.0728
N5140 X-0.0173 Y1.0749
N5145 X0.0345 Y1.0745
N5150 X0.0862 Y1.0717
N5155 X0.1377 Y1.0664
N5160 X0.1889 Y1.0588
N5165 X0.2398 Y1.0488
N5170 X0.29 Y1.0364
N5175 X0.3397 Y1.0217
N5180 X0.3885 Y1.0046
N5185 X0.4366 Y0.9852
N5190 X0.4836 Y0.9635
N5195 X0.5295 Y0.9396
N5200 X0.5743 Y0.9136
N5205 X0.6178 Y0.8855
N5210 X0.6599 Y0.8553
N5215 X0.7006 Y0.8233
N5220 X0.7397 Y0.7893
N5225 X0.7771 Y0.7536
N5230 X0.8129 Y0.7161
N5235 X0.8469 Y0.677
N5240 X0.879 Y0.6364
N5245 X0.9092 Y0.5943
N5250 X0.9373 Y0.5509
N5255 X0.9635 Y0.5062
N5260 X0.9875 Y0.4603
N5265 X1.0093 Y0.4133
N5270 X1.0288 Y0.3654
N5275 X1.0461 Y0.3165
N5280 X1.061 Y0.2669
N5285 X1.0736 Y0.2167
N5290 X1.0837 Y0.1659
N5295 X1.0914 Y0.1147
N5300 X1.0967 Y0.0632
N5305 X1.0996 Y0.0115
N5310 X1.1 Y-0.0403
N5315 X1.098 Y-0.092
N5320 X1.0936 Y-0.1436
N5325 X1.0868 Y-0.195
N5330 X1.0776 Y-0.2459
N5335 X1.066 Y-0.2964
N5340 X1.0521 Y-0.3463
N5345 X1.0358 Y-0.3954
N5350 X1.0173 Y-0.4438
N5355 X0.9966 Y-0.4912
N5360 X0.9736 Y-0.5377
N5365 X0.9485 Y-0.5829
N5370 X0.9212 Y-0.627
N5375 X0.8919 Y-0.6696
N5380 X0.8605 Y-0.7108
N5385 X0.8272 Y-0.7505
N5390 X0.792 Y-0.7885
N5395 X0.7549 Y-0.8246
N5400 X0.716 Y-0.8588
N5405 X0.6753 Y-0.8908
N5410 X0.633 Y-0.9206
N5415 X0.5891 Y-0.9481
N5420 X0.5437 Y-0.9731
N5425 X0.4971 Y-0.9957
N5430 X0.4494 Y-1.0158
N5435 X0.4008 Y-1.0336
N5440 X0.3514 Y-1.0492
N5445 X0.3014 Y-1.0625
N5450 X0.2509 Y-1.0739
N5455 X0.1999 Y-1.0834
N5460 X0.1487 Y-1.0909
N5465 X0.0972 Y-1.0966
N5470 X0.0456 Y-1.1004
N5475 X-0.0062 Y-1.1022
N5480 X-0.0579 Y-1.1018
N5485 X-0.1097 Y-1.0993
N5490 X-0.1612 Y-1.0944
N5495 X-0.2125 Y-1.0872
N5500 X-0.2634 Y-1.0776
N5505 X-0.3137 Y-1.0655
N5510 X-0.3634 Y-1.0509
N5515 X-0.4123 Y-1.0339
N5520 X-0.4603 Y-1.0143
N5525 X-0.507 Y-0.9921
N5530 X-0.5525 Y-0.9673
N5535 X-0.5964 Y-0.9399
N5540 X-0.6387 Y-0.9099
N5545 X-0.6791 Y-0.8775
N5550 X-0.7175 Y-0.8428
N5555 X-0.754 Y-0.806
N5560 X-0.7883 Y-0.7673
N5565 X-0.8205 Y-0.7267
N5570 X-0.8506 Y-0.6846
N5575 X-0.8786 Y-0.641
N5580 X-0.9044 Y-0.5961
N5585 X-0.9282 Y-0.5501
N5590 X-0.9497 Y-0.503
N5595 X-0.9692 Y-0.4551
N5600 X-0.9865 Y-0.4063
N5605 X-1.0017 Y-0.3567
N5610 X-1.0147 Y-0.3066
N5615 X-1.0255 Y-0.256
N5620 X-1.034 Y-0.2049
N5625 X-1.0402 Y-0.1535
N5630 X-1.0442 Y-0.1018
N5635 X-1.0457 Y-0.0501
N5640 X-1.0449 Y0.0017
N5645 X-1.0416 Y0.0534
N5650 X-1.0358 Y0.1048
N5655 X-1.0276 Y0.156
N5660 X-1.0169 Y0.2066
N5665 X-1.0038 Y0.2567
N5670 X-0.9883 Y0.3061
N5675 X-0.9703 Y0.3547
N5680 X-0.9501 Y0.4024
N5685 X-0.9275 Y0.449
N5690 X-0.9027 Y0.4944
N5695 X-0.8756 Y0.5386
N5700 X-0.8465 Y0.5814
N5705 X-0.8153 Y0.6227
N5710 X-0.782 Y0.6624
N5715 X-0.7469 Y0.7005
N5720 X-0.71 Y0.7368
N5725 X-0.6713 Y0.7712
N5730 X-0.6309 Y0.8036
N5735 X-0.5889 Y0.8339
N5740 X-0.5455 Y0.8621
N5745 X-0.5007 Y0.8881
N5750 X-0.4547 Y0.9118
N5755 X-0.4075 Y0.9332
N5760 X-0.3594 Y0.9523
N5765 X-0.3103 Y0.9689
N5770 X-0.2605 Y0.983
N5775 X-0.21 Y0.9947
N5780 X-0.1591 Y1.0038
N5785 X-0.1077 Y1.0104
N5790 X-0.0561 Y1.0145
N5795 X-0.0043 Y1.016
N5800 X0.0475 Y1.015
N5805 X0.0991 Y1.0114
N5810 X0.1505 Y1.0053
N5815 X0.2016 Y0.9966
N5820 X0.2521 Y0.9854
N5825 X0.3021 Y0.9716
N5830 X0.3512 Y0.9554
N5835 X0.3995 Y0.9367
N5840 X0.4468 Y0.9156
N5845 X0.493 Y0.8922
N5850 X0.538 Y0.8665
N5855 X0.5816 Y0.8386
N5860 X0.6238 Y0.8086
N5865 X0.6644 Y0.7765
N5870 X0.7034 Y0.7424
N5875 X0.7407 Y0.7065
N5880 X0.7762 Y0.6687
N5885 X0.8097 Y0.6293
N5890 X0.8413 Y0.5883
N5895 X0.8708 Y0.5457
N5900 X0.8982 Y0.5017
N5905 X0.9233 Y0.4565
N5910 X0.9462 Y0.41
N5915 X0.9666 Y0.3624
N5920 X0.9847 Y0.3139
N5925 X1.0003 Y0.2645
N5930 X1.0134 Y0.2144
N5935 X1.024 Y0.1637
N5940 X1.0321 Y0.1126
N5945 X1.0376 Y0.0611
N5950 X1.0405 Y0.0094
N5955 X1.0409 Y-0.0424
N5960 X1.0387 Y-0.0941
N5965 X1.034 Y-0.1457
N5970 X1.0267 Y-0.197
N5975 X1.0169 Y-0.2478
N5980 X1.0046 Y-0.2981
N5985 X0.9899 Y-0.3478
N5990 X0.9727 Y-0.3966
N5995 X0.9531 Y-0.4445
N6000 X0.9311 Y-0.4914
N6005 X0.9067 Y-0.5371
N6010 X0.8802 Y-0.5816
N6015 X0.8513 Y-0.6246
N6020 X0.8204 Y-0.6661
N6025 X0.7873 Y-0.7059
N6030 X0.7521 Y-0.7439
N6035 X0.715 Y-0.78
N6040 X0.6759 Y-0.8139
N6045 X0.6349 Y-0.8457
N6050 X0.5922 Y-0.875
N6055 X0.548 Y-0.9019
N6060 X0.5024 Y-0.9264
N6065 X0.4555 Y-0.9484
N6070 X0.4075 Y-0.9679
N6075 X0.3587 Y-0.9852
N6080 X0.3091 Y-1.0001
N6085 X0.2589 Y-1.0128
N6090 X0.2082 Y-1.0235
N6095 X0.1572 Y-1.032
N6100 X0.1058 Y-1.0384
N6105 X0.0542 Y-1.0427
N6110 X0.0024 Y-1.0447
N6115 X-0.0494 Y-1.0445
N6120 X-0.1011 Y-1.0419
N6125 X-0.1526 Y-1.0368
N6130 X-0.2039 Y-1.0293
N6135 X-0.2547 Y-1.0193
N6140 X-0.3049 Y-1.0066
N6145 X-0.3543 Y-0.9914
N6150 X-0.4029 Y-0.9734
N6155 X-0.4504 Y-0.9526
N6160 X-0.4965 Y-0.9291
N6165 X-0.5411 Y-0.9028
N6170 X-0.584 Y-0.8738
N6175 X-0.6251 Y-0.8423
N6180 X-0.6643 Y-0.8084
N6185 X-0.7013 Y-0.7723
N6190 X-0.7363 Y-0.7341
N6195 X-0.769 Y-0.694
N6200 X-0.7996 Y-0.6521
N6205 X-0.8279 Y-0.6088
N6210 X-0.8539 Y-0.564
N6215 X-0.8777 Y-0.518
N6220 X-0.8992 Y-0.4709
N6225 X-0.9184 Y-0.4228
N6230 X-0.9354 Y-0.3739
N6235 X-0.95 Y-0.3242
N6240 X-0.9622 Y-0.2739
N6245 X-0.9721 Y-0.223
N6250 X-0.9795 Y-0.1718
N6255 X-0.9844 Y-0.1202
N6260 X-0.9869 Y-0.0685
N6265 X-0.9867 Y-0.0167
N6270 X-0.984 Y0.035
N6275 X-0.9787 Y0.0865
N6280 X-0.9708 Y0.1377
N6285 X-0.9604 Y0.1884
N6290 X-0.9473 Y0.2385
N6295 X-0.9318 Y0.2879
N6300 X-0.9137 Y0.3364
N6305 X-0.8931 Y0.3839
N6310 X-0.8702 Y0.4304
N6315 X-0.8448 Y0.4755
N6320 X-0.8172 Y0.5193
N6325 X-0.7873 Y0.5616
N6330 X-0.7553 Y0.6023
N6335 X-0.7211 Y0.6412
N6340 X-0.685 Y0.6783
N6345 X-0.6469 Y0.7135
N6350 X-0.6071 Y0.7465
N6355 X-0.5655 Y0.7774
N6360 X-0.5224 Y0.8061
N6365 X-0.4778 Y0.8325
N6370 X-0.4319 Y0.8564
N6375 X-0.3848 Y0.8779
N6380 X-0.3367 Y0.8969
N6385 X-0.2875 Y0.9133
N6390 X-0.2376 Y0.9272
N6395 X-0.1871 Y0.9384
N6400 X-0.136 Y0.9469
N6405 X-0.0846 Y0.9528
N6410 X-0.0329 Y0.9559
N6415 X0.0189 Y0.9563
N6420 X0.0706 Y0.954
N6425 X0.1222 Y0.949
N6430 X0.1734 Y0.9412
N6435 X0.2241 Y0.9307
N6440 X0.2742 Y0.9175
N6445 X0.3235 Y0.9018
N6450 X0.3719 Y0.8834
N6455 X0.4193 Y0.8625
N6460 X0.4655 Y0.8391
N6465 X0.5104 Y0.8133
N6470 X0.5539 Y0.7852
N6475 X0.5958 Y0.7548
N6480 X0.6361 Y0.7223
N6485 X0.6747 Y0.6877
N6490 X0.7114 Y0.6512
N6495 X0.7461 Y0.6127
N6500 X0.7787 Y0.5725
N6505 X0.8092 Y0.5306
N6510 X0.8373 Y0.4872
N6515 X0.8632 Y0.4423
N6520 X0.8867 Y0.3962
N6525 X0.9076 Y0.3488
N6530 X0.9261 Y0.3004
N6535 X0.9419 Y0.2511
N6540 X0.9551 Y0.2011
N6545 X0.9657 Y0.1504
N6550 X0.9736 Y0.0992
N6555 X0.9787 Y0.0477
N6560 X0.9812 Y-0.0041
N6565 X0.9809 Y-0.0559
N6570 X0.978 Y-0.1075
N6575 X0.9723 Y-0.159
N6580 X0.9639 Y-0.2101
N6585 X0.9528 Y-0.2607
N6590 X0.9391 Y-0.3106
N6595 X0.9227 Y-0.3598
N6600 X0.9038 Y-0.408
N6605 X0.8823 Y-0.4551
N6610 X0.8584 Y-0.501
N6615 X0.832 Y-0.5456
N6620 X0.8033 Y-0.5886
N6625 X0.7722 Y-0.6301
N6630 X0.7388 Y-0.6697
N6635 X0.7032 Y-0.7073
N6640 X0.6656 Y-0.7428
N6645 X0.6259 Y-0.7761
N6650 X0.5843 Y-0.8069
N6655 X0.5409 Y-0.8353
N6660 X0.4961 Y-0.8611
N6665 X0.4498 Y-0.8845
N6670 X0.4024 Y-0.9053
N6675 X0.354 Y-0.9237
N6680 X0.3048 Y-0.9397
N6685 X0.2548 Y-0.9533
N6690 X0.2043 Y-0.9646
N6695 X0.1533 Y-0.9736
N6700 X0.1019 Y-0.9803
N6705 X0.0503 Y-0.9846
N6710 X-0.0014 Y-0.9864
N6715 X-0.0532 Y-0.9858
N6720 X-0.1049 Y-0.9827
N6725 X-0.1564 Y-0.9769
N6730 X-0.2075 Y-0.9685
N6735 X-0.258 Y-0.9573
N6740 X-0.3079 Y-0.9433
N6745 X-0.3568 Y-0.9263
N6750 X-0.4046 Y-0.9064
N6755 X-0.4511 Y-0.8836
N6760 X-0.496 Y-0.8579
N6765 X-0.5393 Y-0.8294
N6770 X-0.5807 Y-0.7983
N6775 X-0.62 Y-0.7646
N6780 X-0.6573 Y-0.7287
N6785 X-0.6923 Y-0.6905
N6790 X-0.7251 Y-0.6504
N6795 X-0.7555 Y-0.6085
N6800 X-0.7835 Y-0.565
N6805 X-0.8092 Y-0.52
N6810 X-0.8324 Y-0.4737
N6815 X-0.8531 Y-0.4262
N6820 X-0.8714 Y-0.3778
N6825 X-0.8872 Y-0.3285
N6830 X-0.9004 Y-0.2784
N6835 X-0.9111 Y-0.2277
N6840 X-0.9191 Y-0.1766
N6845 X-0.9245 Y-0.1251
N6850 X-0.9272 Y-0.0734
N6855 X-0.9273 Y-0.0216
N6860 X-0.9245 Y0.0301
N6865 X-0.9191 Y0.0816
N6870 X-0.9109 Y0.1328
N6875 X-0.9 Y0.1834
N6880 X-0.8864 Y0.2334
N6885 X-0.8701 Y0.2825
N6890 X-0.8512 Y0.3307
N6895 X-0.8296 Y0.3778
N6900 X-0.8055 Y0.4236
N6905 X-0.7788 Y0.468
N6910 X-0.7498 Y0.5109
N6915 X-0.7184 Y0.5521
N6920 X-0.6848 Y0.5915
N6925 X-0.649 Y0.6289
N6930 X-0.6112 Y0.6643
N6935 X-0.5715 Y0.6975
N6940 X-0.53 Y0.7284
N6945 X-0.4868 Y0.757
N6950 X-0.442 Y0.7831
N6955 X-0.3959 Y0.8066
N6960 X-0.3485 Y0.8276
N6965 X-0.3001 Y0.8458
N6970 X-0.2506 Y0.8613
N6975 X-0.2004 Y0.8739
N6980 X-0.1496 Y0.8838
N6985 X-0.0983 Y0.8907
N6990 X-0.0467 Y0.8948
N6995 X0.0051 Y0.896
N7000 X0.0569 Y0.8943
N7005 X0.1084 Y0.8896
N7010 X0.1597 Y0.8821
N7015 X0.2104 Y0.8717
N7020 X0.2605 Y0.8584
N7025 X0.3097 Y0.8424
N7030 X0.358 Y0.8236
N7035 X0.4051 Y0.8022
N7040 X0.4509 Y0.7781
N7045 X0.4954 Y0.7515
N7050 X0.5382 Y0.7224
N7055 X0.5794 Y0.6909
N7060 X0.6187 Y0.6572
N7065 X0.656 Y0.6214
N7070 X0.6913 Y0.5835
N7075 X0.7244 Y0.5437
N7080 X0.7553 Y0.5021
N7085 X0.7837 Y0.4588
N7090 X0.8097 Y0.414
N7095 X0.8331 Y0.3678
N7100 X0.8538 Y0.3203
N7105 X0.8719 Y0.2718
N7110 X0.8872 Y0.2223
N7115 X0.8997 Y0.1721
N7120 X0.9094 Y0.1212
N7125 X0.9161 Y0.0699
N7130 X0.92 Y0.0182
N7135 X0.9209 Y-0.0335
N7140 X0.919 Y-0.0853
N7145 X0.9141 Y-0.1368
N7150 X0.9064 Y-0.188
N7155 X0.8958 Y-0.2387
N7160 X0.8824 Y-0.2888
N7165 X0.8662 Y-0.3379
N7170 X0.8472 Y-0.3861
N7175 X0.8256 Y-0.4331
N7180 X0.8012 Y-0.4789
N7185 X0.7743 Y-0.5231
N7190 X0.7448 Y-0.5656
N7195 X0.7127 Y-0.6063
N7200 X0.6783 Y-0.645
N7205 X0.6415 Y-0.6814
N7210 X0.6025 Y-0.7155
N7215 X0.5615 Y-0.7472
N7220 X0.5187 Y-0.7763
N7225 X0.4743 Y-0.8029
N7230 X0.4284 Y-0.8269
N7235 X0.3812 Y-0.8482
N7240 X0.333 Y-0.867
N7245 X0.2838 Y-0.8833
N7250 X0.2339 Y-0.897
N7255 X0.1833 Y-0.9082
N7260 X0.1323 Y-0.9169
N7265 X0.0808 Y-0.923
N7270 X0.0292 Y-0.9265
N7275 X-0.0226 Y-0.9273
N7280 X-0.0744 Y-0.9254
N7285 X-0.1259 Y-0.9206
N7290 X-0.1771 Y-0.9129
N7295 X-0.2278 Y-0.9023
N7300 X-0.2777 Y-0.8886
N7305 X-0.3267 Y-0.8717
N7310 X-0.3745 Y-0.8518
N7315 X-0.4209 Y-0.8289
N7320 X-0.4658 Y-0.8029
N7325 X-0.5088 Y-0.7741
N7330 X-0.5498 Y-0.7425
N7335 X-0.5887 Y-0.7083
N7340 X-0.6253 Y-0.6716
N7345 X-0.6595 Y-0.6328
N7350 X-0.6913 Y-0.5919
N7355 X-0.7207 Y-0.5493
N7360 X-0.7474 Y-0.5049
N7365 X-0.7716 Y-0.4591
N7370 X-0.7931 Y-0.412
N7375 X-0.812 Y-0.3638
N7380 X-0.8282 Y-0.3146
N7385 X-0.8416 Y-0.2646
N7390 X-0.8522 Y-0.2139
N7395 X-0.8601 Y-0.1627
N7400 X-0.8651 Y-0.1112
N7405 X-0.8672 Y-0.0595
N7410 X-0.8664 Y-0.0077
N7415 X-0.8627 Y0.044
N7420 X-0.856 Y0.0953
N7425 X-0.8464 Y0.1462
N7430 X-0.8339 Y0.1965
N7435 X-0.8185 Y0.2459
N7440 X-0.8003 Y0.2944
N7445 X-0.7793 Y0.3417
N7450 X-0.7555 Y0.3877
N7455 X-0.7291 Y0.4323
N7460 X-0.7001 Y0.4752
N7465 X-0.6686 Y0.5163
N7470 X-0.6348 Y0.5555
N7475 X-0.5986 Y0.5925
N7480 X-0.5603 Y0.6274
N7485 X-0.52 Y0.6599
N7490 X-0.4778 Y0.6899
N7495 X-0.4338 Y0.7173
N7500 X-0.3883 Y0.742
N7505 X-0.3414 Y0.7639
N7510 X-0.2933 Y0.783
N7515 X-0.2441 Y0.7992
N7520 X-0.194 Y0.8123
N7525 X-0.1432 Y0.8225
N7530 X-0.0919 Y0.8296
N7535 X-0.0403 Y0.8336
N7540 X0.0115 Y0.8345
N7545 X0.0632 Y0.8323
N7550 X0.1147 Y0.8269
N7555 X0.1658 Y0.8185
N7560 X0.2163 Y0.8069
N7565 X0.266 Y0.7924
N7570 X0.3147 Y0.7749
N7575 X0.3623 Y0.7544
N7580 X0.4086 Y0.7312
N7585 X0.4534 Y0.7052
N7590 X0.4965 Y0.6766
N7595 X0.5379 Y0.6454
N7600 X0.5773 Y0.6118
N7605 X0.6146 Y0.5759
N7610 X0.6497 Y0.5378
N7615 X0.6824 Y0.4977
N7620 X0.7127 Y0.4557
N7625 X0.7403 Y0.4119
N7630 X0.7653 Y0.3665
N7635 X0.7875 Y0.3197
N7640 X0.8068 Y0.2716
N7645 X0.8231 Y0.2225
N7650 X0.8365 Y0.1725
N7655 X0.8469 Y0.1218
N7660 X0.8542 Y0.0705
N7665 X0.8584 Y0.0189
N7670 X0.8594 Y-0.0329
N7675 X0.8574 Y-0.0846
N7680 X0.8523 Y-0.1362
N7685 X0.8441 Y-0.1873
N7690 X0.8328 Y-0.2378
N7695 X0.8185 Y-0.2876
N7700 X0.8011 Y-0.3364
N7705 X0.7808 Y-0.384
N7710 X0.7575 Y-0.4303
N7715 X0.7314 Y-0.475
N7720 X0.7025 Y-0.518
N7725 X0.6709 Y-0.559
N7730 X0.6366 Y-0.5978
N7735 X0.6 Y-0.6344
N7740 X0.561 Y-0.6685
N7745 X0.5199 Y-0.7
N7750 X0.477 Y-0.729
N7755 X0.4323 Y-0.7552
N7760 X0.3862 Y-0.7786
N7765 X0.3387 Y-0.7994
N7770 X0.2901 Y-0.8174
N7775 X0.2407 Y-0.8326
N7780 X0.1904 Y-0.8451
N7785 X0.1395 Y-0.8548
N7790 X0.0882 Y-0.8618
N7795 X0.0366 Y-0.8658
N7800 X-0.0152 Y-0.8669
N7805 X-0.0669 Y-0.865
N7810 X-0.1185 Y-0.86
N7815 X-0.1696 Y-0.8519
N7820 X-0.2201 Y-0.8405
N7825 X-0.2698 Y-0.8257
N7830 X-0.3183 Y-0.8076
N7835 X-0.3655 Y-0.7863
N7840 X-0.411 Y-0.7617
N7845 X-0.4548 Y-0.734
N7850 X-0.4965 Y-0.7034
N7855 X-0.5361 Y-0.6699
N7860 X-0.5733 Y-0.6339
N7865 X-0.6081 Y-0.5955
N7870 X-0.6402 Y-0.555
N7875 X-0.6697 Y-0.5124
N7880 X-0.6965 Y-0.4681
N7885 X-0.7205 Y-0.4222
N7890 X-0.7416 Y-0.3749
N7895 X-0.7597 Y-0.3264
N7900 X-0.775 Y-0.2769
N7905 X-0.7872 Y-0.2266
N7910 X-0.7964 Y-0.1756
N7915 X-0.8025 Y-0.1242
N7920 X-0.8055 Y-0.0725
N7925 X-0.8053 Y-0.0207
N7930 X-0.802 Y0.031
N7935 X-0.7956 Y0.0824
N7940 X-0.7861 Y0.1333
N7945 X-0.7734 Y0.1835
N7950 X-0.7577 Y0.2328
N7955 X-0.7388 Y0.2811
N7960 X-0.717 Y0.328
N7965 X-0.6923 Y0.3735
N7970 X-0.6647 Y0.4173
N7975 X-0.6344 Y0.4593
N7980 X-0.6014 Y0.4993
N7985 X-0.566 Y0.537
N7990 X-0.5282 Y0.5725
N7995 X-0.4883 Y0.6054
N8000 X-0.4463 Y0.6357
N8005 X-0.4024 Y0.6632
N8010 X-0.3568 Y0.6878
N8015 X-0.3098 Y0.7094
N8020 X-0.2614 Y0.728
N8025 X-0.212 Y0.7433
N8030 X-0.1616 Y0.7554
N8035 X-0.1106 Y0.7642
N8040 X-0.0591 Y0.7697
N8045 X-0.0074 Y0.7719
N8050 X0.0444 Y0.7707
N8055 X0.096 Y0.7661
N8060 X0.1472 Y0.7582
N8065 X0.1977 Y0.747
N8070 X0.2474 Y0.7325
N8075 X0.2961 Y0.7149
N8080 X0.3436 Y0.6941
N8085 X0.3895 Y0.6702
N8090 X0.4338 Y0.6435
N8095 X0.4763 Y0.6138
N8100 X0.5168 Y0.5816
N8105 X0.5551 Y0.5467
N8110 X0.5911 Y0.5094
N8115 X0.6245 Y0.4699
N8120 X0.6554 Y0.4283
N8125 X0.6834 Y0.3848
N8130 X0.7086 Y0.3396
N8135 X0.7308 Y0.2928
N8140 X0.7499 Y0.2446
N8145 X0.7659 Y0.1954
N8150 X0.7785 Y0.1452
N8155 X0.7879 Y0.0942
N8160 X0.794 Y0.0428
N8165 X0.7967 Y-0.0089
N8170 X0.7961 Y-0.0607
N8175 X0.792 Y-0.1123
N8180 X0.7847 Y-0.1636
N8185 X0.774 Y-0.2142
N8190 X0.76 Y-0.2641
N8195 X0.7427 Y-0.3129
N8200 X0.7222 Y-0.3605
N8205 X0.6985 Y-0.4065
N8210 X0.6717 Y-0.4508
N8215 X0.6418 Y-0.4931
N8220 X0.6091 Y-0.5333
N8225 X0.5737 Y-0.571
N8230 X0.5358 Y-0.6063
N8235 X0.4956 Y-0.6389
N8240 X0.4532 Y-0.6688
N8245 X0.4091 Y-0.6958
N8250 X0.3632 Y-0.7199
N8255 X0.316 Y-0.7411
N8260 X0.2676 Y-0.7594
N8265 X0.2181 Y-0.7747
N8270 X0.1678 Y-0.787
N8275 X0.1168 Y-0.7961
N8280 X0.0654 Y-0.8022
N8285 X0.0137 Y-0.805
N8290 X-0.0381 Y-0.8045
N8295 X-0.0898 Y-0.8006
N8300 X-0.141 Y-0.7932
N8305 X-0.1916 Y-0.7823
N8310 X-0.2414 Y-0.7679
N8315 X-0.2899 Y-0.7499
N8320 X-0.337 Y-0.7283
N8325 X-0.3824 Y-0.7034
N8330 X-0.4258 Y-0.6751
N8335 X-0.467 Y-0.6438
N8340 X-0.5059 Y-0.6095
N8345 X-0.5421 Y-0.5726
N8350 X-0.5757 Y-0.5332
N8355 X-0.6065 Y-0.4915
N8360 X-0.6344 Y-0.4479
N8365 X-0.6592 Y-0.4024
N8370 X-0.6809 Y-0.3554
N8375 X-0.6995 Y-0.3071
N8380 X-0.7149 Y-0.2577
N8385 X-0.727 Y-0.2073
N8390 X-0.7357 Y-0.1563
N8395 X-0.7411 Y-0.1048
N8400 X-0.743 Y-0.053
N8405 X-0.7415 Y-0.0012
N8410 X-0.7367 Y0.0503
N8415 X-0.7284 Y0.1014
N8420 X-0.7167 Y0.1519
N8425 X-0.7017 Y0.2014
N8430 X-0.6833 Y0.2499
N8435 X-0.6617 Y0.2969
N8440 X-0.637 Y0.3424
N8445 X-0.6092 Y0.3861
N8450 X-0.5784 Y0.4277
N8455 X-0.5448 Y0.4671
N8460 X-0.5085 Y0.5041
N8465 X-0.4698 Y0.5385
N8470 X-0.4287 Y0.5701
N8475 X-0.3856 Y0.5987
N8480 X-0.3406 Y0.6243
N8485 X-0.2939 Y0.6466
N8490 X-0.2457 Y0.6656
N8495 X-0.1963 Y0.6812
N8500 X-0.146 Y0.6933
N8505 X-0.0949 Y0.7018
N8510 X-0.0433 Y0.7066
N8515 X0.0085 Y0.7078
N8520 X0.0602 Y0.7053
N8525 X0.1116 Y0.6992
N8530 X0.1625 Y0.6895
N8535 X0.2125 Y0.6762
N8540 X0.2615 Y0.6595
N8545 X0.3092 Y0.6393
N8550 X0.3554 Y0.6158
N8555 X0.3998 Y0.5892
N8560 X0.4421 Y0.5594
N8565 X0.4823 Y0.5267
N8570 X0.52 Y0.4912
N8575 X0.5552 Y0.4532
N8580 X0.5876 Y0.4128
N8585 X0.617 Y0.3702
N8590 X0.6434 Y0.3256
N8595 X0.6665 Y0.2793
N8600 X0.6864 Y0.2315
N8605 X0.7028 Y0.1824
N8610 X0.7157 Y0.1322
N8615 X0.7251 Y0.0813
N8620 X0.7307 Y0.0298
N8625 X0.7327 Y-0.0219
N8630 X0.7311 Y-0.0737
N8635 X0.7258 Y-0.1252
N8640 X0.7168 Y-0.1762
N8645 X0.7041 Y-0.2264
N8650 X0.6878 Y-0.2756
N8655 X0.668 Y-0.3234
N8660 X0.6447 Y-0.3696
N8665 X0.618 Y-0.414
N8670 X0.588 Y-0.4562
N8675 X0.5549 Y-0.4961
N8680 X0.519 Y-0.5333
N8685 X0.4804 Y-0.5679
N8690 X0.4394 Y-0.5996
N8695 X0.3963 Y-0.6283
N8700 X0.3513 Y-0.6539
N8705 X0.3047 Y-0.6764
N8710 X0.2567 Y-0.6957
N8715 X0.2074 Y-0.7118
N8720 X0.1572 Y-0.7245
N8725 X0.1063 Y-0.7337
N8730 X0.0548 Y-0.7395
N8735 X0.0031 Y-0.7415
N8740 X-0.0487 Y-0.7399
N8745 X-0.1002 Y-0.7344
N8750 X-0.1511 Y-0.7251
N8755 X-0.2012 Y-0.7119
N8760 X-0.2501 Y-0.6949
N8765 X-0.2975 Y-0.674
N8770 X-0.3431 Y-0.6495
N8775 X-0.3866 Y-0.6214
N8780 X-0.4278 Y-0.59
N8785 X-0.4664 Y-0.5554
N8790 X-0.5021 Y-0.518
N8795 X-0.535 Y-0.478
N8800 X-0.5647 Y-0.4356
N8805 X-0.5912 Y-0.3911
N8810 X-0.6144 Y-0.3448
N8815 X-0.6341 Y-0.2969
N8820 X-0.6503 Y-0.2477
N8825 X-0.6629 Y-0.1975
N8830 X-0.6718 Y-0.1465
N8835 X-0.677 Y-0.0949
N8840 X-0.6784 Y-0.0432
N8845 X-0.6761 Y0.0086
N8850 X-0.67 Y0.06
N8855 X-0.6602 Y0.1108
N8860 X-0.6467 Y0.1608
N8865 X-0.6295 Y0.2097
N8870 X-0.6088 Y0.2571
N8875 X-0.5846 Y0.3029
N8880 X-0.5571 Y0.3468
N8885 X-0.5262 Y0.3884
N8890 X-0.4923 Y0.4275
N8895 X-0.4555 Y0.464
N8900 X-0.4161 Y0.4975
N8905 X-0.3742 Y0.528
N8910 X-0.3301 Y0.5551
N8915 X-0.2841 Y0.5788
N8920 X-0.2364 Y0.5989
N8925 X-0.1872 Y0.6153
N8930 X-0.137 Y0.6279
N8935 X-0.0859 Y0.6364
N8940 X-0.0343 Y0.641
N8945 X0.0174 Y0.6416
N8950 X0.0691 Y0.6382
N8955 X0.1204 Y0.6307
N8960 X0.1709 Y0.6194
N8965 X0.2204 Y0.6042
N8970 X0.2686 Y0.5852
N8975 X0.3151 Y0.5626
N8980 X0.3598 Y0.5363
N8985 X0.4023 Y0.5067
N8990 X0.4423 Y0.4739
N8995 X0.4797 Y0.438
N9000 X0.5141 Y0.3994
N9005 X0.5455 Y0.3582
N9010 X0.5736 Y0.3147
N9015 X0.5982 Y0.2691
N9020 X0.6193 Y0.2218
N9025 X0.6366 Y0.173
N9030 X0.6501 Y0.123
N9035 X0.6596 Y0.0721
N9040 X0.6651 Y0.0206
N9045 X0.6665 Y-0.0312
N9050 X0.6639 Y-0.0829
N9055 X0.6572 Y-0.1342
N9060 X0.6464 Y-0.1849
N9065 X0.6317 Y-0.2345
N9070 X0.6129 Y-0.2828
N9075 X0.5903 Y-0.3294
N9080 X0.5639 Y-0.3739
N9085 X0.5339 Y-0.4161
N9090 X0.5006 Y-0.4558
N9095 X0.4643 Y-0.4927
N9100 X0.4252 Y-0.5266
N9105 X0.3835 Y-0.5574
N9110 X0.3396 Y-0.5849
N9115 X0.2938 Y-0.6089
N9120 X0.2463 Y-0.6295
N9125 X0.1973 Y-0.6465
N9130 X0.1473 Y-0.6597
N9135 X0.0963 Y-0.669
N9140 X0.0448 Y-0.6742
N9145 X-0.007 Y-0.6754
N9150 X-0.0587 Y-0.6723
N9155 X-0.1099 Y-0.665
N9160 X-0.1604 Y-0.6534
N9165 X-0.2097 Y-0.6376
N9170 X-0.2575 Y-0.6175
N9175 X-0.3033 Y-0.5934
N9180 X-0.3469 Y-0.5654
N9185 X-0.3879 Y-0.5338
N9190 X-0.4261 Y-0.4988
N9195 X-0.4612 Y-0.4608
N9200 X-0.493 Y-0.4199
N9205 X-0.5214 Y-0.3766
N9210 X-0.5461 Y-0.3311
N9215 X-0.567 Y-0.2837
N9220 X-0.5841 Y-0.2348
N9225 X-0.597 Y-0.1847
N9230 X-0.6059 Y-0.1337
N9235 X-0.6106 Y-0.0821
N9240 X-0.6112 Y-0.0303
N9245 X-0.6076 Y0.0213
N9250 X-0.5998 Y0.0725
N9255 X-0.5879 Y0.1229
N9260 X-0.572 Y0.1722
N9265 X-0.552 Y0.22
N9270 X-0.5281 Y0.2659
N9275 X-0.5005 Y0.3097
N9280 X-0.4693 Y0.351
N9285 X-0.4347 Y0.3896
N9290 X-0.397 Y0.4251
N9295 X-0.3565 Y0.4573
N9300 X-0.3134 Y0.486
N9305 X-0.268 Y0.511
N9310 X-0.2206 Y0.5319
N9315 X-0.1716 Y0.5487
N9320 X-0.1214 Y0.5611
N9325 X-0.0702 Y0.5693
N9330 X-0.0186 Y0.573
N9335 X0.0332 Y0.5722
N9340 X0.0847 Y0.5671
N9345 X0.1356 Y0.5575
N9350 X0.1855 Y0.5436
N9355 X0.234 Y0.5254
N9360 X0.2807 Y0.5031
N9365 X0.3253 Y0.4768
N9370 X0.3675 Y0.4467
N9375 X0.4069 Y0.4131
N9380 X0.4432 Y0.3762
N9385 X0.4763 Y0.3364
N9390 X0.5058 Y0.2938
N9395 X0.5316 Y0.2489
N9400 X0.5532 Y0.2019
N9405 X0.5708 Y0.1531
N9410 X0.584 Y0.1031
N9415 X0.5928 Y0.052
N9420 X0.5971 Y0.0004
N9425 X0.5968 Y-0.0514
N9430 X0.592 Y-0.1029
N9435 X0.5826 Y-0.1538
N9440 X0.5686 Y-0.2037
N9445 X0.5501 Y-0.2521
N9450 X0.5273 Y-0.2986
N9455 X0.5004 Y-0.3428
N9460 X0.4697 Y-0.3845
N9465 X0.4354 Y-0.4233
N9470 X0.3978 Y-0.459
N9475 X0.3574 Y-0.4913
N9480 X0.3143 Y-0.52
N9485 X0.2688 Y-0.5449
N9490 X0.2215 Y-0.5657
N9495 X0.1724 Y-0.5824
N9500 X0.1222 Y-0.5948
N9505 X0.071 Y-0.6027
N9510 X0.0193 Y-0.606
N9515 X-0.0325 Y-0.6046
N9520 X-0.0839 Y-0.5983
N9525 X-0.1344 Y-0.5872
N9530 X-0.1837 Y-0.5713
N9535 X-0.2313 Y-0.5508
N9540 X-0.2767 Y-0.5258
N9545 X-0.3195 Y-0.4967
N9550 X-0.3593 Y-0.4636
N9555 X-0.3959 Y-0.427
N9560 X-0.4288 Y-0.387
N9565 X-0.4579 Y-0.3442
N9570 X-0.4829 Y-0.2988
N9575 X-0.5036 Y-0.2514
N9580 X-0.5199 Y-0.2022
N9585 X-0.5317 Y-0.1518
N9590 X-0.5388 Y-0.1005
N9595 X-0.5412 Y-0.0488
N9600 X-0.5388 Y0.003
N9605 X-0.5317 Y0.0543
N9610 X-0.5199 Y0.1047
N9615 X-0.5034 Y0.1538
N9620 X-0.4825 Y0.2011
N9625 X-0.4572 Y0.2464
N9630 X-0.4278 Y0.289
N9635 X-0.3945 Y0.3286
N9640 X-0.3575 Y0.3649
N9645 X-0.3173 Y0.3974
N9650 X-0.2741 Y0.426
N9655 X-0.2283 Y0.4503
N9660 X-0.1805 Y0.4701
N9665 X-0.1309 Y0.4851
N9670 X-0.0801 Y0.4952
N9675 X-0.0286 Y0.5003
N9680 X0.0232 Y0.5004
N9685 X0.0747 Y0.4954
N9690 X0.1255 Y0.4854
N9695 X0.1751 Y0.4705
N9700 X0.223 Y0.4508
N9705 X0.2687 Y0.4265
N9710 X0.3118 Y0.3978
N9715 X0.3519 Y0.365
N9720 X0.3886 Y0.3284
N9725 X0.4215 Y0.2884
N9730 X0.4503 Y0.2454
N9735 X0.4747 Y0.1997
N9740 X0.4944 Y0.1519
N9745 X0.5093 Y0.1023
N9750 X0.5191 Y0.0514
N9755 X0.5238 Y-0.0001
N9760 X0.5233 Y-0.0519
N9765 X0.5175 Y-0.1034
N9770 X0.5064 Y-0.154
N9775 X0.4901 Y-0.2031
N9780 X0.4689 Y-0.2504
N9785 X0.4431 Y-0.2952
N9790 X0.4128 Y-0.3373
N9795 X0.3786 Y-0.3761
N9800 X0.3406 Y-0.4114
N9805 X0.2994 Y-0.4427
N9810 X0.2552 Y-0.4697
N9815 X0.2086 Y-0.4922
N9820 X0.1599 Y-0.5098
N9825 X0.1097 Y-0.5225
N9830 X0.0584 Y-0.5299
N9835 X0.0067 Y-0.5318
N9840 X-0.045 Y-0.5282
N9845 X-0.096 Y-0.519
N9850 X-0.1456 Y-0.5044
N9855 X-0.1934 Y-0.4845
N9860 X-0.2388 Y-0.4595
N9865 X-0.2812 Y-0.4297
N9870 X-0.3201 Y-0.3956
N9875 X-0.3551 Y-0.3574
N9880 X-0.3858 Y-0.3157
N9885 X-0.4118 Y-0.2709
N9890 X-0.433 Y-0.2237
N9895 X-0.4491 Y-0.1744
N9900 X-0.4598 Y-0.1238
N9905 X-0.4651 Y-0.0723
N9910 X-0.4648 Y-0.0205
N9915 X-0.459 Y0.031
N9920 X-0.4477 Y0.0815
N9925 X-0.4311 Y0.1306
N9930 X-0.4091 Y0.1775
N9935 X-0.3822 Y0.2217
N9940 X-0.3506 Y0.2627
N9945 X-0.3146 Y0.3
N9950 X-0.2748 Y0.333
N9955 X-0.2315 Y0.3614
N9960 X-0.1852 Y0.3847
N9965 X-0.1366 Y0.4027
N9970 X-0.0863 Y0.415
N9975 X-0.035 Y0.4216
N9980 X0.0168 Y0.4223
N9985 X0.0683 Y0.417
N9990 X0.1189 Y0.4059
N9995 X0.1678 Y0.389
N10000 X0.2145 Y0.3666
N10005 X0.2584 Y0.3391
N10010 X0.2987 Y0.3066
N10015 X0.335 Y0.2697
N10020 X0.3668 Y0.2287
N10025 X0.3935 Y0.1844
N10030 X0.4149 Y0.1373
N10035 X0.4306 Y0.0879
N10040 X0.4402 Y0.037
N10045 X0.4437 Y-0.0147
N10050 X0.4409 Y-0.0664
N10055 X0.432 Y-0.1174
N10060 X0.4171 Y-0.167
N10065 X0.3963 Y-0.2144
N10070 X0.3701 Y-0.259
N10075 X0.3387 Y-0.3002
N10080 X0.3027 Y-0.3375
N10085 X0.2626 Y-0.3702
N10090 X0.2187 Y-0.3977
N10095 X0.1719 Y-0.4198
N10100 X0.1227 Y-0.4359
N10105 X0.0718 Y-0.4457
N10110 X0.0201 Y-0.449
N10115 X-0.0315 Y-0.4457
N10120 X-0.0824 Y-0.4358
N10125 X-0.1315 Y-0.4194
N10130 X-0.1781 Y-0.3968
N10135 X-0.2213 Y-0.3683
N10140 X-0.2605 Y-0.3345
N10145 X-0.2951 Y-0.2959
N10150 X-0.3244 Y-0.2532
N10155 X-0.3478 Y-0.207
N10160 X-0.3651 Y-0.1582
N10165 X-0.376 Y-0.1076
N10170 X-0.3802 Y-0.056
N10175 X-0.3776 Y-0.0043
N10180 X-0.3682 Y0.0467
N10185 X-0.3521 Y0.0959
N10190 X-0.3296 Y0.1425
N10195 X-0.301 Y0.1857
N10200 X-0.2668 Y0.2246
N10205 X-0.2276 Y0.2584
N10210 X-0.1841 Y0.2865
N10215 X-0.1371 Y0.3083
N10220 X-0.0875 Y0.3233
N10225 X-0.0364 Y0.3312
N10230 X0.0154 Y0.3318
N10235 X0.0667 Y0.3249
N10240 X0.1166 Y0.3108
N10245 X0.1639 Y0.2898
N10250 X0.2076 Y0.262
N10255 X0.2468 Y0.2282
N10260 X0.2806 Y0.1889
N10265 X0.3081 Y0.1451
N10270 X0.3288 Y0.0976
N10275 X0.3421 Y0.0476
N10280 X0.3477 Y-0.0039
N10285 X0.3454 Y-0.0557
N10290 X0.3353 Y-0.1065
N10295 X0.3176 Y-0.1551
N10300 X0.2926 Y-0.2005
N10305 X0.2609 Y-0.2414
N10310 X0.2232 Y-0.2769
N10315 X0.1802 Y-0.3058
N10320 X0.1331 Y-0.3273
N10325 X0.0827 Y-0.3392
N10330 X0.031 Y-0.3427
N10335 X-0.0205 Y-0.3374
N10340 X-0.0704 Y-0.3235
N10345 X-0.117 Y-0.3011
N10350 X-0.1591 Y-0.2709
N10355 X-0.1951 Y-0.2337
N10360 X-0.2238 Y-0.1906
N10365 X-0.244 Y-0.1429
N10370 X-0.2549 Y-0.0923
N10375 X-0.2559 Y-0.0405
N10380 X-0.2467 Y0.0105
N10385 X-0.2272 Y0.0585
N10390 X-0.1982 Y0.1013
N10395 X-0.1606 Y0.1369
N10400 X-0.1159 Y0.1631
N10405 X-0.0911 Y0.1706
N10410 X-0.0656 Y0.175
N10415 X-0.0397 Y0.1764
N10420 X-0.0139 Y0.1746
N10425 X0.0116 Y0.1698
N10430 X0.0362 Y0.162
N10435 X0.0421 Y0.1594
N10440 X0.045 Y0.158
N10445 G3 X0.0753 Y0.1546 I0.0204 J0.0456
N10450 G1 X0.0808 Y0.1557 Z3.0053
N10455 X0.0862 Y0.1568 Z3.0063
N10460 X0.0915 Y0.1578 Z3.0078
N10465 X0.0966 Y0.1588 Z3.01
N10470 X0.1014 Y0.1598 Z3.0127
N10475 X0.1059 Y0.1607 Z3.0159
N10480 X0.11 Y0.1615 Z3.0196
N10485 X0.1136 Y0.1623 Z3.0238
N10490 X0.1168 Y0.1629 Z3.0284
N10495 X0.1195 Y0.1634 Z3.0333
N10500 X0.1216 Y0.1639 Z3.0385
N10505 X0.1231 Y0.1642 Z3.0439
N10510 X0.124 Y0.1643 Z3.0494
N10515 X0.1243 Y0.1644 Z3.055
N10520 G0 Z3.85

(2D Contour1)
N10525 G1 X0.4 Y-1.625 F500.
N10530 G1 Z3.85
N10535 Z3.45
N10540 Z2.8 F20.
N10545 G19 G3 Y-1.575 Z2.75 J0.05 K0. F187.5
N10550 G1 Y-1.525
N10555 G17 G3 X0.35 Y-1.475 I-0.05 J0.
N10560 G1 X-0.35
N10565 G3 X-0.4 Y-1.525 I0. J-0.05
N10570 G1 Y-1.575
N10575 G19 G2 Y-1.625 Z2.8 J0. K0.05
N10580 G1 X0.4
N10585 Z2.3 F20.
N10590 G3 Y-1.575 Z2.25 J0.05 K0. F187.5
N10595 G1 Y-1.525
N10600 G17 G3 X0.35 Y-1.475 I-0.05 J0.
N10605 G1 X-0.35
N10610 G3 X-0.4 Y-1.525 I0. J-0.05
N10615 G1 Y-1.575
N10620 G19 G2 Y-1.625 Z2.3 J0. K0.05
N10625 G1 X0.4
N10630 Z1.8 F20.
N10635 G3 Y-1.575 Z1.75 J0.05 K0. F187.5
N10640 G1 Y-1.525
N10645 G17 G3 X0.35 Y-1.475 I-0.05 J0.
N10650 G1 X-0.35
N10655 G3 X-0.4 Y-1.525 I0. J-0.05
N10660 G1 Y-1.575
N10665 G19 G2 Y-1.625 Z1.8 J0. K0.05
N10670 G1 X0.4
N10675 Z1.3 F20.
N10680 G3 Y-1.575 Z1.25 J0.05 K0. F187.5
N10685 G1 Y-1.525
N10690 G17 G3 X0.35 Y-1.475 I-0.05 J0.
N10695 G1 X-0.35
N10700 G3 X-0.4 Y-1.525 I0. J-0.05
N10705 G1 Y-1.575
N10710 G19 G2 Y-1.625 Z1.3 J0. K0.05
N10715 G1 X0.4
N10720 Z0.8 F20.
N10725 G3 Y-1.575 Z0.75 J0.05 K0. F187.5
N10730 G1 Y-1.525
N10735 G17 G3 X0.35 Y-1.475 I-0.05 J0.
N10740 G1 X-0.35
N10745 G3 X-0.4 Y-1.525 I0. J-0.05
N10750 G1 Y-1.575
N10755 G19 G2 Y-1.625 Z0.8 J0. K0.05
N10760 G1 X0.4
N10765 Z0.3 F20.
N10770 G3 Y-1.575 Z0.25 J0.05 K0. F187.5
N10775 G1 Y-1.525
N10780 G17 G3 X0.35 Y-1.475 I-0.05 J0.
N10785 G1 X-0.35
N10790 G3 X-0.4 Y-1.525 I0. J-0.05
N10795 G1 Y-1.575
N10800 G19 G2 Y-1.625 Z0.3 J0. K0.05
N10805 G1 X0.4
N10810 Z0.05 F20.
N10815 G3 Y-1.575 Z0. J0.05 K0. F187.5
N10820 G1 Y-1.525
N10825 G17 G3 X0.35 Y-1.475 I-0.05 J0.
N10830 G1 X-0.35
N10835 G3 X-0.4 Y-1.525 I0. J-0.05
N10840 G1 Y-1.575
N10845 G19 G2 Y-1.625 Z0.05 J0. K0.05
N10850 G1 Z3.85 F500.

(Bore1)
N10855 G17
N10860 G1 X0.014 Y-0.2147 F500.
N10865 G0 Z3.85
N10870 Z3.08
N10875 G1 Z3.05 F187.5
N10880 X0.0141 Y-0.215 Z3.0444
N10885 X0.0144 Y-0.2159 Z3.0389
N10890 X0.015 Y-0.2173 Z3.0335
N10895 X0.0157 Y-0.2193 Z3.0283
N10900 X0.0166 Y-0.2219 Z3.0234
N10905 X0.0177 Y-0.225 Z3.0188
N10910 X0.0189 Y-0.2285 Z3.0146
N10915 X0.0203 Y-0.2324 Z3.0109
N10920 X0.0218 Y-0.2367 Z3.0077
N10925 X0.0235 Y-0.2414 Z3.005
N10930 X0.0252 Y-0.2462 Z3.0028
N10935 X0.027 Y-0.2513 Z3.0013
N10940 X0.0288 Y-0.2565 Z3.0003
N10945 X0.0307 Y-0.2618 Z3.
N10950 X0.039 Y-0.2854
N10955 G3 X0.1028 Y-0.3159 I0.0471 J0.0167
N10960 X0.0771 Y-0.3237 Z2.9615 I-0.1028 J0.2909
N10965 X0.0508 Y-0.3293 Z2.9231 I-0.0771 J0.2987
N10970 X0.0241 Y-0.3326 Z2.8846 I-0.0508 J0.3043
N10975 X-0.0028 Y-0.3335 Z2.8461 I-0.0241 J0.3076
N10980 X-0.0297 Y-0.3321 Z2.8077 I0.0028 J0.3085
N10985 X-0.0564 Y-0.3283 Z2.7692 I0.0297 J0.3071
N10990 X-0.0826 Y-0.3222 Z2.7307 I0.0564 J0.3033
N10995 X-0.1082 Y-0.3139 Z2.6923 I0.0826 J0.2972
N11000 X-0.133 Y-0.3034 Z2.6538 I0.1082 J0.2889
N11005 X-0.1567 Y-0.2907 Z2.6154 I0.133 J0.2784
N11010 X-0.1793 Y-0.2761 Z2.5769 I0.1567 J0.2657
N11015 X-0.2005 Y-0.2595 Z2.5384 I0.1793 J0.2511
N11020 X-0.2201 Y-0.2411 Z2.5 I0.2005 J0.2345
N11025 X-0.2381 Y-0.2211 Z2.4615 I0.2201 J0.2161
N11030 X-0.2543 Y-0.1996 Z2.423 I0.2381 J0.1961
N11035 X-0.2686 Y-0.1768 Z2.3846 I0.2543 J0.1746
N11040 X-0.2808 Y-0.1528 Z2.3461 I0.2686 J0.1518
N11045 X-0.2909 Y-0.1278 Z2.3076 I0.2808 J0.1278
N11050 X-0.2987 Y-0.1021 Z2.2692 I0.2909 J0.1028
N11055 X-0.3043 Y-0.0758 Z2.2307 I0.2987 J0.0771
N11060 X-0.3076 Y-0.0491 Z2.1922 I0.3043 J0.0508
N11065 X-0.3085 Y-0.0222 Z2.1538 I0.3076 J0.0241
N11070 X-0.3071 Y0.0047 Z2.1153 I0.3085 J-0.0028
N11075 X-0.3033 Y0.0314 Z2.0768 I0.3071 J-0.0297
N11080 X-0.2972 Y0.0576 Z2.0384 I0.3033 J-0.0564
N11085 X-0.2889 Y0.0832 Z1.9999 I0.2972 J-0.0826
N11090 X-0.2784 Y0.108 Z1.9615 I0.2889 J-0.1082
N11095 X-0.2657 Y0.1317 Z1.923 I0.2784 J-0.133
N11100 X-0.2511 Y0.1543 Z1.8845 I0.2657 J-0.1567
N11105 X-0.2345 Y0.1755 Z1.8461 I0.2511 J-0.1793
N11110 X-0.2161 Y0.1951 Z1.8076 I0.2345 J-0.2005
N11115 X-0.1961 Y0.2131 Z1.7691 I0.2161 J-0.2201
N11120 X-0.1746 Y0.2293 Z1.7307 I0.1961 J-0.2381
N11125 X-0.1518 Y0.2436 Z1.6922 I0.1746 J-0.2543
N11130 X-0.1278 Y0.2558 Z1.6537 I0.1518 J-0.2686
N11135 X-0.1028 Y0.2659 Z1.6153 I0.1278 J-0.2808
N11140 X-0.0771 Y0.2737 Z1.5768 I0.1028 J-0.2909
N11145 X-0.0508 Y0.2793 Z1.5383 I0.0771 J-0.2987
N11150 X-0.0241 Y0.2826 Z1.4999 I0.0508 J-0.3043
N11155 X0.0028 Y0.2835 Z1.4614 I0.0241 J-0.3076
N11160 X0.0297 Y0.2821 Z1.4229 I-0.0028 J-0.3085
N11165 X0.0564 Y0.2783 Z1.3845 I-0.0297 J-0.3071
N11170 X0.0826 Y0.2722 Z1.346 I-0.0564 J-0.3033
N11175 X0.1082 Y0.2639 Z1.3076 I-0.0826 J-0.2972
N11180 X0.133 Y0.2534 Z1.2691 I-0.1082 J-0.2889
N11185 X0.1567 Y0.2407 Z1.2306 I-0.133 J-0.2784
N11190 X0.1793 Y0.2261 Z1.1922 I-0.1567 J-0.2657
N11195 X0.2005 Y0.2095 Z1.1537 I-0.1793 J-0.2511
N11200 X0.2201 Y0.1911 Z1.1152 I-0.2005 J-0.2345
N11205 X0.2381 Y0.1711 Z1.0768 I-0.2201 J-0.2161
N11210 X0.2543 Y0.1496 Z1.0383 I-0.2381 J-0.1961
N11215 X0.2686 Y0.1268 Z0.9998 I-0.2543 J-0.1746
N11220 X0.2808 Y0.1028 Z0.9614 I-0.2686 J-0.1518
N11225 X0.2909 Y0.0778 Z0.9229 I-0.2808 J-0.1278
N11230 X0.2987 Y0.0521 Z0.8844 I-0.2909 J-0.1028
N11235 X0.3043 Y0.0258 Z0.846 I-0.2987 J-0.0771
N11240 X0.3076 Y-0.0009 Z0.8075 I-0.3043 J-0.0508
N11245 X0.3085 Y-0.0278 Z0.769 I-0.3076 J-0.0241
N11250 X0.3071 Y-0.0547 Z0.7306 I-0.3085 J0.0028
N11255 X0.3033 Y-0.0814 Z0.6921 I-0.3071 J0.0297
N11260 X0.2972 Y-0.1076 Z0.6537 I-0.3033 J0.0564
N11265 X0.2889 Y-0.1332 Z0.6152 I-0.2972 J0.0826
N11270 X0.2784 Y-0.158 Z0.5767 I-0.2889 J0.1082
N11275 X0.2657 Y-0.1817 Z0.5383 I-0.2784 J0.133
N11280 X0.2511 Y-0.2043 Z0.4998 I-0.2657 J0.1567
N11285 X0.2345 Y-0.2255 Z0.4613 I-0.2511 J0.1793
N11290 X0.2161 Y-0.2451 Z0.4229 I-0.2345 J0.2005
N11295 X0.1961 Y-0.2631 Z0.3844 I-0.2161 J0.2201
N11300 X0.1746 Y-0.2793 Z0.3459 I-0.1961 J0.2381
N11305 X0.1518 Y-0.2936 Z0.3075 I-0.1746 J0.2543
N11310 X0.1278 Y-0.3058 Z0.269 I-0.1518 J0.2686
N11315 X0.1028 Y-0.3159 Z0.2305 I-0.1278 J0.2808
N11320 X0.0771 Y-0.3237 Z0.1921 I-0.1028 J0.2909
N11325 X0.0508 Y-0.3293 Z0.1536 I-0.0771 J0.2987
N11330 X0.0241 Y-0.3326 Z0.1151 I-0.0508 J0.3043
N11335 X-0.0028 Y-0.3335 Z0.0767 I-0.0241 J0.3076
N11340 X-0.0297 Y-0.3321 Z0.0382 I0.0028 J0.3085
N11345 X-0.0685 Y-0.3258 Z0. I0.0297 J0.3071
N11350 X0.0685 Y0.2758 I0.0685 J0.3008
N11355 X-0.0685 Y-0.3258 I-0.0685 J-0.3008
N11360 X-0.0087 Y-0.2881 I0.0111 J0.0488
N11365 G1 X-0.0031 Y-0.2638
N11370 X-0.0019 Y-0.2583 Z0.0003
N11375 X-0.0006 Y-0.2529 Z0.0013
N11380 X0.0005 Y-0.2477 Z0.0028
N11385 X0.0017 Y-0.2426 Z0.005
N11390 X0.0028 Y-0.2378 Z0.0077
N11395 X0.0038 Y-0.2334 Z0.0109
N11400 X0.0047 Y-0.2293 Z0.0146
N11405 X0.0056 Y-0.2257 Z0.0188
N11410 X0.0063 Y-0.2225 Z0.0234
N11415 X0.0069 Y-0.2199 Z0.0283
N11420 X0.0074 Y-0.2178 Z0.0335
N11425 X0.0077 Y-0.2162 Z0.0389
N11430 X0.0079 Y-0.2153 Z0.0444
N11435 X0.008 Y-0.215 Z0.05
N11440 G0 Z3.85

(Bore1 2)
N11445 G1 X0.0154 Y-0.2184 F500.
N11450 G0 Z3.85
N11455 Z3.08
N11460 G1 Z3.05 F187.5
N11465 X0.0155 Y-0.2187 Z3.0444
N11470 X0.0158 Y-0.2196 Z3.0389
N11475 X0.0163 Y-0.2211 Z3.0335
N11480 X0.017 Y-0.2231 Z3.0283
N11485 X0.0179 Y-0.2257 Z3.0234
N11490 X0.019 Y-0.2287 Z3.0188
N11495 X0.0202 Y-0.2323 Z3.0146
N11500 X0.0216 Y-0.2362 Z3.0109
N11505 X0.0232 Y-0.2405 Z3.0077
N11510 X0.0248 Y-0.2451 Z3.005
N11515 X0.0265 Y-0.25 Z3.0028
N11520 X0.0283 Y-0.2551 Z3.0013
N11525 X0.0302 Y-0.2603 Z3.0003
N11530 X0.032 Y-0.2656 Z3.
N11535 X0.0404 Y-0.2892
N11540 G3 X0.1042 Y-0.3196 I0.0471 J0.0167
N11545 X0.0781 Y-0.3276 Z2.9613 I-0.1042 J0.2946
N11550 X0.0514 Y-0.3332 Z2.9225 I-0.0781 J0.3026
N11555 X0.0244 Y-0.3365 Z2.8838 I-0.0514 J0.3082
N11560 X-0.0029 Y-0.3375 Z2.845 I-0.0244 J0.3115
N11565 X-0.0301 Y-0.336 Z2.8063 I0.0029 J0.3125
N11570 X-0.0571 Y-0.3322 Z2.7676 I0.0301 J0.311
N11575 X-0.0837 Y-0.3261 Z2.7288 I0.0571 J0.3072
N11580 X-0.1096 Y-0.3177 Z2.6901 I0.0837 J0.3011
N11585 X-0.1347 Y-0.307 Z2.6513 I0.1096 J0.2927
N11590 X-0.1587 Y-0.2942 Z2.6126 I0.1347 J0.282
N11595 X-0.1816 Y-0.2793 Z2.5739 I0.1587 J0.2692
N11600 X-0.2031 Y-0.2625 Z2.5351 I0.1816 J0.2543
N11605 X-0.223 Y-0.2439 Z2.4964 I0.2031 J0.2375
N11610 X-0.2412 Y-0.2237 Z2.4576 I0.223 J0.2189
N11615 X-0.2576 Y-0.2019 Z2.4189 I0.2412 J0.1987
N11620 X-0.2721 Y-0.1787 Z2.3802 I0.2576 J0.1769
N11625 X-0.2844 Y-0.1544 Z2.3414 I0.2721 J0.1537
N11630 X-0.2946 Y-0.1292 Z2.3027 I0.2844 J0.1294
N11635 X-0.3026 Y-0.1031 Z2.2639 I0.2946 J0.1042
N11640 X-0.3082 Y-0.0764 Z2.2252 I0.3026 J0.0781
N11645 X-0.3115 Y-0.0494 Z2.1865 I0.3082 J0.0514
N11650 X-0.3125 Y-0.0221 Z2.1477 I0.3115 J0.0244
N11655 X-0.311 Y0.0051 Z2.109 I0.3125 J-0.0029
N11660 X-0.3072 Y0.0321 Z2.0702 I0.311 J-0.0301
N11665 X-0.3011 Y0.0587 Z2.0315 I0.3072 J-0.0571
N11670 X-0.2927 Y0.0846 Z1.9928 I0.3011 J-0.0837
N11675 X-0.282 Y0.1097 Z1.954 I0.2927 J-0.1096
N11680 X-0.2692 Y0.1337 Z1.9153 I0.282 J-0.1347
N11685 X-0.2543 Y0.1566 Z1.8765 I0.2692 J-0.1587
N11690 X-0.2375 Y0.1781 Z1.8378 I0.2543 J-0.1816
N11695 X-0.2189 Y0.198 Z1.7991 I0.2375 J-0.2031
N11700 X-0.1987 Y0.2162 Z1.7603 I0.2189 J-0.223
N11705 X-0.1769 Y0.2326 Z1.7216 I0.1987 J-0.2412
N11710 X-0.1537 Y0.2471 Z1.6828 I0.1769 J-0.2576
N11715 X-0.1294 Y0.2594 Z1.6441 I0.1537 J-0.2721
N11720 X-0.1042 Y0.2696 Z1.6054 I0.1294 J-0.2844
N11725 X-0.0781 Y0.2776 Z1.5666 I0.1042 J-0.2946
N11730 X-0.0514 Y0.2832 Z1.5279 I0.0781 J-0.3026
N11735 X-0.0244 Y0.2865 Z1.4891 I0.0514 J-0.3082
N11740 X0.0029 Y0.2875 Z1.4504 I0.0244 J-0.3115
N11745 X0.0301 Y0.286 Z1.4117 I-0.0029 J-0.3125
N11750 X0.0571 Y0.2822 Z1.3729 I-0.0301 J-0.311
N11755 X0.0837 Y0.2761 Z1.3342 I-0.0571 J-0.3072
N11760 X0.1096 Y0.2677 Z1.2954 I-0.0837 J-0.3011
N11765 X0.1347 Y0.257 Z1.2567 I-0.1096 J-0.2927
N11770 X0.1587 Y0.2442 Z1.2179 I-0.1347 J-0.282
N11775 X0.1816 Y0.2293 Z1.1792 I-0.1587 J-0.2692
N11780 X0.2031 Y0.2125 Z1.1405 I-0.1816 J-0.2543
N11785 X0.223 Y0.1939 Z1.1017 I-0.2031 J-0.2375
N11790 X0.2412 Y0.1737 Z1.063 I-0.223 J-0.2189
N11795 X0.2576 Y0.1519 Z1.0242 I-0.2412 J-0.1987
N11800 X0.2721 Y0.1287 Z0.9855 I-0.2576 J-0.1769
N11805 X0.2844 Y0.1044 Z0.9468 I-0.2721 J-0.1537
N11810 X0.2946 Y0.0792 Z0.908 I-0.2844 J-0.1294
N11815 X0.3026 Y0.0531 Z0.8693 I-0.2946 J-0.1042
N11820 X0.3082 Y0.0264 Z0.8305 I-0.3026 J-0.0781
N11825 X0.3115 Y-0.0006 Z0.7918 I-0.3082 J-0.0514
N11830 X0.3125 Y-0.0279 Z0.7531 I-0.3115 J-0.0244
N11835 X0.311 Y-0.0551 Z0.7143 I-0.3125 J0.0029
N11840 X0.3072 Y-0.0821 Z0.6756 I-0.311 J0.0301
N11845 X0.3011 Y-0.1087 Z0.6368 I-0.3072 J0.0571
N11850 X0.2927 Y-0.1346 Z0.5981 I-0.3011 J0.0837
N11855 X0.282 Y-0.1597 Z0.5594 I-0.2927 J0.1096
N11860 X0.2692 Y-0.1837 Z0.5206 I-0.282 J0.1347
N11865 X0.2543 Y-0.2066 Z0.4819 I-0.2692 J0.1587
N11870 X0.2375 Y-0.2281 Z0.4431 I-0.2543 J0.1816
N11875 X0.2189 Y-0.248 Z0.4044 I-0.2375 J0.2031
N11880 X0.1987 Y-0.2662 Z0.3657 I-0.2189 J0.223
N11885 X0.1769 Y-0.2826 Z0.3269 I-0.1987 J0.2412
N11890 X0.1537 Y-0.2971 Z0.2882 I-0.1769 J0.2576
N11895 X0.1294 Y-0.3094 Z0.2494 I-0.1537 J0.2721
N11900 X0.1042 Y-0.3196 Z0.2107 I-0.1294 J0.2844
N11905 X0.0781 Y-0.3276 Z0.172 I-0.1042 J0.2946
N11910 X0.0514 Y-0.3332 Z0.1332 I-0.0781 J0.3026
N11915 X0.0244 Y-0.3365 Z0.0945 I-0.0514 J0.3082
N11920 X-0.0029 Y-0.3375 Z0.0557 I-0.0244 J0.3115
N11925 X-0.0301 Y-0.336 Z0.017 I0.0029 J0.3125
N11930 X0.155 Y0.2464 Z0. I0.0301 J0.311
N11935 X-0.155 Y-0.2964 I-0.155 J-0.2714
N11940 X0.155 Y0.2464 I0.155 J0.2714
N11945 X0.0867 Y0.2277 I-0.0248 J-0.0434
N11950 G1 X0.0743 Y0.206
N11955 X0.0716 Y0.2012 Z0.0003
N11960 X0.0688 Y0.1964 Z0.0013
N11965 X0.0662 Y0.1917 Z0.0028
N11970 X0.0636 Y0.1872 Z0.005
N11975 X0.0612 Y0.1829 Z0.0077
N11980 X0.0589 Y0.179 Z0.0109
N11985 X0.0568 Y0.1753 Z0.0146
N11990 X0.055 Y0.1721 Z0.0188
N11995 X0.0534 Y0.1693 Z0.0234
N12000 X0.052 Y0.1669 Z0.0283
N12005 X0.0509 Y0.1651 Z0.0335
N12010 X0.0502 Y0.1637 Z0.0389
N12015 X0.0497 Y0.1629 Z0.0444
N12020 X0.0496 Y0.1626 Z0.05
N12025 G0 Z3.85

N12030 M5
N12035 M9
N12040 G53 G0 Z0.
N12045 X0.
N12050 G53 G0 Y0.
N12055 M30

%
