%
O01001
(Using high feed G1 F500. instead of G0.)
(T1 D=0.5 CR=0. - ZMIN=0.232 - flat end mill)
(T2 D=0.1875 CR=0. TAPER=118deg - ZMIN=1.132 - center drill)
(T3 D=0.257 CR=0. TAPER=118deg - ZMIN=0.1048 - drill)
(T4 D=0.375 CR=0. - ZMIN=0.272 - flat end mill)
N10 G90 G17
N15 G20
N20 G53 G0 Z0.

(Adaptive3)
N25 T1 M6
N30 S10000 M3
N35 G54
N40 G17 G90
N45 M8
N50 G1 X-0.0513 Y-2.5949 F500.
N55 G0 G43 Z2.12 H1
N60 T2
N65 G1 Z1.387 F500.
N70 Z1.337 F120.
N75 X-0.0512 Y-2.5946 Z1.3314
N80 X-0.051 Y-2.5937 Z1.3259
N85 X-0.0506 Y-2.5922 Z1.3205
N90 X-0.0501 Y-2.5901 Z1.3153
N95 X-0.0494 Y-2.5875 Z1.3104
N100 X-0.0486 Y-2.5843 Z1.3058
N105 X-0.0476 Y-2.5807 Z1.3016
N110 X-0.0466 Y-2.5766 Z1.2979
N115 X-0.0455 Y-2.5722 Z1.2947
N120 X-0.0443 Y-2.5675 Z1.292
N125 X-0.043 Y-2.5624 Z1.2898
N130 X-0.0416 Y-2.5572 Z1.2883
N135 X-0.0403 Y-2.5519 Z1.2873
N140 X-0.0389 Y-2.5464 Z1.287
N145 G3 X0.0003 Y-2.2742 I-1.2366 J0.3167
N150 G1 Y-2.2678
N155 X-0.0407 Y-2.2371
N160 X-0.0762 Y-2.2
N165 X-0.1058 Y-2.1582
N170 X-0.1299 Y-2.1129
N175 X-0.1489 Y-2.0653
N180 X-0.1634 Y-2.0161
N185 X-0.1743 Y-1.966
N190 X-0.1822 Y-1.9153
N195 X-0.1877 Y-1.8644
N200 X-0.1916 Y-1.8132
N205 X-0.1943 Y-1.762
N210 G2 X-0.1985 Y-1.557 I6.0985 J0.2298
N215 G1 X-0.1989 Y-1.5057
N220 X-0.1991 Y-1.4545
N225 X-0.1993 Y-1.4032
N230 X-0.1994 Y-1.3007
N235 X-0.1995 Y-1.1468
N240 X-0.1994 Y-0.429
N245 X-0.1993 Y-0.3265
N250 Y-0.1214
N255 X-0.1922 Y-0.0706
N260 X-0.1741 Y-0.0226
N265 X-0.1471 Y0.0209
N270 X-0.1129 Y0.0591
N275 X-0.0732 Y0.0916
N280 X-0.0295 Y0.1184
N285 X0.0171 Y0.1398
N290 X0.0656 Y0.1564
N295 X0.1153 Y0.169
N300 X0.1658 Y0.1782
N305 X0.2166 Y0.1849
N310 X0.2677 Y0.1895
N315 X0.3188 Y0.1927
N320 X0.3701 Y0.1949
N325 G2 X0.5751 Y0.1985 I0.231 J-7.4524
N330 G1 X0.6264 Y0.1988
N335 X0.6777 Y0.199
N340 X0.7289 Y0.1991
N345 X0.8315 Y0.1993
N350 X1.0366 Y0.1994
N355 X1.4467
N360 X3.4463 Y0.1996
N365 X5.446 Y0.1997
N370 X7.4456 Y0.1999
N375 X8.8812 Y0.2
N380 X8.9319 Y0.1924
N385 X8.9797 Y0.1739
N390 X9.0231 Y0.1466
N395 X9.0611 Y0.1121
N400 X9.0933 Y0.0723
N405 X9.1198 Y0.0284
N410 X9.1411 Y-0.0183
N415 X9.1575 Y-0.0668
N420 X9.1699 Y-0.1166
N425 X9.1791 Y-0.167
N430 X9.1856 Y-0.2179
N435 X9.1902 Y-0.269
N440 X9.1933 Y-0.3201
N445 X9.1954 Y-0.3714
N450 G2 X9.1989 Y-0.5764 I-7.5636 J-0.2281
N455 G1 X9.1991 Y-0.6277
N460 X9.1993 Y-0.679
N465 X9.1994 Y-0.7302
N470 X9.1995 Y-0.8328
N475 X9.1996 Y-1.0379
N480 X9.1993 Y-1.9095
N485 X9.1897 Y-1.9599
N490 X9.1696 Y-2.007
N495 X9.1409 Y-2.0495
N500 X9.1054 Y-2.0865
N505 X9.0647 Y-2.1177
N510 X9.0203 Y-2.1433
N515 X8.9732 Y-2.1637
N520 X8.9244 Y-2.1794
N525 X8.8745 Y-2.1912
N530 X8.824 Y-2.1998
N535 X8.7731 Y-2.206
N540 X8.722 Y-2.2103
N545 X8.6708 Y-2.2133
N550 X8.6196 Y-2.2153
N555 G2 X8.4145 Y-2.2185 I-0.23 J8.1023
N560 G1 X8.3632 Y-2.2188
N565 X8.312 Y-2.219
N570 X8.2094 Y-2.2191
N575 X8.0556 Y-2.2192
N580 X7.4403 Y-2.2193
N585 X7.0302
N590 X5.0306 Y-2.2192
N595 X3.031
N600 X1.0313
N605 X0.211
N610 X0.1603 Y-2.2113
N615 X0.1119 Y-2.1944
N620 X0.067 Y-2.1696
N625 X0.0266 Y-2.1381
N630 X-0.0089 Y-2.1011
N635 X-0.0393 Y-2.0598
N640 X-0.0646 Y-2.0152
N645 X-0.0853 Y-1.9683
N650 X-0.1017 Y-1.9197
N655 X-0.1145 Y-1.8701
N660 X-0.1242 Y-1.8197
N665 X-0.1315 Y-1.769
N670 X-0.1368 Y-1.718
N675 X-0.1406 Y-1.6669
N680 X-0.1434 Y-1.6157
N685 G2 X-0.1482 Y-1.4106 I6.0339 J0.2433
N690 X-0.1492 Y-1.2055 I23.3319 J0.2248
N695 G1 X-0.1494 Y-1.103
N700 Y-0.9492
N705 Y-0.3339
N710 X-0.1493 Y-0.2827
N715 X-0.1491 Y-0.2314
N720 X-0.1413 Y-0.1807
N725 X-0.1256 Y-0.1319
N730 X-0.1023 Y-0.0862
N735 X-0.0725 Y-0.0445
N740 X-0.0371 Y-0.0074
N745 X0.0028 Y0.0248
N750 X0.0462 Y0.0521
N755 X0.0923 Y0.0747
N760 X0.1402 Y0.093
N765 X0.1893 Y0.1074
N770 X0.2394 Y0.1186
N775 X0.2899 Y0.1271
N780 X0.3408 Y0.1335
N785 X0.3919 Y0.1381
N790 X0.443 Y0.1415
N795 X0.4943 Y0.1438
N800 G2 X0.6993 Y0.1481 I0.2464 J-6.9526
N805 X0.9044 Y0.1491 I0.2382 J-27.3325
N810 G1 X1.0069 Y0.1493
N815 X1.212 Y0.1494
N820 X2.6989 Y0.1495
N825 X4.6985 Y0.1497
N830 X6.6981 Y0.1498
N835 X8.6977 Y0.15
N840 X8.749
N845 X8.8001 Y0.1454
N850 X8.8498 Y0.1329
N855 X8.8968 Y0.1125
N860 X8.9402 Y0.0852
N865 X8.9792 Y0.0519
N870 X9.0133 Y0.0136
N875 X9.0425 Y-0.0285
N880 X9.0669 Y-0.0736
N885 X9.0868 Y-0.1209
N890 X9.1027 Y-0.1696
N895 X9.1151 Y-0.2194
N900 X9.1246 Y-0.2698
N905 X9.1317 Y-0.3205
N910 X9.1369 Y-0.3715
N915 X9.1407 Y-0.4227
N920 X9.1434 Y-0.4739
N925 G2 X9.1482 Y-0.6789 I-6.0699 J-0.2447
N930 X9.1493 Y-0.884 I-23.729 J-0.2292
N935 G1 X9.1494 Y-0.9865
N940 X9.1495 Y-1.1403
N945 X9.1494 Y-1.6018
N950 Y-1.7556
N955 X9.1468 Y-1.8068
N960 X9.1363 Y-1.857
N965 X9.1178 Y-1.9048
N970 X9.0921 Y-1.9492
N975 X9.0602 Y-1.9893
N980 X9.023 Y-2.0247
N985 X8.9818 Y-2.0551
N990 X8.9374 Y-2.0807
N995 X8.8906 Y-2.1017
N1000 X8.8422 Y-2.1186
N1005 X8.7926 Y-2.1318
N1010 X8.7424 Y-2.142
N1015 X8.6917 Y-2.1496
N1020 X8.6407 Y-2.1553
N1025 X8.5896 Y-2.1594
N1030 X8.5384 Y-2.1624
N1035 G2 X8.3334 Y-2.1677 I-0.2473 J5.5981
N1040 X8.1283 Y-2.1689 I-0.2366 J21.6999
N1045 G1 X8.0258 Y-2.1691
N1050 X7.872 Y-2.1692
N1055 X7.5131 Y-2.1693
N1060 X5.5135
N1065 X3.5139 Y-2.1692
N1070 X1.5143
N1075 X0.335
N1080 X0.2839 Y-2.165
N1085 X0.2338 Y-2.1539
N1090 X0.186 Y-2.1356
N1095 X0.1412 Y-2.1106
N1100 X0.1003 Y-2.0797
N1105 X0.0638 Y-2.0437
N1110 X0.0319 Y-2.0035
N1115 X0.0045 Y-1.9601
N1120 X-0.0184 Y-1.9143
N1125 X-0.0371 Y-1.8666
N1130 X-0.0522 Y-1.8176
N1135 X-0.0641 Y-1.7677
N1140 X-0.0734 Y-1.7173
N1145 X-0.0804 Y-1.6665
N1150 X-0.0857 Y-1.6155
N1155 X-0.0896 Y-1.5643
N1160 X-0.0924 Y-1.5132
N1165 G2 X-0.0978 Y-1.3081 I5.8596 J0.2548
N1170 X-0.0991 Y-1.1031 I21.0387 J0.2407
N1175 G1 X-0.0993 Y-1.0005
N1180 X-0.0994 Y-0.8467
N1185 Y-0.4878
N1190 Y-0.3853
N1195 X-0.0986 Y-0.334
N1200 X-0.0926 Y-0.2831
N1205 X-0.0799 Y-0.2334
N1210 X-0.0605 Y-0.1859
N1215 X-0.0347 Y-0.1416
N1220 X-0.0032 Y-0.1012
N1225 X0.0331 Y-0.065
N1230 X0.0734 Y-0.0333
N1235 X0.1169 Y-0.0062
N1240 X0.1629 Y0.0166
N1245 X0.2106 Y0.0355
N1250 X0.2595 Y0.0507
N1255 X0.3094 Y0.0627
N1260 X0.3598 Y0.0721
N1265 X0.4105 Y0.0793
N1270 X0.4615 Y0.0847
N1275 X0.5126 Y0.0887
N1280 X0.5638 Y0.0917
N1285 G2 X0.7688 Y0.0974 I0.2594 J-5.6758
N1290 X1.0252 Y0.0991 I0.2793 J-23.3711
N1295 G1 X1.1277 Y0.0992
N1300 X1.2815 Y0.0993
N1305 X1.743 Y0.0994
N1310 X2.4608 Y0.0995
N1315 X4.4604 Y0.0996
N1320 X6.46 Y0.0998
N1325 X8.4596 Y0.0999
N1330 X8.6134 Y0.1
N1335 X8.6647 Y0.0992
N1340 X8.7156 Y0.0934
N1345 X8.7654 Y0.081
N1350 X8.8129 Y0.0618
N1355 X8.8574 Y0.0362
N1360 X8.898 Y0.0049
N1365 X8.9343 Y-0.0312
N1370 X8.9662 Y-0.0714
N1375 X8.9935 Y-0.1148
N1380 X9.0164 Y-0.1607
N1385 X9.0353 Y-0.2083
N1390 X9.0506 Y-0.2573
N1395 X9.0628 Y-0.3071
N1400 X9.0722 Y-0.3575
N1405 X9.0795 Y-0.4082
N1410 X9.085 Y-0.4592
N1415 X9.089 Y-0.5103
N1420 X9.092 Y-0.5615
N1425 G2 X9.0977 Y-0.7665 I-5.6155 J-0.2572
N1430 X9.0992 Y-1.0228 I-23.1373 J-0.2706
N1435 G1 X9.0994 Y-1.1254
N1440 Y-1.2792
N1445 Y-1.4843
N1450 Y-1.6381
N1455 X9.0983 Y-1.6894
N1460 X9.0918 Y-1.7402
N1465 X9.0787 Y-1.7898
N1470 X9.0588 Y-1.8371
N1475 X9.0326 Y-1.8811
N1480 X9.0008 Y-1.9213
N1485 X8.9642 Y-1.9572
N1490 X8.9236 Y-1.9886
N1495 X8.88 Y-2.0155
N1500 X8.8339 Y-2.038
N1505 X8.7861 Y-2.0566
N1510 X8.7371 Y-2.0715
N1515 X8.6872 Y-2.0834
N1520 X8.6368 Y-2.0926
N1525 X8.586 Y-2.0996
N1530 X8.535 Y-2.105
N1535 X8.4839 Y-2.1089
N1540 X8.4327 Y-2.1119
N1545 G2 X8.2277 Y-2.1174 I-0.2584 J5.7825
N1550 X7.9713 Y-2.119 I-0.2768 J23.9318
N1555 G1 X7.8688 Y-2.1191
N1560 X7.715 Y-2.1192
N1565 X7.5099 Y-2.1193
N1570 X5.5103
N1575 X3.5107 Y-2.1192
N1580 X1.5111
N1585 X0.4856
N1590 X0.4343 Y-2.1189
N1595 X0.3832 Y-2.1158
N1600 X0.3326 Y-2.1073
N1605 X0.2835 Y-2.0924
N1610 X0.2368 Y-2.0712
N1615 X0.1933 Y-2.0442
N1620 X0.1535 Y-2.0118
N1625 X0.1179 Y-1.9749
N1630 X0.0866 Y-1.9343
N1635 X0.0597 Y-1.8907
N1640 X0.0369 Y-1.8448
N1645 X0.0179 Y-1.7971
N1650 X0.0025 Y-1.7482
N1655 X-0.0099 Y-1.6985
N1660 X-0.0196 Y-1.6481
N1665 X-0.0272 Y-1.5974
N1670 X-0.033 Y-1.5465
N1675 X-0.0374 Y-1.4954
N1680 X-0.0407 Y-1.4442
N1685 G2 X-0.0471 Y-1.2393 I5.2046 J0.2661
N1690 X-0.0491 Y-0.9829 I19.9446 J0.2803
N1695 G1 X-0.0493 Y-0.8804
N1700 X-0.0494 Y-0.7265
N1705 Y-0.5215
N1710 X-0.0493 Y-0.4702
N1715 X-0.0479 Y-0.4189
N1720 X-0.0423 Y-0.368
N1725 X-0.031 Y-0.318
N1730 X-0.0135 Y-0.2698
N1735 X0.01 Y-0.2242
N1740 X0.0392 Y-0.182
N1745 X0.0732 Y-0.1437
N1750 X0.1114 Y-0.1095
N1755 X0.1531 Y-0.0796
N1760 X0.1975 Y-0.054
N1765 X0.244 Y-0.0324
N1770 X0.292 Y-0.0145
N1775 X0.3412 Y0.0001
N1780 X0.3911 Y0.0117
N1785 X0.4416 Y0.021
N1790 X0.4923 Y0.0281
N1795 X0.5433 Y0.0336
N1800 X0.5944 Y0.0377
N1805 X0.6456 Y0.0408
N1810 X0.6968 Y0.0431
N1815 G2 X0.9531 Y0.0481 I0.2908 J-8.375
N1820 G1 X1.0044 Y0.0485
N1825 X1.0557 Y0.0488
N1830 X1.1069 Y0.049
N1835 X1.2095 Y0.0492
N1840 X1.3633 Y0.0493
N1845 X1.7222 Y0.0494
N1850 X2.6964 Y0.0495
N1855 X4.696 Y0.0497
N1860 X6.6956 Y0.0498
N1865 X8.4901 Y0.0499
N1870 X8.5414 Y0.0498
N1875 X8.5926 Y0.0477
N1880 X8.6434 Y0.041
N1885 X8.6931 Y0.0283
N1890 X8.7408 Y0.0095
N1895 X8.7857 Y-0.0153
N1900 X8.8271 Y-0.0455
N1905 X8.8646 Y-0.0805
N1910 X8.8978 Y-0.1195
N1915 X8.9268 Y-0.1618
N1920 X8.9515 Y-0.2068
N1925 X8.9723 Y-0.2536
N1930 X8.9894 Y-0.302
N1935 X9.0033 Y-0.3513
N1940 X9.0143 Y-0.4014
N1945 X9.023 Y-0.4519
N1950 X9.0298 Y-0.5027
N1955 X9.035 Y-0.5538
N1960 X9.0388 Y-0.6049
N1965 X9.0417 Y-0.6561
N1970 G2 X9.0474 Y-0.8611 I-5.8907 J-0.2659
N1975 X9.0491 Y-1.1174 I-22.5073 J-0.2791
N1980 G1 X9.0493 Y-1.22
N1985 X9.0494 Y-1.3738
N1990 Y-1.5276
N1995 X9.0489 Y-1.5789
N2000 X9.0454 Y-1.63
N2005 X9.0366 Y-1.6805
N2010 X9.0218 Y-1.7296
N2015 X9.0008 Y-1.7764
N2020 X8.974 Y-1.8201
N2025 X8.942 Y-1.8602
N2030 X8.9055 Y-1.8962
N2035 X8.8653 Y-1.9279
N2040 X8.822 Y-1.9554
N2045 X8.7763 Y-1.9787
N2050 X8.7289 Y-1.9982
N2055 X8.6801 Y-2.0141
N2060 X8.6305 Y-2.027
N2065 X8.5803 Y-2.0372
N2070 X8.5296 Y-2.0452
N2075 X8.4787 Y-2.0513
N2080 X8.4277 Y-2.056
N2085 X8.3765 Y-2.0595
N2090 X8.3253 Y-2.0622
N2095 G2 X8.1203 Y-2.0673 I-0.2664 J6.5095
N2100 X7.8639 Y-2.0689 I-0.2845 J25.1038
N2105 G1 X7.7614 Y-2.0691
N2110 X7.6076 Y-2.0692
N2115 X7.1974 Y-2.0693
N2120 X7.0436
N2125 X5.044 Y-2.0692
N2130 X3.0444
N2135 X1.0448
N2140 X0.5833
N2145 X0.532 Y-2.0689
N2150 X0.4808 Y-2.067
N2155 X0.4299 Y-2.0609
N2160 X0.3799 Y-2.0493
N2165 X0.3317 Y-2.0319
N2170 X0.286 Y-2.0087
N2175 X0.2435 Y-1.98
N2180 X0.2047 Y-1.9466
N2185 X0.1699 Y-1.9089
N2190 X0.1392 Y-1.8678
N2195 X0.1126 Y-1.824
N2200 X0.0901 Y-1.7779
N2205 X0.0712 Y-1.7303
N2210 X0.0556 Y-1.6814
N2215 X0.0431 Y-1.6317
N2220 X0.0331 Y-1.5814
N2225 X0.0252 Y-1.5307
N2230 X0.0191 Y-1.4798
N2235 X0.0144 Y-1.4288
N2240 X0.0108 Y-1.3776
N2245 X0.0081 Y-1.3264
N2250 G2 X0.0027 Y-1.1214 I6.4174 J0.2717
N2255 X0.001 Y-0.8651 I22.6583 J0.2783
N2260 G1 X0.0008 Y-0.7625
N2265 X0.0007 Y-0.6087
N2270 X0.0008 Y-0.5574
N2275 X0.002 Y-0.5062
N2280 X0.0065 Y-0.4551
N2285 X0.016 Y-0.4047
N2290 X0.031 Y-0.3557
N2295 X0.0519 Y-0.3089
N2300 X0.0783 Y-0.2649
N2305 X0.1097 Y-0.2244
N2310 X0.1455 Y-0.1877
N2315 X0.1851 Y-0.1551
N2320 X0.2277 Y-0.1266
N2325 X0.2728 Y-0.1021
N2330 X0.3197 Y-0.0814
N2335 X0.368 Y-0.0642
N2340 X0.4173 Y-0.0501
N2345 X0.4673 Y-0.0388
N2350 X0.5178 Y-0.0298
N2355 X0.5685 Y-0.0227
N2360 X0.6195 Y-0.0173
N2365 X0.6706 Y-0.0131
N2370 X0.7218 Y-0.0099
N2375 G2 X0.9268 Y-0.0033 I0.2773 J-5.4859
N2380 X1.2344 Y-0.001 I0.3247 J-22.3482
N2385 G1 X1.3369 Y-0.0008
N2390 X1.3882 Y-0.0007
N2395 X1.5933 Y-0.0006
N2400 X2.5162 Y-0.0005
N2405 X3.3878 Y-0.0004
N2410 X5.3874 Y-0.0003
N2415 X7.387 Y-0.0001
N2420 X8.3612
N2425 X8.4125
N2430 X8.4637 Y-0.0005
N2435 X8.5149 Y-0.0028
N2440 X8.5658 Y-0.0092
N2445 X8.6158 Y-0.0208
N2450 X8.664 Y-0.0382
N2455 X8.7098 Y-0.0613
N2460 X8.7524 Y-0.0898
N2465 X8.7914 Y-0.123
N2470 X8.8265 Y-0.1605
N2475 X8.8574 Y-0.2013
N2480 X8.8842 Y-0.245
N2485 X8.9071 Y-0.2909
N2490 X8.9263 Y-0.3384
N2495 X8.9422 Y-0.3872
N2500 X8.9551 Y-0.4368
N2505 X8.9655 Y-0.487
N2510 X8.9737 Y-0.5377
N2515 X8.98 Y-0.5885
N2520 X8.9849 Y-0.6396
N2525 X8.9887 Y-0.6907
N2530 X8.9915 Y-0.7419
N2535 G2 X8.9972 Y-0.9469 I-6.1383 J-0.2735
N2540 X8.9991 Y-1.2032 I-22.0848 J-0.2864
N2545 G1 X8.9993 Y-1.3058
N2550 Y-1.4083
N2555 Y-1.4596
N2560 X8.9981 Y-1.5109
N2565 X8.9939 Y-1.562
N2570 X8.9847 Y-1.6124
N2575 X8.97 Y-1.6615
N2580 X8.9494 Y-1.7085
N2585 X8.9234 Y-1.7527
N2590 X8.8923 Y-1.7934
N2595 X8.8567 Y-1.8303
N2600 X8.8174 Y-1.8632
N2605 X8.7749 Y-1.8919
N2610 X8.7299 Y-1.9166
N2615 X8.6831 Y-1.9375
N2620 X8.6349 Y-1.9548
N2625 X8.5856 Y-1.969
N2630 X8.5356 Y-1.9805
N2635 X8.4852 Y-1.9897
N2640 X8.4344 Y-1.9968
N2645 X8.3834 Y-2.0024
N2650 X8.3323 Y-2.0067
N2655 X8.2812 Y-2.0099
N2660 X8.23 Y-2.0124
N2665 X8.1787 Y-2.0142
N2670 X8.1275 Y-2.0156
N2675 G2 X7.8199 Y-2.0187 I-0.3176 J16.102
N2680 G1 X7.7686 Y-2.0189
N2685 X7.666 Y-2.0191
N2690 X7.5122 Y-2.0192
N2695 X7.1533 Y-2.0193
N2700 X6.1279
N2705 X4.1283 Y-2.0192
N2710 X2.1287
N2715 X0.6931
N2720 X0.6418 Y-2.0191
N2725 X0.5905 Y-2.0183
N2730 X0.5393 Y-2.0152
N2735 X0.4886 Y-2.008
N2740 X0.4388 Y-1.9955
N2745 X0.3908 Y-1.9775
N2750 X0.3453 Y-1.9541
N2755 X0.3027 Y-1.9254
N2760 X0.2637 Y-1.8921
N2765 X0.2286 Y-1.8548
N2770 X0.1975 Y-1.814
N2775 X0.1704 Y-1.7705
N2780 X0.1472 Y-1.7247
N2785 X0.1277 Y-1.6773
N2790 X0.1115 Y-1.6287
N2795 X0.0982 Y-1.5792
N2800 X0.0874 Y-1.5291
N2805 X0.0789 Y-1.4785
N2810 X0.0721 Y-1.4277
N2815 X0.0668 Y-1.3767
N2820 X0.0628 Y-1.3256
N2825 X0.0597 Y-1.2744
N2830 G2 X0.0533 Y-1.0694 I5.6737 J0.2798
N2835 X0.0509 Y-0.7105 I23.9864 J0.3368
N2840 G1 X0.0508 Y-0.6592
N2845 X0.0514 Y-0.608
N2850 X0.0539 Y-0.5568
N2855 X0.0601 Y-0.5059
N2860 X0.0712 Y-0.4558
N2865 X0.0877 Y-0.4073
N2870 X0.1097 Y-0.3609
N2875 X0.1369 Y-0.3175
N2880 X0.1689 Y-0.2774
N2885 X0.2051 Y-0.2411
N2890 X0.2448 Y-0.2087
N2895 X0.2875 Y-0.1803
N2900 X0.3326 Y-0.1558
N2905 X0.3794 Y-0.135
N2910 X0.4277 Y-0.1177
N2915 X0.4769 Y-0.1034
N2920 X0.5269 Y-0.0917
N2925 X0.5773 Y-0.0824
N2930 X0.628 Y-0.075
N2935 X0.6789 Y-0.0692
N2940 X0.73 Y-0.0646
N2945 X0.7812 Y-0.0612
N2950 G2 X0.9861 Y-0.0539 I0.2848 J-5.1179
N2955 X1.2937 Y-0.0511 I0.331 J-19.6522
N2960 G1 X1.3963 Y-0.0509
N2965 X1.5501 Y-0.0507
N2970 X1.8577 Y-0.0506
N2975 X2.5243 Y-0.0505
N2980 X4.5239 Y-0.0504
N2985 X6.5235 Y-0.0502
N2990 X8.318 Y-0.0501
N2995 X8.3693 Y-0.0504
N3000 X8.4205 Y-0.0518
N3005 X8.4716 Y-0.0562
N3010 X8.5221 Y-0.0649
N3015 X8.5714 Y-0.079
N3020 X8.6189 Y-0.0984
N3025 X8.6637 Y-0.1233
N3030 X8.7053 Y-0.1532
N3035 X8.7434 Y-0.1876
N3040 X8.7775 Y-0.2259
N3045 X8.8077 Y-0.2673
N3050 X8.8339 Y-0.3114
N3055 X8.8564 Y-0.3575
N3060 X8.8753 Y-0.4051
N3065 X8.8909 Y-0.454
N3070 X8.9037 Y-0.5036
N3075 X8.914 Y-0.5538
N3080 X8.9223 Y-0.6044
N3085 X8.9287 Y-0.6553
N3090 X8.9338 Y-0.7063
N3095 X8.9377 Y-0.7574
N3100 X8.9407 Y-0.8086
N3105 G2 X8.9468 Y-1.0136 I-5.9198 J-0.2808
N3110 X8.949 Y-1.3725 I-22.5559 J-0.316
N3115 G1 X8.9482 Y-1.4238
N3120 X8.945 Y-1.4749
N3125 X8.9378 Y-1.5257
N3130 X8.9255 Y-1.5755
N3135 X8.9078 Y-1.6236
N3140 X8.8845 Y-1.6693
N3145 X8.8562 Y-1.712
N3150 X8.8231 Y-1.7512
N3155 X8.786 Y-1.7866
N3160 X8.7455 Y-1.8181
N3165 X8.7022 Y-1.8455
N3170 X8.6567 Y-1.8691
N3175 X8.6095 Y-1.8891
N3180 X8.561 Y-1.9058
N3185 X8.5116 Y-1.9195
N3190 X8.4616 Y-1.9306
N3195 X8.4111 Y-1.9395
N3200 X8.3603 Y-1.9465
N3205 X8.3093 Y-1.952
N3210 X8.2582 Y-1.9562
N3215 X8.207 Y-1.9595
N3220 G2 X8.0021 Y-1.9663 I-0.2835 J5.4441
N3225 X7.6944 Y-1.9688 I-0.3287 J21.0432
N3230 G1 X7.5919 Y-1.969
N3235 X7.4381 Y-1.9692
N3240 X7.1305 Y-1.9693
N3245 X6.7715
N3250 X4.7719 Y-1.9692
N3255 X2.7723
N3260 X0.7727
N3265 X0.7215 Y-1.969
N3270 X0.6702 Y-1.9683
N3275 X0.619 Y-1.9657
N3280 X0.5681 Y-1.9595
N3285 X0.518 Y-1.9487
N3290 X0.4692 Y-1.9328
N3295 X0.4226 Y-1.9114
N3300 X0.3788 Y-1.8849
N3305 X0.3381 Y-1.8536
N3310 X0.3012 Y-1.8181
N3315 X0.268 Y-1.7789
N3320 X0.2388 Y-1.7368
N3325 X0.2135 Y-1.6922
N3330 X0.1918 Y-1.6458
N3335 X0.1735 Y-1.5979
N3340 X0.1583 Y-1.5489
N3345 X0.1459 Y-1.4992
N3350 X0.1358 Y-1.4489
N3355 X0.1278 Y-1.3982
N3360 X0.1214 Y-1.3474
N3365 X0.1165 Y-1.2963
N3370 X0.1126 Y-1.2452
N3375 X0.1096 Y-1.194
N3380 G2 X0.1034 Y-0.989 I6.0059 J0.2855
N3385 X0.1013 Y-0.7327 I16.6736 J0.2626
N3390 G1 X0.1019 Y-0.6814
N3395 X0.1042 Y-0.6302
N3400 X0.1098 Y-0.5792
N3405 X0.1199 Y-0.529
N3410 X0.135 Y-0.48
N3415 X0.1555 Y-0.433
N3420 X0.1812 Y-0.3886
N3425 X0.2116 Y-0.3474
N3430 X0.2464 Y-0.3097
N3435 X0.2849 Y-0.2758
N3440 X0.3264 Y-0.2458
N3445 X0.3705 Y-0.2196
N3450 X0.4166 Y-0.1972
N3455 X0.4643 Y-0.1782
N3460 X0.513 Y-0.1623
N3465 X0.5626 Y-0.1492
N3470 X0.6128 Y-0.1386
N3475 X0.6633 Y-0.1301
N3480 X0.7141 Y-0.1233
N3485 X0.7651 Y-0.118
N3490 X0.8162 Y-0.1138
N3495 X0.8674 Y-0.1106
N3500 G2 X1.0724 Y-0.1038 I0.2898 J-5.6149
N3505 X1.38 Y-0.1011 I0.3363 J-20.8073
N3510 G1 X1.4825 Y-0.1009
N3515 X1.6363 Y-0.1007
N3520 X1.8927 Y-0.1006
N3525 X2.0978 Y-0.1005
N3530 X4.0974 Y-0.1004
N3535 X6.097 Y-0.1002
N3540 X8.0966 Y-0.1001
N3545 X8.1992
N3550 X8.2504
N3555 X8.3017 Y-0.1005
N3560 X8.3529 Y-0.1022
N3565 X8.404 Y-0.1066
N3570 X8.4546 Y-0.1151
N3575 X8.5041 Y-0.1285
N3580 X8.5518 Y-0.1473
N3585 X8.5971 Y-0.1713
N3590 X8.6395 Y-0.2002
N3595 X8.6784 Y-0.2335
N3600 X8.7136 Y-0.2708
N3605 X8.7449 Y-0.3114
N3610 X8.7724 Y-0.3547
N3615 X8.796 Y-0.4002
N3620 X8.8162 Y-0.4473
N3625 X8.833 Y-0.4958
N3630 X8.847 Y-0.5451
N3635 X8.8584 Y-0.5951
N3640 X8.8676 Y-0.6455
N3645 X8.8749 Y-0.6963
N3650 X8.8807 Y-0.7472
N3655 X8.8852 Y-0.7983
N3660 X8.8886 Y-0.8495
N3665 G2 X8.896 Y-1.0544 I-5.147 J-0.2887
N3670 X8.8984 Y-1.3107 I-12.4641 J-0.2434
N3675 G1 X8.8973 Y-1.362
N3680 X8.8936 Y-1.4131
N3685 X8.8861 Y-1.4639
N3690 X8.8738 Y-1.5136
N3695 X8.8562 Y-1.5618
N3700 X8.8333 Y-1.6076
N3705 X8.8054 Y-1.6507
N3710 X8.7729 Y-1.6903
N3715 X8.7364 Y-1.7263
N3720 X8.6964 Y-1.7584
N3725 X8.6536 Y-1.7867
N3730 X8.6085 Y-1.8111
N3735 X8.5617 Y-1.8319
N3740 X8.5135 Y-1.8494
N3745 X8.4643 Y-1.864
N3750 X8.4144 Y-1.8758
N3755 X8.3641 Y-1.8855
N3760 X8.3134 Y-1.8931
N3765 X8.2625 Y-1.8992
N3770 X8.2114 Y-1.904
N3775 X8.1603 Y-1.9077
N3780 X8.1091 Y-1.9105
N3785 G2 X7.9041 Y-1.9165 I-0.2871 J6.307
N3790 X7.5965 Y-1.9188 I-0.3333 J23.7454
N3795 G1 X7.4939 Y-1.919
N3800 X7.3401 Y-1.9192
N3805 X7.0325 Y-1.9193
N3810 X6.9812
N3815 X4.9816 Y-1.9192
N3820 X2.982
N3825 X0.9824
N3830 X0.8798
N3835 X0.8286 Y-1.9191
N3840 X0.7773 Y-1.9189
N3845 X0.726 Y-1.9177
N3850 X0.6749 Y-1.9144
N3855 X0.6241 Y-1.9075
N3860 X0.5741 Y-1.8962
N3865 X0.5255 Y-1.8797
N3870 X0.479 Y-1.8581
N3875 X0.4352 Y-1.8315
N3880 X0.3945 Y-1.8003
N3885 X0.3574 Y-1.7649
N3890 X0.3241 Y-1.726
N3895 X0.2945 Y-1.684
N3900 X0.2688 Y-1.6397
N3905 X0.2467 Y-1.5934
N3910 X0.228 Y-1.5457
N3915 X0.2123 Y-1.4969
N3920 X0.1994 Y-1.4472
N3925 X0.1889 Y-1.3971
N3930 X0.1804 Y-1.3465
N3935 X0.1737 Y-1.2957
N3940 X0.1683 Y-1.2447
N3945 X0.1641 Y-1.1936
N3950 X0.1609 Y-1.1424
N3955 G2 X0.1539 Y-0.9375 I5.5507 J0.2915
N3960 G1 X0.153 Y-0.8862
N3965 X0.1525 Y-0.8349
N3970 X0.1523 Y-0.7836
N3975 X0.1532 Y-0.7324
N3980 X0.1562 Y-0.6812
N3985 X0.1628 Y-0.6303
N3990 X0.1737 Y-0.5803
N3995 X0.1898 Y-0.5316
N4000 X0.211 Y-0.4849
N4005 X0.2371 Y-0.4408
N4010 X0.268 Y-0.3998
N4015 X0.3029 Y-0.3623
N4020 X0.3415 Y-0.3286
N4025 X0.3832 Y-0.2986
N4030 X0.4273 Y-0.2725
N4035 X0.4733 Y-0.25
N4040 X0.5209 Y-0.2308
N4045 X0.5696 Y-0.2148
N4050 X0.6191 Y-0.2016
N4055 X0.6692 Y-0.1907
N4060 X0.7198 Y-0.182
N4065 X0.7705 Y-0.175
N4070 X0.8215 Y-0.1694
N4075 X0.8726 Y-0.165
N4080 X0.9238 Y-0.1616
N4085 G2 X1.1287 Y-0.1542 I0.2953 J-5.346
N4090 X1.4363 Y-0.1513 I0.3307 J-18.2712
N4095 G1 X1.4876 Y-0.151
N4100 X1.5901 Y-0.1508
N4105 X1.7439 Y-0.1507
N4110 X2.0516 Y-0.1506
N4115 X2.1029
N4120 X4.1025 Y-0.1504
N4125 X6.1021 Y-0.1502
N4130 X8.1017 Y-0.1501
N4135 X8.1529
N4140 X8.2042 Y-0.1503
N4145 X8.2555 Y-0.1512
N4150 X8.3067 Y-0.1538
N4155 X8.3576 Y-0.1596
N4160 X8.4079 Y-0.1695
N4165 X8.457 Y-0.1843
N4170 X8.5042 Y-0.2043
N4175 X8.549 Y-0.2293
N4180 X8.5908 Y-0.259
N4185 X8.6291 Y-0.2931
N4190 X8.6638 Y-0.3308
N4195 X8.6947 Y-0.3717
N4200 X8.7218 Y-0.4153
N4205 X8.7452 Y-0.4609
N4210 X8.7651 Y-0.5082
N4215 X8.7818 Y-0.5566
N4220 X8.7957 Y-0.606
N4225 X8.8071 Y-0.656
N4230 X8.8163 Y-0.7064
N4235 X8.8237 Y-0.7571
N4240 X8.8296 Y-0.8081
N4245 X8.8342 Y-0.8591
N4250 X8.8378 Y-0.9103
N4255 G2 X8.8457 Y-1.1152 I-5.0197 J-0.294
N4260 G1 X8.8466 Y-1.1665
N4265 X8.8471 Y-1.2177
N4270 X8.8469 Y-1.269
N4275 X8.8449 Y-1.3202
N4280 X8.8398 Y-1.3713
N4285 X8.8306 Y-1.4217
N4290 X8.8164 Y-1.471
N4295 X8.7971 Y-1.5185
N4300 X8.7728 Y-1.5636
N4305 X8.7436 Y-1.6058
N4310 X8.71 Y-1.6445
N4315 X8.6727 Y-1.6796
N4320 X8.6321 Y-1.711
N4325 X8.5888 Y-1.7385
N4330 X8.5434 Y-1.7623
N4335 X8.4964 Y-1.7826
N4340 X8.448 Y-1.7997
N4345 X8.3988 Y-1.8139
N4350 X8.3488 Y-1.8256
N4355 X8.2984 Y-1.8351
N4360 X8.2477 Y-1.8427
N4365 X8.1968 Y-1.8487
N4370 X8.1458 Y-1.8535
N4375 X8.0946 Y-1.8572
N4380 G2 X7.8897 Y-1.8653 I-0.2962 J4.8962
N4385 X7.5821 Y-1.8685 I-0.3298 J16.5829
N4390 G1 X7.5308 Y-1.8688
N4395 X7.4283 Y-1.869
N4400 X7.2745 Y-1.8692
N4405 X7.0181
N4410 X6.7618 Y-1.8693
N4415 X4.7621 Y-1.8692
N4420 X2.7625
N4425 X0.968
N4430 X0.9167
N4435 X0.8655 Y-1.869
N4440 X0.8142 Y-1.8682
N4445 X0.763 Y-1.8659
N4450 X0.712 Y-1.8609
N4455 X0.6615 Y-1.8521
N4460 X0.612 Y-1.8385
N4465 X0.5642 Y-1.82
N4470 X0.5186 Y-1.7965
N4475 X0.4759 Y-1.7682
N4480 X0.4364 Y-1.7355
N4485 X0.4005 Y-1.6989
N4490 X0.3683 Y-1.659
N4495 X0.3399 Y-1.6163
N4500 X0.3151 Y-1.5714
N4505 X0.2938 Y-1.5248
N4510 X0.2758 Y-1.4768
N4515 X0.2608 Y-1.4277
N4520 X0.2484 Y-1.378
N4525 X0.2383 Y-1.3277
N4530 X0.2301 Y-1.2771
N4535 X0.2235 Y-1.2263
N4540 X0.2183 Y-1.1753
N4545 X0.2142 Y-1.1242
N4550 X0.211 Y-1.073
N4555 G2 X0.2043 Y-0.868 I4.9222 J0.2628
N4560 G1 X0.2044 Y-0.8167
N4565 X0.2061 Y-0.7655
N4570 X0.2108 Y-0.7144
N4575 X0.2194 Y-0.6639
N4580 X0.2329 Y-0.6144
N4585 X0.2512 Y-0.5666
N4590 X0.2746 Y-0.5209
N4595 X0.3028 Y-0.4781
N4600 X0.3354 Y-0.4385
N4605 X0.3719 Y-0.4025
N4610 X0.4117 Y-0.3702
N4615 X0.4543 Y-0.3416
N4620 X0.4991 Y-0.3167
N4625 X0.5457 Y-0.2953
N4630 X0.5937 Y-0.2772
N4635 X0.6426 Y-0.262
N4640 X0.6923 Y-0.2494
N4645 X0.7426 Y-0.2392
N4650 X0.7932 Y-0.2309
N4655 X0.844 Y-0.2242
N4660 X0.895 Y-0.2189
N4665 X0.9461 Y-0.2147
N4670 X0.9973 Y-0.2115
N4675 G2 X1.2022 Y-0.2043 I0.2997 J-5.6192
N4680 X1.5098 Y-0.2013 I0.3352 J-18.6914
N4685 G1 X1.5611 Y-0.2011
N4690 X1.6637 Y-0.2008
N4695 X1.8175 Y-0.2007
N4700 X2.1251 Y-0.2006
N4705 X2.5353 Y-0.2005
N4710 X4.5349 Y-0.2004
N4715 X6.5345 Y-0.2002
N4720 X8.0214 Y-0.2001
N4725 X8.0727
N4730 X8.1239 Y-0.2003
N4735 X8.1752 Y-0.201
N4740 X8.2264 Y-0.203
N4745 X8.2775 Y-0.2076
N4750 X8.3281 Y-0.2158
N4755 X8.3778 Y-0.2285
N4760 X8.4259 Y-0.2462
N4765 X8.4719 Y-0.2688
N4770 X8.5152 Y-0.2963
N4775 X8.5553 Y-0.3283
N4780 X8.5919 Y-0.3642
N4785 X8.6248 Y-0.4035
N4790 X8.654 Y-0.4456
N4795 X8.6795 Y-0.4901
N4800 X8.7015 Y-0.5364
N4805 X8.7202 Y-0.5842
N4810 X8.7359 Y-0.633
N4815 X8.7488 Y-0.6826
N4820 X8.7595 Y-0.7327
N4825 X8.7681 Y-0.7833
N4830 X8.775 Y-0.8341
N4835 X8.7805 Y-0.8851
N4840 X8.7848 Y-0.9362
N4845 X8.7882 Y-0.9873
N4850 X8.7909 Y-1.0385
N4855 X8.7929 Y-1.0897
N4860 X8.7943 Y-1.141
N4865 X8.7948 Y-1.1923
N4870 X8.7937 Y-1.2435
N4875 X8.7899 Y-1.2947
N4880 X8.7822 Y-1.3454
N4885 X8.77 Y-1.3951
N4890 X8.7527 Y-1.4434
N4895 X8.7304 Y-1.4896
N4900 X8.7032 Y-1.533
N4905 X8.6715 Y-1.5733
N4910 X8.6358 Y-1.6102
N4915 X8.5967 Y-1.6433
N4920 X8.5546 Y-1.6726
N4925 X8.5102 Y-1.6983
N4930 X8.464 Y-1.7204
N4935 X8.4163 Y-1.7392
N4940 X8.3675 Y-1.755
N4945 X8.3179 Y-1.7681
N4950 X8.2678 Y-1.7788
N4955 X8.2173 Y-1.7875
N4960 X8.1665 Y-1.7945
N4965 X8.1155 Y-1.8
N4970 X8.0644 Y-1.8044
N4975 X8.0132 Y-1.8079
N4980 G2 X7.8083 Y-1.8154 I-0.2999 J5.3518
N4985 X7.5007 Y-1.8185 I-0.334 J17.7215
N4990 G1 X7.4494 Y-1.8188
N4995 X7.3469 Y-1.819
N5000 X7.1931 Y-1.8192
N5005 X6.9367
N5010 X6.1164 Y-1.8193
N5015 X4.1167 Y-1.8192
N5020 X2.1171
N5025 X1.0404
N5030 X0.9892 Y-1.8191
N5035 X0.9379 Y-1.8189
N5040 X0.8866 Y-1.8182
N5045 X0.8354 Y-1.8163
N5050 X0.7843 Y-1.812
N5055 X0.7336 Y-1.8041
N5060 X0.6838 Y-1.7919
N5065 X0.6355 Y-1.7749
N5070 X0.5891 Y-1.753
N5075 X0.5454 Y-1.7262
N5080 X0.5047 Y-1.695
N5085 X0.4674 Y-1.6598
N5090 X0.4338 Y-1.6211
N5095 X0.4038 Y-1.5795
N5100 X0.3775 Y-1.5355
N5105 X0.3548 Y-1.4896
N5110 X0.3353 Y-1.4421
N5115 X0.3189 Y-1.3935
N5120 X0.3053 Y-1.3441
N5125 X0.294 Y-1.2941
N5130 X0.2848 Y-1.2437
N5135 X0.2774 Y-1.1929
N5140 X0.2715 Y-1.142
N5145 X0.2668 Y-1.0909
N5150 X0.2631 Y-1.0398
N5155 X0.2603 Y-0.9886
N5160 X0.2583 Y-0.9374
N5165 X0.2574 Y-0.8861
N5170 X0.2583 Y-0.8348
N5175 X0.2621 Y-0.7837
N5180 X0.2696 Y-0.733
N5185 X0.2817 Y-0.6832
N5190 X0.2986 Y-0.6348
N5195 X0.3206 Y-0.5885
N5200 X0.3475 Y-0.5448
N5205 X0.3788 Y-0.5042
N5210 X0.4141 Y-0.467
N5215 X0.4528 Y-0.4334
N5220 X0.4945 Y-0.4036
N5225 X0.5386 Y-0.3774
N5230 X0.5846 Y-0.3547
N5235 X0.632 Y-0.3353
N5240 X0.6806 Y-0.319
N5245 X0.7301 Y-0.3054
N5250 X0.7801 Y-0.2942
N5255 X0.8306 Y-0.285
N5260 X0.8813 Y-0.2776
N5265 X0.9322 Y-0.2717
N5270 X0.9833 Y-0.267
N5275 X1.0344 Y-0.2633
N5280 G2 X1.2393 Y-0.255 I0.3055 J-5.0231
N5285 G1 X1.2906 Y-0.2539
N5290 X1.3418 Y-0.2531
N5295 X1.3931 Y-0.2525
N5300 G2 X1.5982 Y-0.2512 I0.2947 J-29.9937
N5305 G1 X1.7007 Y-0.2509
N5310 X1.8033 Y-0.2508
N5315 X2.0084 Y-0.2506
N5320 X2.5211 Y-0.2505
N5325 X3.3927 Y-0.2504
N5330 X5.3923 Y-0.2503
N5335 X7.3919 Y-0.2501
N5340 X7.9559
N5345 X8.0072 Y-0.2502
N5350 X8.0585 Y-0.2504
N5355 X8.1097 Y-0.2511
N5360 X8.161 Y-0.253
N5365 X8.2121 Y-0.2574
N5370 X8.2627 Y-0.2651
N5375 X8.3126 Y-0.2772
N5380 X8.361 Y-0.294
N5385 X8.4074 Y-0.3157
N5390 X8.4513 Y-0.3423
N5395 X8.4922 Y-0.3733
N5400 X8.5296 Y-0.4083
N5405 X8.5635 Y-0.4467
N5410 X8.5937 Y-0.4882
N5415 X8.6202 Y-0.532
N5420 X8.6432 Y-0.5779
N5425 X8.6629 Y-0.6252
N5430 X8.6796 Y-0.6737
N5435 X8.6934 Y-0.7231
N5440 X8.7049 Y-0.773
N5445 X8.7143 Y-0.8234
N5450 X8.7218 Y-0.8742
N5455 X8.7279 Y-0.9251
N5460 X8.7327 Y-0.9761
N5465 X8.7364 Y-1.0273
N5470 X8.7392 Y-1.0785
N5475 X8.7407 Y-1.1297
N5480 X8.7403 Y-1.181
N5485 X8.7371 Y-1.2321
N5490 X8.7301 Y-1.2829
N5495 X8.7186 Y-1.3329
N5500 X8.7021 Y-1.3815
N5505 X8.6806 Y-1.428
N5510 X8.6541 Y-1.4719
N5515 X8.6232 Y-1.5128
N5520 X8.5882 Y-1.5503
N5525 X8.5497 Y-1.5841
N5530 X8.5082 Y-1.6143
N5535 X8.4643 Y-1.6408
N5540 X8.4185 Y-1.6637
N5545 X8.3711 Y-1.6833
N5550 X8.3226 Y-1.6998
N5555 X8.2732 Y-1.7136
N5560 X8.2232 Y-1.725
N5565 X8.1728 Y-1.7343
N5570 X8.1221 Y-1.7418
N5575 X8.0711 Y-1.7479
N5580 X8.0201 Y-1.7526
N5585 X7.969 Y-1.7564
N5590 G2 X7.7641 Y-1.7648 I-0.3048 J4.9332
N5595 X7.4564 Y-1.7684 I-0.3389 J15.8685
N5600 G1 X7.4052 Y-1.7686
N5605 X7.3026 Y-1.7689
N5610 X7.2001 Y-1.7691
N5615 X7.0463 Y-1.7692
N5620 X6.6874 Y-1.7693
N5625 X5.0467 Y-1.7692
N5630 X3.0471
N5635 X1.0987
N5640 X1.0474 Y-1.7691
N5645 X0.9962 Y-1.7689
N5650 X0.9449 Y-1.7681
N5655 X0.8937 Y-1.7659
N5660 X0.8426 Y-1.7615
N5665 X0.7919 Y-1.7536
N5670 X0.7421 Y-1.7414
N5675 X0.6937 Y-1.7247
N5680 X0.6472 Y-1.703
N5685 X0.6033 Y-1.6766
N5690 X0.5623 Y-1.6457
N5695 X0.5247 Y-1.6109
N5700 X0.4906 Y-1.5726
N5705 X0.4601 Y-1.5314
N5710 X0.4333 Y-1.4877
N5715 X0.41 Y-1.442
N5720 X0.39 Y-1.3948
N5725 X0.3731 Y-1.3464
N5730 X0.3589 Y-1.2971
N5735 X0.3471 Y-1.2472
N5740 X0.3375 Y-1.1969
N5745 X0.3297 Y-1.1462
N5750 X0.3234 Y-1.0953
N5755 X0.3185 Y-1.0443
N5760 X0.3149 Y-0.9931
N5765 X0.313 Y-0.9419
N5770 X0.3131 Y-0.8906
N5775 X0.3163 Y-0.8394
N5780 X0.3235 Y-0.7887
N5785 X0.3352 Y-0.7388
N5790 X0.352 Y-0.6903
N5795 X0.3738 Y-0.6439
N5800 X0.4004 Y-0.6001
N5805 X0.4314 Y-0.5593
N5810 X0.4664 Y-0.5218
N5815 X0.505 Y-0.488
N5820 X0.5464 Y-0.4578
N5825 X0.5903 Y-0.4313
N5830 X0.6361 Y-0.4083
N5835 X0.6835 Y-0.3886
N5840 X0.732 Y-0.3719
N5845 X0.7813 Y-0.358
N5850 X0.8312 Y-0.3464
N5855 X0.8816 Y-0.337
N5860 X0.9323 Y-0.3293
N5865 X0.9832 Y-0.3231
N5870 X1.0343 Y-0.3182
N5875 X1.0854 Y-0.3143
N5880 G2 X1.2903 Y-0.3054 I0.3091 J-4.7943
N5885 X1.5979 Y-0.3016 I0.344 J-15.1008
N5890 G1 X1.6491 Y-0.3013
N5895 X1.7004 Y-0.3011
N5900 X1.803 Y-0.3009
N5905 X1.9568 Y-0.3007
N5910 X2.2131 Y-0.3006
N5915 X2.6746 Y-0.3005
N5920 X4.6742 Y-0.3003
N5925 X6.6738 Y-0.3002
N5930 X7.9043 Y-0.3001
N5935 X7.9556 Y-0.3002
N5940 X8.0069 Y-0.3005
N5945 X8.0581 Y-0.3014
N5950 X8.1093 Y-0.3038
N5955 X8.1604 Y-0.3086
N5960 X8.211 Y-0.3169
N5965 X8.2607 Y-0.3294
N5970 X8.309 Y-0.3467
N5975 X8.3553 Y-0.3688
N5980 X8.399 Y-0.3956
N5985 X8.4397 Y-0.4267
N5990 X8.4771 Y-0.4618
N5995 X8.511 Y-0.5003
N6000 X8.5412 Y-0.5417
N6005 X8.5678 Y-0.5855
N6010 X8.5909 Y-0.6313
N6015 X8.6107 Y-0.6786
N6020 X8.6275 Y-0.727
N6025 X8.6415 Y-0.7763
N6030 X8.6532 Y-0.8263
N6035 X8.6627 Y-0.8767
N6040 X8.6704 Y-0.9273
N6045 X8.6765 Y-0.9782
N6050 X8.6811 Y-1.0293
N6055 X8.6838 Y-1.0805
N6060 X8.6841 Y-1.1318
N6065 X8.6812 Y-1.183
N6070 X8.6741 Y-1.2338
N6075 X8.6624 Y-1.2837
N6080 X8.6455 Y-1.3321
N6085 X8.6236 Y-1.3785
N6090 X8.5969 Y-1.4222
N6095 X8.5657 Y-1.4629
N6100 X8.5305 Y-1.5002
N6105 X8.4919 Y-1.5339
N6110 X8.4503 Y-1.5639
N6115 X8.4063 Y-1.5902
N6120 X8.3604 Y-1.613
N6125 X8.313 Y-1.6325
N6130 X8.2644 Y-1.649
N6135 X8.215 Y-1.6628
N6140 X8.165 Y-1.6742
N6145 X8.1146 Y-1.6835
N6150 X8.0639 Y-1.6911
N6155 X8.013 Y-1.6972
N6160 X7.962 Y-1.702
N6165 X7.9108 Y-1.7059
N6170 G2 X7.7059 Y-1.7145 I-0.3085 J4.8714
N6175 G1 X7.6547 Y-1.7157
N6180 X7.6034 Y-1.7165
N6185 X7.5521 Y-1.7172
N6190 G2 X7.2958 Y-1.7188 I-0.3227 J31.7098
N6195 G1 X7.1932 Y-1.719
N6200 X7.0394 Y-1.7191
N6205 X6.7831 Y-1.7192
N6210 X5.5525 Y-1.7193
N6215 X3.5529 Y-1.7192
N6220 X1.5533
N6225 X1.1944
N6230 X1.1432 Y-1.7191
N6235 X1.0919 Y-1.719
N6240 X1.0406 Y-1.7186
N6245 X0.9894 Y-1.7174
N6250 X0.9382 Y-1.7146
N6255 X0.8872 Y-1.7094
N6260 X0.8367 Y-1.7005
N6265 X0.7871 Y-1.6873
N6270 X0.739 Y-1.6695
N6275 X0.693 Y-1.6468
N6280 X0.6496 Y-1.6196
N6285 X0.6091 Y-1.5881
N6290 X0.572 Y-1.5527
N6295 X0.5384 Y-1.514
N6300 X0.5085 Y-1.4724
N6305 X0.4821 Y-1.4284
N6310 X0.4592 Y-1.3825
N6315 X0.4395 Y-1.3352
N6320 X0.4229 Y-1.2867
N6325 X0.4089 Y-1.2374
N6330 X0.3973 Y-1.1874
N6335 X0.3879 Y-1.137
N6340 X0.3804 Y-1.0863
N6345 X0.3749 Y-1.0353
N6350 X0.3715 Y-0.9842
N6355 X0.371 Y-0.9329
N6360 X0.3743 Y-0.8817
N6365 X0.3818 Y-0.831
N6370 X0.3943 Y-0.7813
N6375 X0.4119 Y-0.7331
N6380 X0.4345 Y-0.6871
N6385 X0.4619 Y-0.6438
N6390 X0.4937 Y-0.6035
N6395 X0.5294 Y-0.5667
N6400 X0.5685 Y-0.5335
N6405 X0.6104 Y-0.504
N6410 X0.6547 Y-0.4781
N6415 X0.7008 Y-0.4557
N6420 X0.7483 Y-0.4366
N6425 X0.797 Y-0.4203
N6430 X0.8464 Y-0.4068
N6435 X0.8964 Y-0.3956
N6440 X0.9469 Y-0.3864
N6445 X0.9976 Y-0.3789
N6450 X1.0485 Y-0.3729
N6455 X1.0996 Y-0.368
N6460 X1.1507 Y-0.3642
N6465 G2 X1.3556 Y-0.3555 I0.3121 J-4.9263
N6470 X1.6632 Y-0.3516 I0.347 J-15.248
N6475 G1 X1.7145 Y-0.3513
N6480 X1.7657 Y-0.3511
N6485 X1.8683 Y-0.3509
N6490 X2.0221 Y-0.3507
N6495 X2.2785 Y-0.3506
N6500 X2.381 Y-0.3505
N6505 X4.3806 Y-0.3504
N6510 X6.3802 Y-0.3502
N6515 X7.8158 Y-0.3501
N6520 X7.8671 Y-0.3502
N6525 X7.9184 Y-0.3504
N6530 X7.9696 Y-0.3509
N6535 X8.0209 Y-0.3525
N6540 X8.0721 Y-0.3557
N6545 X8.123 Y-0.3618
N6550 X8.1733 Y-0.3717
N6555 X8.2225 Y-0.3859
N6560 X8.2702 Y-0.4048
N6565 X8.3157 Y-0.4285
N6570 X8.3585 Y-0.4566
N6575 X8.3983 Y-0.489
N6580 X8.4347 Y-0.5251
N6585 X8.4676 Y-0.5645
N6590 X8.4968 Y-0.6066
N6595 X8.5224 Y-0.651
N6600 X8.5447 Y-0.6972
N6605 X8.5637 Y-0.7448
N6610 X8.5798 Y-0.7934
N6615 X8.5933 Y-0.8429
N6620 X8.6044 Y-0.893
N6625 X8.6132 Y-0.9435
N6630 X8.6197 Y-0.9943
N6635 X8.6237 Y-1.0455
N6640 X8.6244 Y-1.0967
N6645 X8.6211 Y-1.1479
N6650 X8.6131 Y-1.1985
N6655 X8.6 Y-1.2481
N6660 X8.5817 Y-1.296
N6665 X8.5584 Y-1.3417
N6670 X8.5302 Y-1.3845
N6675 X8.4977 Y-1.4241
N6680 X8.4613 Y-1.4603
N6685 X8.4216 Y-1.4927
N6690 X8.3792 Y-1.5216
N6695 X8.3346 Y-1.5468
N6700 X8.2881 Y-1.5685
N6705 X8.2404 Y-1.5871
N6710 X8.1915 Y-1.6028
N6715 X8.1419 Y-1.6158
N6720 X8.0918 Y-1.6266
N6725 X8.0413 Y-1.6353
N6730 X7.9905 Y-1.6425
N6735 X7.9396 Y-1.6482
N6740 X7.8885 Y-1.6528
N6745 X7.8374 Y-1.6564
N6750 G2 X7.6325 Y-1.6647 I-0.311 J5.1861
N6755 X7.2736 Y-1.6685 I-0.3705 J17.8257
N6760 G1 X7.2223 Y-1.6687
N6765 X7.1198 Y-1.669
N6770 X6.966 Y-1.6691
N6775 X6.7096 Y-1.6692
N6780 X5.6329 Y-1.6693
N6785 X3.6333 Y-1.6692
N6790 X1.6337
N6795 X1.2748
N6800 X1.2235
N6805 X1.1722 Y-1.6691
N6810 X1.1209 Y-1.6687
N6815 X1.0697 Y-1.6679
N6820 X1.0184 Y-1.6659
N6825 X0.9673 Y-1.6618
N6830 X0.9166 Y-1.6546
N6835 X0.8665 Y-1.6436
N6840 X0.8176 Y-1.6281
N6845 X0.7705 Y-1.6079
N6850 X0.7256 Y-1.583
N6855 X0.6835 Y-1.5538
N6860 X0.6446 Y-1.5205
N6865 X0.609 Y-1.4835
N6870 X0.577 Y-1.4435
N6875 X0.5486 Y-1.4008
N6880 X0.5237 Y-1.356
N6885 X0.5021 Y-1.3095
N6890 X0.4837 Y-1.2616
N6895 X0.4682 Y-1.2127
N6900 X0.4554 Y-1.1631
N6905 X0.4452 Y-1.1129
N6910 X0.4378 Y-1.0621
N6915 X0.4336 Y-1.011
N6920 X0.4332 Y-0.9597
N6925 X0.4373 Y-0.9086
N6930 X0.4465 Y-0.8582
N6935 X0.4609 Y-0.809
N6940 X0.4805 Y-0.7616
N6945 X0.5053 Y-0.7167
N6950 X0.5348 Y-0.6748
N6955 X0.5685 Y-0.6361
N6960 X0.6059 Y-0.6011
N6965 X0.6464 Y-0.5696
N6970 X0.6895 Y-0.5419
N6975 X0.7347 Y-0.5177
N6980 X0.7815 Y-0.4968
N6985 X0.8296 Y-0.4791
N6990 X0.8787 Y-0.4641
N6995 X0.9284 Y-0.4517
N7000 X0.9786 Y-0.4414
N7005 X1.0292 Y-0.4331
N7010 X1.0801 Y-0.4263
N7015 X1.131 Y-0.4208
N7020 X1.1821 Y-0.4165
N7025 X1.2333 Y-0.413
N7030 G2 X1.4382 Y-0.4051 I0.3136 J-5.4761
N7035 X1.7458 Y-0.4015 I0.3494 J-16.8411
N7040 G1 X1.7971 Y-0.4013
N7045 X1.8996 Y-0.401
N7050 X2.0022 Y-0.4008
N7055 X2.156 Y-0.4006
N7060 X2.4636 Y-0.4005
N7065 X2.5149
N7070 X4.5145 Y-0.4004
N7075 X6.5141 Y-0.4002
N7080 X7.7446 Y-0.4001
N7085 X7.7959 Y-0.4002
N7090 X7.8472 Y-0.4003
N7095 X7.8984 Y-0.4009
N7100 X7.9497 Y-0.4021
N7105 X8.0009 Y-0.4048
N7110 X8.0519 Y-0.4101
N7115 X8.1024 Y-0.4187
N7120 X8.1521 Y-0.4316
N7125 X8.2003 Y-0.449
N7130 X8.2466 Y-0.471
N7135 X8.2904 Y-0.4976
N7140 X8.3314 Y-0.5285
N7145 X8.369 Y-0.5633
N7150 X8.4032 Y-0.6015
N7155 X8.4338 Y-0.6426
N7160 X8.4609 Y-0.6862
N7165 X8.4845 Y-0.7317
N7170 X8.5048 Y-0.7788
N7175 X8.522 Y-0.8271
N7180 X8.5362 Y-0.8763
N7185 X8.5475 Y-0.9264
N7190 X8.5555 Y-0.977
N7195 X8.5598 Y-1.0281
N7200 X8.5596 Y-1.0794
N7205 X8.5545 Y-1.1304
N7210 X8.5441 Y-1.1806
N7215 X8.5281 Y-1.2293
N7220 X8.5068 Y-1.2759
N7225 X8.4804 Y-1.3199
N7230 X8.4494 Y-1.3607
N7235 X8.4143 Y-1.3981
N7240 X8.3757 Y-1.4319
N7245 X8.3342 Y-1.4619
N7250 X8.2902 Y-1.4883
N7255 X8.2443 Y-1.5112
N7260 X8.1969 Y-1.5308
N7265 X8.1484 Y-1.5474
N7270 X8.0991 Y-1.5613
N7275 X8.0491 Y-1.5728
N7280 X7.9987 Y-1.5822
N7285 X7.948 Y-1.5899
N7290 X7.8971 Y-1.5961
N7295 X7.8461 Y-1.6011
N7300 X7.795 Y-1.605
N7305 G2 X7.5901 Y-1.6141 I-0.3143 J4.8021
N7310 X7.2825 Y-1.6182 I-0.3488 J14.668
N7315 G1 X7.2312 Y-1.6185
N7320 X7.18 Y-1.6187
N7325 X7.0774 Y-1.6189
N7330 X6.9236 Y-1.6191
N7335 X6.6672 Y-1.6192
N7340 X5.6418 Y-1.6193
N7345 X5.2829 Y-1.6192
N7350 X3.2833
N7355 X1.335
N7360 X1.2837 Y-1.6191
N7365 X1.2324 Y-1.619
N7370 X1.1811 Y-1.6187
N7375 X1.1299 Y-1.6179
N7380 X1.0786 Y-1.6159
N7385 X1.0275 Y-1.6119
N7390 X0.9767 Y-1.6051
N7395 X0.9266 Y-1.5944
N7400 X0.8775 Y-1.5794
N7405 X0.8301 Y-1.5598
N7410 X0.785 Y-1.5356
N7415 X0.7425 Y-1.5069
N7420 X0.703 Y-1.4741
N7425 X0.6669 Y-1.4377
N7430 X0.6343 Y-1.3982
N7435 X0.6052 Y-1.3559
N7440 X0.5797 Y-1.3115
N7445 X0.5576 Y-1.2652
N7450 X0.5389 Y-1.2175
N7455 X0.5235 Y-1.1685
N7460 X0.5116 Y-1.1187
N7465 X0.5037 Y-1.068
N7470 X0.5002 Y-1.0169
N7475 X0.5019 Y-0.9656
N7480 X0.509 Y-0.9148
N7485 X0.5218 Y-0.8652
N7490 X0.5402 Y-0.8173
N7495 X0.564 Y-0.7719
N7500 X0.5926 Y-0.7294
N7505 X0.6257 Y-0.6902
N7510 X0.6626 Y-0.6546
N7515 X0.7027 Y-0.6227
N7520 X0.7456 Y-0.5945
N7525 X0.7906 Y-0.57
N7530 X0.8373 Y-0.5488
N7535 X0.8853 Y-0.5308
N7540 X0.9343 Y-0.5156
N7545 X0.984 Y-0.503
N7550 X1.0342 Y-0.4926
N7555 X1.0847 Y-0.484
N7560 X1.1355 Y-0.4771
N7565 X1.1865 Y-0.4715
N7570 X1.2376 Y-0.467
N7575 X1.2887 Y-0.4635
N7580 G2 X1.4936 Y-0.4553 I0.3153 J-5.3503
N7585 X1.8525 Y-0.4514 I0.377 J-18.0111
N7590 G1 X1.9038 Y-0.4511
N7595 X2.0063 Y-0.4509
N7600 X2.1601 Y-0.4507
N7605 X2.4165 Y-0.4506
N7610 X3.083 Y-0.4505
N7615 X5.0826 Y-0.4503
N7620 X7.0822 Y-0.4502
N7625 X7.6462 Y-0.4501
N7630 G2 X7.8513 Y-0.4511 I0.04 J-13.6722
N7635 G1 X7.9026 Y-0.4527
N7640 X7.9537 Y-0.4559
N7645 X8.0047 Y-0.4616
N7650 X8.0551 Y-0.471
N7655 X8.1046 Y-0.4844
N7660 X8.1526 Y-0.5024
N7665 X8.1986 Y-0.525
N7670 X8.2421 Y-0.5522
N7675 X8.2827 Y-0.5835
N7680 X8.32 Y-0.6186
N7685 X8.3539 Y-0.6571
N7690 X8.3842 Y-0.6985
N7695 X8.4109 Y-0.7422
N7700 X8.4341 Y-0.788
N7705 X8.4537 Y-0.8354
N7710 X8.4695 Y-0.8841
N7715 X8.4811 Y-0.9341
N7720 X8.4881 Y-0.9849
N7725 X8.4898 Y-1.0361
N7730 X8.4858 Y-1.0872
N7735 X8.476 Y-1.1375
N7740 X8.4602 Y-1.1863
N7745 X8.4388 Y-1.2329
N7750 X8.4121 Y-1.2767
N7755 X8.3807 Y-1.3172
N7760 X8.3452 Y-1.3542
N7765 X8.3062 Y-1.3875
N7770 X8.2642 Y-1.417
N7775 X8.2199 Y-1.4428
N7780 X8.1738 Y-1.4651
N7785 X8.1262 Y-1.4841
N7790 X8.0775 Y-1.5002
N7795 X8.028 Y-1.5136
N7800 X7.9779 Y-1.5246
N7805 X7.9275 Y-1.5337
N7810 X7.8767 Y-1.5411
N7815 X7.8258 Y-1.547
N7820 X7.7747 Y-1.5518
N7825 X7.7236 Y-1.5555
N7830 G2 X7.5187 Y-1.5642 I-0.3154 J5.0268
N7835 X7.2111 Y-1.5682 I-0.3505 J15.2865
N7840 G1 X7.1598 Y-1.5685
N7845 X7.1086 Y-1.5687
N7850 X7.006 Y-1.5689
N7855 X6.8522 Y-1.5691
N7860 X6.5959 Y-1.5692
N7865 X6.4933
N7870 X4.4937
N7875 X2.4941
N7880 X1.4174
N7885 G2 X1.2123 Y-1.5683 I-0.0369 J15.2462
N7890 G1 X1.161 Y-1.5669
N7895 X1.1099 Y-1.5641
N7900 X1.0589 Y-1.5588
N7905 X1.0083 Y-1.5502
N7910 X0.9586 Y-1.5376
N7915 X0.9102 Y-1.5206
N7920 X0.8637 Y-1.499
N7925 X0.8196 Y-1.4729
N7930 X0.7783 Y-1.4425
N7935 X0.7402 Y-1.4082
N7940 X0.7055 Y-1.3705
N7945 X0.6744 Y-1.3297
N7950 X0.647 Y-1.2864
N7955 X0.6234 Y-1.2409
N7960 X0.6039 Y-1.1934
N7965 X0.5889 Y-1.1444
N7970 X0.5789 Y-1.0941
N7975 X0.5746 Y-1.043
N7980 X0.5763 Y-0.9918
N7985 X0.5843 Y-0.9411
N7990 X0.5984 Y-0.8918
N7995 X0.6185 Y-0.8447
N8000 X0.644 Y-0.8002
N8005 X0.6745 Y-0.759
N8010 X0.7092 Y-0.7213
N8015 X0.7477 Y-0.6874
N8020 X0.7892 Y-0.6572
N8025 X0.8331 Y-0.6309
N8030 X0.8791 Y-0.6081
N8035 X0.9265 Y-0.5886
N8040 X0.975 Y-0.5721
N8045 X1.0244 Y-0.5583
N8050 X1.0744 Y-0.5469
N8055 X1.1248 Y-0.5376
N8060 X1.1755 Y-0.5299
N8065 X1.2264 Y-0.5238
N8070 X1.2775 Y-0.5189
N8075 X1.3286 Y-0.515
N8080 G2 X1.5335 Y-0.5059 I0.3176 J-4.877
N8085 X1.8411 Y-0.5017 I0.3541 J-14.7097
N8090 G1 X1.8923 Y-0.5014
N8095 X1.9436 Y-0.5012
N8100 X2.0461 Y-0.5009
N8105 X2.0974 Y-0.5008
N8110 X2.2512 Y-0.5007
N8115 X2.5076 Y-0.5005
N8120 X3.8407 Y-0.5004
N8125 X4.097
N8130 X6.0966 Y-0.5002
N8135 X7.5835 Y-0.5001
N8140 G2 X7.7886 Y-0.501 I0.038 J-14.5096
N8145 G1 X7.8399 Y-0.5025
N8150 X7.891 Y-0.5055
N8155 X7.942 Y-0.5109
N8160 X7.9926 Y-0.5196
N8165 X8.0422 Y-0.5324
N8170 X8.0905 Y-0.5496
N8175 X8.137 Y-0.5713
N8180 X8.181 Y-0.5976
N8185 X8.2222 Y-0.6281
N8190 X8.2602 Y-0.6625
N8195 X8.2947 Y-0.7005
N8200 X8.3255 Y-0.7414
N8205 X8.3523 Y-0.7851
N8210 X8.3749 Y-0.8312
N8215 X8.3925 Y-0.8793
N8220 X8.4047 Y-0.9291
N8225 X8.4108 Y-0.98
N8230 X8.4104 Y-1.0313
N8235 X8.4035 Y-1.0821
N8240 X8.39 Y-1.1315
N8245 X8.3703 Y-1.1789
N8250 X8.3449 Y-1.2234
N8255 X8.3145 Y-1.2647
N8260 X8.2797 Y-1.3024
N8265 X8.2411 Y-1.3362
N8270 X8.1995 Y-1.3661
N8275 X8.1554 Y-1.3923
N8280 X8.1094 Y-1.4148
N8285 X8.0618 Y-1.434
N8290 X8.0132 Y-1.4501
N8295 X7.9637 Y-1.4636
N8300 X7.9136 Y-1.4747
N8305 X7.8632 Y-1.4837
N8310 X7.8124 Y-1.4911
N8315 X7.7615 Y-1.497
N8320 X7.7104 Y-1.5018
N8325 X7.6593 Y-1.5055
N8330 G2 X7.4544 Y-1.5142 I-0.3157 J5.0479
N8335 X7.2494 Y-1.5175 I-0.3003 J12.4225
N8340 X7.0443 Y-1.5186 I-0.2969 J33.5704
N8345 G1 X6.9417 Y-1.5189
N8350 X6.7879 Y-1.5191
N8355 X6.5828 Y-1.5192
N8360 X5.9676 Y-1.5193
N8365 X5.2498 Y-1.5192
N8370 X3.2501
N8375 X1.4556
N8380 G2 X1.2505 Y-1.5178 I-0.0336 J10.5553
N8385 G1 X1.1993 Y-1.5159
N8390 X1.1482 Y-1.5124
N8395 X1.0973 Y-1.5061
N8400 X1.0469 Y-1.4963
N8405 X0.9976 Y-1.4825
N8410 X0.9497 Y-1.4641
N8415 X0.9039 Y-1.4412
N8420 X0.8605 Y-1.4138
N8425 X0.8201 Y-1.3823
N8430 X0.783 Y-1.3468
N8435 X0.7497 Y-1.3079
N8440 X0.7206 Y-1.2656
N8445 X0.6962 Y-1.2205
N8450 X0.6773 Y-1.1729
N8455 X0.6646 Y-1.1232
N8460 X0.6586 Y-1.0723
N8465 X0.6596 Y-1.021
N8470 X0.6677 Y-0.9704
N8475 X0.6824 Y-0.9213
N8480 X0.7035 Y-0.8745
N8485 X0.7302 Y-0.8308
N8490 X0.762 Y-0.7905
N8495 X0.7981 Y-0.7541
N8500 X0.8377 Y-0.7216
N8505 X0.8803 Y-0.6931
N8510 X0.9252 Y-0.6683
N8515 X0.9718 Y-0.647
N8520 X1.0199 Y-0.629
N8525 X1.0689 Y-0.614
N8530 X1.1186 Y-0.6015
N8535 X1.1688 Y-0.5912
N8540 X1.2194 Y-0.5829
N8545 X1.2702 Y-0.5762
N8550 X1.3212 Y-0.5707
N8555 X1.3723 Y-0.5664
N8560 X1.4235 Y-0.563
N8565 X1.4747 Y-0.5603
N8570 X1.5259 Y-0.5582
N8575 X1.5771 Y-0.5565
N8580 G2 X1.936 Y-0.5516 I0.3836 J-15.0615
N8585 G1 X1.9873 Y-0.5513
N8590 X2.0898 Y-0.551
N8595 X2.1924 Y-0.5508
N8600 X2.3462 Y-0.5506
N8605 X2.6538 Y-0.5505
N8610 X3.5767 Y-0.5504
N8615 X5.5763 Y-0.5503
N8620 X7.5247 Y-0.5501
N8625 X7.5759 Y-0.5502
N8630 X7.6272 Y-0.5503
N8635 X7.6785 Y-0.5505
N8640 X7.7297 Y-0.5511
N8645 X7.781 Y-0.5525
N8650 X7.8322 Y-0.5554
N8655 X7.8832 Y-0.5606
N8660 X7.9338 Y-0.569
N8665 X7.9835 Y-0.5814
N8670 X8.032 Y-0.5981
N8675 X8.0787 Y-0.6193
N8680 X8.123 Y-0.6451
N8685 X8.1644 Y-0.6753
N8690 X8.2025 Y-0.7096
N8695 X8.2367 Y-0.7478
N8700 X8.2663 Y-0.7897
N8705 X8.2904 Y-0.835
N8710 X8.3081 Y-0.8831
N8715 X8.3188 Y-0.9332
N8720 X8.322 Y-0.9844
N8725 X8.3178 Y-1.0355
N8730 X8.3063 Y-1.0855
N8735 X8.288 Y-1.1334
N8740 X8.2635 Y-1.1784
N8745 X8.2336 Y-1.22
N8750 X8.1989 Y-1.2578
N8755 X8.1604 Y-1.2916
N8760 X8.1186 Y-1.3214
N8765 X8.0743 Y-1.3472
N8770 X8.0281 Y-1.3694
N8775 X7.9804 Y-1.3881
N8780 X7.9316 Y-1.4038
N8785 X7.882 Y-1.4168
N8790 X7.8318 Y-1.4274
N8795 X7.7813 Y-1.4361
N8800 X7.7305 Y-1.443
N8805 X7.6795 Y-1.4486
N8810 X7.6284 Y-1.453
N8815 X7.5773 Y-1.4566
N8820 X7.5261 Y-1.4593
N8825 G2 X7.2698 Y-1.4664 I-0.3358 J7.5106
N8830 X6.9622 Y-1.4687 I-0.3536 J27.1745
N8835 G1 X6.8597 Y-1.4689
N8840 X6.7058 Y-1.4691
N8845 X6.4495 Y-1.4692
N8850 X5.5266 Y-1.4693
N8855 X3.527 Y-1.4692
N8860 X1.5274
N8865 G2 X1.3223 Y-1.4681 I-0.0323 J13.1953
N8870 G1 X1.271 Y-1.4666
N8875 X1.2198 Y-1.4636
N8880 X1.1688 Y-1.4583
N8885 X1.1183 Y-1.4499
N8890 X1.0685 Y-1.4375
N8895 X1.0201 Y-1.4207
N8900 X0.9734 Y-1.3994
N8905 X0.9292 Y-1.3735
N8910 X0.888 Y-1.3429
N8915 X0.8506 Y-1.3079
N8920 X0.818 Y-1.2683
N8925 X0.7912 Y-1.2246
N8930 X0.7713 Y-1.1773
N8935 X0.7591 Y-1.1276
N8940 X0.7547 Y-1.0765
N8945 X0.7584 Y-1.0253
N8950 X0.7696 Y-0.9753
N8955 X0.788 Y-0.9274
N8960 X0.8128 Y-0.8826
N8965 X0.8432 Y-0.8413
N8970 X0.8783 Y-0.8039
N8975 X0.9174 Y-0.7707
N8980 X0.9596 Y-0.7416
N8985 X1.0043 Y-0.7165
N8990 X1.0509 Y-0.6951
N8995 X1.0989 Y-0.677
N9000 X1.1479 Y-0.662
N9005 X1.1977 Y-0.6496
N9010 X1.2479 Y-0.6396
N9015 X1.2986 Y-0.6315
N9020 X1.3494 Y-0.6249
N9025 X1.4004 Y-0.6197
N9030 X1.4515 Y-0.6156
N9035 X1.5027 Y-0.6123
N9040 X1.5539 Y-0.6097
N9045 G2 X1.8102 Y-0.6032 I0.3357 J-8.1269
N9050 X2.0665 Y-0.6013 I0.3258 J-26.0889
N9055 G1 X2.1691 Y-0.601
N9060 X2.2716 Y-0.6008
N9065 X2.4254 Y-0.6006
N9070 X2.7331 Y-0.6005
N9075 X3.5534 Y-0.6004
N9080 X5.553 Y-0.6003
N9085 X7.4501 Y-0.6001
N9090 X7.5014 Y-0.6002
N9095 X7.5526
N9100 X7.6039 Y-0.6004
N9105 X7.6552 Y-0.6009
N9110 X7.7064 Y-0.602
N9115 X7.7577 Y-0.6042
N9120 X7.8088 Y-0.6084
N9125 X7.8595 Y-0.6155
N9130 X7.9097 Y-0.6262
N9135 X7.9587 Y-0.6411
N9140 X8.0062 Y-0.6606
N9145 X8.0513 Y-0.6848
N9150 X8.0934 Y-0.7141
N9155 X8.1313 Y-0.7487
N9160 X8.1636 Y-0.7885
N9165 X8.1891 Y-0.833
N9170 X8.2067 Y-0.8811
N9175 X8.2159 Y-0.9316
N9180 X8.2166 Y-0.9828
N9185 X8.2089 Y-1.0335
N9190 X8.1936 Y-1.0825
N9195 X8.1713 Y-1.1286
N9200 X8.1428 Y-1.1713
N9205 X8.1092 Y-1.21
N9210 X8.0713 Y-1.2445
N9215 X8.0299 Y-1.2747
N9220 X7.9857 Y-1.3008
N9225 X7.9395 Y-1.323
N9230 X7.8918 Y-1.3416
N9235 X7.8429 Y-1.3571
N9240 X7.7932 Y-1.3697
N9245 X7.743 Y-1.3801
N9250 X7.6924 Y-1.3884
N9255 X7.6415 Y-1.395
N9260 X7.5905 Y-1.4002
N9265 X7.5394 Y-1.4044
N9270 X7.4883 Y-1.4077
N9275 G2 X7.2833 Y-1.415 I-0.3098 J5.775
N9280 X6.9244 Y-1.4186 I-0.3893 J21.1947
N9285 G1 X6.8219 Y-1.4189
N9290 X6.7193 Y-1.419
N9295 X6.5655 Y-1.4192
N9300 X6.2579
N9305 X5.2837
N9310 X3.2841
N9315 X1.5921
N9320 G2 X1.3871 Y-1.4182 I-0.0304 J15.2437
N9325 G1 X1.3358 Y-1.4169
N9330 X1.2846 Y-1.4143
N9335 X1.2335 Y-1.4095
N9340 X1.1829 Y-1.4017
N9345 X1.1329 Y-1.3902
N9350 X1.0842 Y-1.3743
N9355 X1.0373 Y-1.3535
N9360 X0.9934 Y-1.327
N9365 X0.9539 Y-1.2943
N9370 X0.9207 Y-1.2552
N9375 X0.8952 Y-1.2108
N9380 X0.8783 Y-1.1624
N9385 X0.8704 Y-1.1117
N9390 X0.8716 Y-1.0604
N9395 X0.8814 Y-1.0101
N9400 X0.8991 Y-0.962
N9405 X0.9237 Y-0.917
N9410 X0.9543 Y-0.8758
N9415 X0.9899 Y-0.8389
N9420 X1.0295 Y-0.8064
N9425 X1.0724 Y-0.7783
N9430 X1.1177 Y-0.7542
N9435 X1.1648 Y-0.734
N9440 X1.2133 Y-0.7173
N9445 X1.2627 Y-0.7036
N9450 X1.3127 Y-0.6925
N9455 X1.3632 Y-0.6835
N9460 X1.414 Y-0.6764
N9465 X1.4649 Y-0.6708
N9470 X1.516 Y-0.6663
N9475 X1.5672 Y-0.6628
N9480 G2 X1.7721 Y-0.655 I0.3081 J-5.392
N9485 X2.0797 Y-0.6515 I0.3507 J-17.2998
N9490 G1 X2.131 Y-0.6513
N9495 X2.2335 Y-0.651
N9500 X2.3361 Y-0.6508
N9505 X2.4899 Y-0.6506
N9510 X2.7975 Y-0.6505
N9515 X4.0793 Y-0.6504
N9520 X6.0789 Y-0.6502
N9525 X7.412
N9530 G2 X7.6171 Y-0.6512 I0.0326 J-13.5949
N9535 G1 X7.6683 Y-0.6527
N9540 X7.7195 Y-0.6555
N9545 X7.7706 Y-0.6605
N9550 X7.8212 Y-0.6686
N9555 X7.871 Y-0.6806
N9560 X7.9194 Y-0.6975
N9565 X7.9652 Y-0.7206
N9570 X8.0063 Y-0.7513
N9575 X8.0405 Y-0.7895
N9580 X8.0663 Y-0.8337
N9585 X8.0827 Y-0.8823
N9590 X8.0894 Y-0.9332
N9595 X8.0866 Y-0.9844
N9600 X8.0749 Y-1.0343
N9605 X8.0553 Y-1.0817
N9610 X8.0288 Y-1.1255
N9615 X7.9963 Y-1.1652
N9620 X7.959 Y-1.2004
N9625 X7.9179 Y-1.2311
N9630 X7.8739 Y-1.2573
N9635 X7.8276 Y-1.2794
N9640 X7.7797 Y-1.2977
N9645 X7.7307 Y-1.3127
N9650 X7.6809 Y-1.3248
N9655 X7.6305 Y-1.3344
N9660 X7.5798 Y-1.3421
N9665 X7.5289 Y-1.3482
N9670 X7.4778 Y-1.3529
N9675 X7.4267 Y-1.3566
N9680 G2 X7.2218 Y-1.3647 I-0.3026 J5.0396
N9685 X6.9142 Y-1.3683 I-0.3457 J16.6754
N9690 G1 X6.8629 Y-1.3685
N9695 X6.7604 Y-1.3688
N9700 X6.6578 Y-1.369
N9705 X6.504 Y-1.3692
N9710 X6.4527
N9715 X6.0426
N9720 X4.4531
N9725 X2.4535
N9730 X1.6844
N9735 X1.5819 Y-1.3691
N9740 X1.5306 Y-1.369
N9745 X1.4794 Y-1.3686
N9750 X1.4281 Y-1.3679
N9755 X1.3768 Y-1.3662
N9760 X1.3257 Y-1.3631
N9765 X1.2747 Y-1.3577
N9770 X1.2242 Y-1.3489
N9775 X1.1747 Y-1.3355
N9780 X1.128 Y-1.3143
N9785 X1.087 Y-1.2835
N9790 X1.054 Y-1.2442
N9795 X1.0307 Y-1.1986
N9800 X1.0177 Y-1.149
N9805 X1.0149 Y-1.0978
N9810 X1.0219 Y-1.047
N9815 X1.0378 Y-0.9983
N9820 X1.0614 Y-0.9527
N9825 X1.0916 Y-0.9113
N9830 X1.1273 Y-0.8745
N9835 X1.1672 Y-0.8423
N9840 X1.2105 Y-0.8149
N9845 X1.2563 Y-0.7918
N9850 X1.3039 Y-0.7727
N9855 X1.3528 Y-0.7572
N9860 X1.4025 Y-0.7448
N9865 X1.4528 Y-0.7349
N9870 X1.5035 Y-0.7271
N9875 X1.5544 Y-0.721
N9880 X1.6055 Y-0.7163
N9885 X1.6566 Y-0.7127
N9890 G2 X1.8615 Y-0.7048 I0.2973 J-5.0716
N9895 X2.1691 Y-0.7014 I0.344 J-17.4488
N9900 G1 X2.2204 Y-0.7012
N9905 X2.3229 Y-0.7009
N9910 X2.4768 Y-0.7007
N9915 X2.6819 Y-0.7006
N9920 X3.2458 Y-0.7005
N9925 X5.2455 Y-0.7003
N9930 X7.2451 Y-0.7001
N9935 X7.3476 Y-0.7002
N9940 G2 X7.5527 Y-0.7011 I0.0313 J-15.5034
N9945 G1 X7.6039 Y-0.7024
N9950 X7.6552 Y-0.7049
N9955 X7.7062 Y-0.7094
N9960 X7.7569 Y-0.7171
N9965 X7.7813 Y-0.7251
N9970 X7.8045 Y-0.7359
N9975 X7.8263 Y-0.7494
N9980 X7.8464 Y-0.7654
N9985 X7.8644 Y-0.7836
N9990 X7.8801 Y-0.8039
N9995 X7.8934 Y-0.8258
N10000 X7.9039 Y-0.8492
N10005 X7.9117 Y-0.8736
N10010 X7.9165 Y-0.8988
N10015 X7.9182 Y-0.9244
N10020 X7.9157 Y-0.9756
N10025 X7.9019 Y-1.025
N10030 X7.8796 Y-1.0712
N10035 X7.8503 Y-1.1132
N10040 X7.8152 Y-1.1506
N10045 X7.7754 Y-1.183
N10050 X7.7322 Y-1.2105
N10055 X7.6864 Y-1.2335
N10060 X7.6386 Y-1.2522
N10065 X7.5896 Y-1.2673
N10070 X7.5398 Y-1.2793
N10075 X7.4894 Y-1.2887
N10080 X7.4386 Y-1.2959
N10085 X7.3877 Y-1.3015
N10090 X7.3366 Y-1.3058
N10095 X7.2854 Y-1.309
N10100 G2 X7.0804 Y-1.3158 I-0.2877 J5.5919
N10105 G1 X7.0292 Y-1.3167
N10110 X6.9779 Y-1.3173
N10115 X6.9266 Y-1.3178
N10120 X6.8754 Y-1.3181
N10125 X6.8241 Y-1.3184
N10130 X6.7728 Y-1.3186
N10135 X6.6703 Y-1.3189
N10140 X6.5677 Y-1.319
N10145 X6.3626 Y-1.3192
N10150 X5.9525
N10155 X4.927
N10160 X2.9274
N10165 X2.8761
N10170 G3 X2.6187 Y-1.3154 I-0.2751 J-9.9959
N10175 G1 X2.5674 Y-1.3152
N10180 X2.5161 Y-1.315
N10185 X2.4136 Y-1.3148
N10190 X2.2598 Y-1.3147
N10195 X1.6958
N10200 G2 X1.4907 Y-1.3135 I-0.0275 J12.7502
N10205 G1 X1.4394 Y-1.3119
N10210 X1.3883 Y-1.3088
N10215 X1.3631 Y-1.3039
N10220 X1.3387 Y-1.2959
N10225 X1.3155 Y-1.2852
N10230 X1.2936 Y-1.2717
N10235 X1.2735 Y-1.2558
N10240 X1.2555 Y-1.2377
N10245 X1.2396 Y-1.2175
N10250 X1.2263 Y-1.1956
N10255 X1.2157 Y-1.1722
N10260 X1.2079 Y-1.1478
N10265 X1.203 Y-1.1226
N10270 X1.2012 Y-1.0971
N10275 X1.2024 Y-1.0715
N10280 X1.2066 Y-1.0462
N10285 X1.2137 Y-1.0216
N10290 X1.2237 Y-0.998
N10295 X1.2364 Y-0.9757
N10300 X1.267 Y-0.9345
N10305 X1.3045 Y-0.8996
N10310 X1.3461 Y-0.8696
N10315 X1.3908 Y-0.8444
N10320 X1.4377 Y-0.8238
N10325 X1.4862 Y-0.8071
N10330 X1.5357 Y-0.7939
N10335 X1.5859 Y-0.7835
N10340 X1.6366 Y-0.7755
N10345 X1.6875 Y-0.7694
N10350 X1.7385 Y-0.7648
N10355 X1.7897 Y-0.7613
N10360 G2 X1.9946 Y-0.7541 I0.2826 J-5.1151
N10365 X2.3023 Y-0.7512 I0.3437 J-20.4204
N10370 G1 X2.4048 Y-0.7509
N10375 X2.5074 Y-0.7507
N10380 X2.7124 Y-0.7506
N10385 X3.1739 Y-0.7505
N10390 X5.1735 Y-0.7503
N10395 X7.1731 Y-0.7502
N10400 X7.2244
N10405 G3 X7.4327 Y-0.754 I0.3109 J11.1417
N10410 G1 X7.484 Y-0.7549
N10415 X7.5096 Y-0.7555
N10420 X7.5352 Y-0.7578
N10425 X7.5602 Y-0.7631
N10430 X7.5845 Y-0.7713
N10435 X7.6077 Y-0.7824
N10440 X7.6293 Y-0.7961
N10445 X7.6492 Y-0.8122
N10450 X7.6671 Y-0.8306
N10455 X7.6827 Y-0.851
N10460 X7.6957 Y-0.873
N10465 X7.706 Y-0.8965
N10470 X7.7135 Y-0.921
N10475 X7.7181 Y-0.9462
N10480 X7.7196 Y-0.9718
N10485 X7.7182 Y-0.9974
N10490 X7.7137 Y-1.0227
N10495 X7.7062 Y-1.0472
N10500 X7.6959 Y-1.0707
N10505 X7.6829 Y-1.0928
N10510 X7.6674 Y-1.1132
N10515 X7.6496 Y-1.1316
N10520 X7.6297 Y-1.1478
N10525 X7.5864 Y-1.1753
N10530 X7.5389 Y-1.1944
N10535 X7.49 Y-1.21
N10540 X7.4403 Y-1.2224
N10545 X7.3899 Y-1.2323
N10550 X7.3393 Y-1.2399
N10555 X7.2883 Y-1.2459
N10560 X7.2373 Y-1.2505
N10565 X7.1861 Y-1.2539
N10570 G2 X6.9812 Y-1.2612 I-0.2854 J5.1525
N10575 X6.6735 Y-1.2641 I-0.3411 J19.9854
N10580 G1 X6.571 Y-1.2644
N10585 X6.5197 Y-1.2645
N10590 X6.4685
N10595 G2 X6.2634 Y-1.2683 I-0.2321 J7.0806
N10600 G1 X6.2121 Y-1.2686
N10605 X6.1609 Y-1.2688
N10610 X6.1096 Y-1.269
N10615 X6.0071 Y-1.2691
N10620 X5.802 Y-1.2692
N10625 X4.5202
N10630 X2.982
N10635 X2.9307 Y-1.2688
N10640 X2.7769 Y-1.267
N10645 G3 X2.5206 Y-1.2652 I-0.3414 J-31.8337
N10650 G1 X2.418 Y-1.265
N10655 X2.2642 Y-1.2648
N10660 X2.0079 Y-1.2647
N10665 X1.7611
N10670 X1.7098 Y-1.2646
N10675 X1.6618 Y-1.2645
N10680 G3 X1.6331 Y-1.2746 I0.0015 J-0.05
N10685 G1 X1.6286 Y-1.278 Z1.2873
N10690 X1.6242 Y-1.2813 Z1.2883
N10695 X1.6199 Y-1.2846 Z1.2898
N10700 X1.6158 Y-1.2877 Z1.292
N10705 X1.6119 Y-1.2907 Z1.2947
N10710 X1.6082 Y-1.2934 Z1.2979
N10715 X1.6049 Y-1.2959 Z1.3016
N10720 X1.6019 Y-1.2982 Z1.3058
N10725 X1.5993 Y-1.3002 Z1.3104
N10730 X1.5972 Y-1.3018 Z1.3153
N10735 X1.5955 Y-1.3031 Z1.3205
N10740 X1.5942 Y-1.304 Z1.3259
N10745 X1.5935 Y-1.3046 Z1.3314
N10750 X1.5932 Y-1.3048 Z1.337
N10755 Z1.387 F500.
N10760 X7.2808 Y-1.3264
N10765 Z1.337 F120.
N10770 Y-1.326 Z1.3314
N10775 X7.281 Y-1.3251 Z1.3259
N10780 X7.2812 Y-1.3236 Z1.3205
N10785 X7.2815 Y-1.3215 Z1.3153
N10790 X7.2818 Y-1.3188 Z1.3104
N10795 X7.2823 Y-1.3155 Z1.3058
N10800 X7.2828 Y-1.3118 Z1.3016
N10805 X7.2833 Y-1.3077 Z1.2979
N10810 X7.2839 Y-1.3032 Z1.2947
N10815 X7.2846 Y-1.2983 Z1.292
N10820 X7.2853 Y-1.2932 Z1.2898
N10825 X7.286 Y-1.2878 Z1.2883
N10830 X7.2868 Y-1.2824 Z1.2873
N10835 X7.2875 Y-1.2768 Z1.287
N10840 G3 X7.2883 Y-1.2459 I-0.1422 J0.0192
N10845 G1 X7.288 Y-1.2427
N10850 G3 X7.2538 Y-1.2314 I-0.0698 J-0.1539
N10855 X7.1888 Y-1.2207 I-0.1145 J-0.4899
N10860 X7.0842 Y-1.2134 I-0.1469 J-1.3548
N10865 X6.9265 Y-1.2102 I-0.1722 J-4.5932
N10870 G1 X6.8885 Y-1.2099
N10875 X6.8372 Y-1.2097
N10880 X6.7859
N10885 X6.6834
N10890 X6.5808 Y-1.2099
N10895 X6.5296 Y-1.2103
N10900 X6.427 Y-1.2118
N10905 G2 X6.1194 Y-1.2142 I-0.3818 J28.6658
N10910 G1 X6.0169 Y-1.2145
N10915 X5.9143 Y-1.2146
N10920 X5.7092 Y-1.2147
N10925 X5.2991
N10930 X3.2995
N10935 X3.0944
N10940 X3.0431 Y-1.2146
N10945 X2.9918 Y-1.2143
N10950 X2.9406 Y-1.2139
N10955 X2.7867 Y-1.2125
N10960 X2.6586 Y-1.2116
N10965 X2.5304 Y-1.2109
N10970 X2.4278 Y-1.2106
N10975 X2.3253 Y-1.2104
N10980 X2.1715 Y-1.2103
N10985 X1.9055 Y-1.2102
N10990 G3 X1.8769 Y-1.2205 I0.0017 J-0.05
N10995 G1 X1.8724 Y-1.2239 Z1.2873
N11000 X1.868 Y-1.2272 Z1.2883
N11005 X1.8637 Y-1.2305 Z1.2898
N11010 X1.8596 Y-1.2336 Z1.292
N11015 X1.8557 Y-1.2366 Z1.2947
N11020 X1.8521 Y-1.2394 Z1.2979
N11025 X1.8488 Y-1.2419 Z1.3016
N11030 X1.8458 Y-1.2442 Z1.3058
N11035 X1.8432 Y-1.2462 Z1.3104
N11040 X1.8411 Y-1.2478 Z1.3153
N11045 X1.8394 Y-1.2491 Z1.3205
N11050 X1.8381 Y-1.2501 Z1.3259
N11055 X1.8374 Y-1.2507 Z1.3314
N11060 X1.8371 Y-1.2508 Z1.337
N11065 Z2.12 F500.

(Adaptive3 2)
N11070 G1 X-0.5726 Y0.0515 F500.
N11075 G1 Z2.12
N11080 Z0.3745
N11085 Z0.3245 F120.
N11090 X-0.5723 Z0.3189
N11095 X-0.5714 Y0.0512 Z0.3134
N11100 X-0.5699 Y0.0508 Z0.308
N11105 X-0.5678 Y0.0503 Z0.3028
N11110 X-0.5652 Y0.0496 Z0.2979
N11115 X-0.562 Y0.0488 Z0.2933
N11120 X-0.5584 Y0.0479 Z0.2891
N11125 X-0.5543 Y0.0469 Z0.2854
N11130 X-0.5499 Y0.0457 Z0.2822
N11135 X-0.5452 Y0.0445 Z0.2795
N11140 X-0.5401 Y0.0432 Z0.2773
N11145 X-0.5349 Y0.0419 Z0.2758
N11150 X-0.5296 Y0.0405 Z0.2748
N11155 X-0.5241 Y0.0391 Z0.2745
N11160 G3 X-0.2519 Y0. I0.3167 J1.2366
N11165 G1 X-0.2487
N11170 X-0.2175 Y0.0413
N11175 X-0.1799 Y0.0769
N11180 X-0.1375 Y0.1067
N11185 X-0.0917 Y0.1307
N11190 X-0.0435 Y0.1496
N11195 X0.0063 Y0.1641
N11200 X0.0569 Y0.1747
N11205 X0.1081 Y0.1825
N11210 X0.1596 Y0.1879
N11215 X0.2113 Y0.1917
N11220 X0.263 Y0.1942
N11225 G2 X0.4701 Y0.1983 I0.2322 J-6.4736
N11230 G1 X0.5219 Y0.1987
N11235 X0.5737 Y0.1989
N11240 X0.6255 Y0.1991
N11245 X0.729 Y0.1992
N11250 X0.9362 Y0.1993
N11255 X1.6611 Y0.1994
N11260 X3.6807 Y0.1996
N11265 X5.7003 Y0.1997
N11270 X7.7199 Y0.1999
N11275 X8.8591 Y0.2
N11280 X8.9109 Y0.1976
N11285 X8.9606 Y0.1833
N11290 X9.0064 Y0.1591
N11295 X9.047 Y0.127
N11300 X9.0818 Y0.0887
N11305 X9.1108 Y0.0457
N11310 X9.1341 Y-0.0005
N11315 X9.1524 Y-0.049
N11320 X9.1662 Y-0.0989
N11325 X9.1765 Y-0.1496
N11330 X9.1838 Y-0.2009
N11335 X9.189 Y-0.2524
N11340 X9.1925 Y-0.3041
N11345 X9.195 Y-0.3558
N11350 X9.1966 Y-0.4076
N11355 X9.1976 Y-0.4593
N11360 X9.1983 Y-0.5111
N11365 G2 X9.1994 Y-0.7182 I-23.787 J-0.2261
N11370 G1 X9.1995 Y-0.8218
N11375 X9.1996 Y-1.029
N11380 X9.1993 Y-1.9093
N11385 X9.1896 Y-1.9602
N11390 X9.1693 Y-2.0078
N11395 X9.1401 Y-2.0506
N11400 X9.1041 Y-2.0878
N11405 X9.0629 Y-2.1191
N11410 X9.0179 Y-2.1447
N11415 X8.9702 Y-2.165
N11420 X8.9208 Y-2.1805
N11425 X8.8703 Y-2.1921
N11430 X8.8193 Y-2.2006
N11435 X8.7678 Y-2.2066
N11440 X8.7162 Y-2.2107
N11445 X8.6645 Y-2.2136
N11450 X8.6127 Y-2.2155
N11455 G2 X8.3539 Y-2.2188 I-0.2562 J10.0772
N11460 G1 X8.3021 Y-2.219
N11465 X8.1985 Y-2.2192
N11470 X8.0432
N11475 X7.3182 Y-2.2193
N11480 X6.6968
N11485 X4.6772 Y-2.2192
N11490 X2.6576
N11495 X0.638
N11500 X0.1202
N11505 X0.0689 Y-2.2118
N11510 X0.0205 Y-2.1933
N11515 X-0.0233 Y-2.1657
N11520 X-0.0616 Y-2.1308
N11525 X-0.094 Y-2.0905
N11530 X-0.1207 Y-2.0461
N11535 X-0.1419 Y-1.9988
N11540 X-0.1583 Y-1.9497
N11545 X-0.1706 Y-1.8994
N11550 X-0.1796 Y-1.8484
N11555 X-0.186 Y-1.797
N11560 X-0.1904 Y-1.7454
N11565 X-0.1935 Y-1.6937
N11570 X-0.1956 Y-1.642
N11575 G2 X-0.1988 Y-1.4349 I8.0091 J0.2292
N11580 G1 X-0.1991 Y-1.3831
N11585 X-0.1992 Y-1.3313
N11590 X-0.1994 Y-1.2277
N11595 X-0.1995 Y-1.0724
N11600 Y-0.8653
N11605 X-0.1993 Y-0.2438
N11610 X-0.1976 Y-0.1921
N11615 X-0.1862 Y-0.1416
N11620 X-0.166 Y-0.0939
N11625 X-0.1381 Y-0.0503
N11630 X-0.1039 Y-0.0114
N11635 X-0.0645 Y0.0223
N11640 X-0.0213 Y0.0508
N11645 X0.0249 Y0.0742
N11650 X0.0731 Y0.0931
N11655 X0.1227 Y0.1079
N11660 X0.1732 Y0.1193
N11665 X0.2243 Y0.1278
N11670 X0.2757 Y0.1341
N11675 X0.3273 Y0.1387
N11680 X0.379 Y0.1419
N11685 X0.4307 Y0.1442
N11690 G2 X0.6378 Y0.1482 I0.2448 J-7.3423
N11695 G1 X0.6896 Y0.1486
N11700 X0.7414 Y0.1488
N11705 X0.7932 Y0.149
N11710 X0.8967 Y0.1492
N11715 X1.0003 Y0.1493
N11720 X1.311 Y0.1494
N11725 X3.0199 Y0.1495
N11730 X5.0395 Y0.1497
N11735 X7.059 Y0.1498
N11740 X8.7161 Y0.15
N11745 X8.7679 Y0.1498
N11750 X8.8192 Y0.1422
N11755 X8.8685 Y0.1265
N11760 X8.8697 Y0.1259
N11765 X8.8811 Y0.1208
N11770 X8.8929 Y0.1168
N11775 X8.905 Y0.114
N11780 X8.9079 Y0.1134
N11785 X8.9209 Y0.1102
N11790 X8.9359 Y0.1053
N11795 X8.9509 Y0.1002
N11800 X8.9547 Y0.0985
N11805 X8.9659 Y0.0933
N11810 X8.9808 Y0.0852
N11815 X9.0108 Y0.0645
N11820 X9.0239 Y0.0535
N11825 X9.0258 Y0.0519
N11830 X9.039 Y0.0386
N11835 X9.0408 Y0.0367
N11840 X9.0515 Y0.0236
N11845 X9.0707 Y-0.0032
N11850 X9.0727 Y-0.0064
N11855 X9.0807 Y-0.0214
N11860 X9.0857 Y-0.0321
N11865 X9.0876 Y-0.0363
N11870 X9.0979 Y-0.0663
N11875 X9.1007 Y-0.0786
N11880 X9.1135 Y-0.1288
N11885 X9.1225 Y-0.1798
N11890 X9.1295 Y-0.2311
N11895 X9.1349 Y-0.2826
N11900 X9.139 Y-0.3343
N11905 X9.142 Y-0.3859
N11910 G2 X9.1478 Y-0.593 I-5.6054 J-0.2593
N11915 X9.1493 Y-0.8519 I-23.1661 J-0.2694
N11920 G1 X9.1495 Y-0.9555
N11925 Y-1.1108
N11930 X9.1494 Y-1.6805
N11935 X9.1493 Y-1.784
N11940 X9.1423 Y-1.8353
N11945 X9.1271 Y-1.8848
N11950 X9.1042 Y-1.9313
N11955 X9.0745 Y-1.9737
N11960 X9.039 Y-2.0114
N11965 X8.9988 Y-2.0441
N11970 X8.9551 Y-2.0717
N11975 X8.9086 Y-2.0946
N11980 X8.8602 Y-2.1131
N11985 X8.8106 Y-2.1277
N11990 X8.76 Y-2.139
N11995 X8.7089 Y-2.1475
N12000 X8.6575 Y-2.1538
N12005 X8.6059 Y-2.1583
N12010 X8.5543 Y-2.1616
N12015 X8.5025 Y-2.164
N12020 G2 X8.2954 Y-2.1681 I-0.2461 J7.1927
N12025 G1 X8.2437 Y-2.1685
N12030 X8.1919 Y-2.1687
N12035 X8.1401 Y-2.1689
N12040 X8.0365 Y-2.1691
N12045 X7.8812 Y-2.1692
N12050 X7.4151 Y-2.1693
N12055 X7.0008
N12060 X4.9813 Y-2.1692
N12065 X2.9617
N12070 X0.9421
N12075 X0.2689
N12080 X0.2171 Y-2.1673
N12085 X0.1663 Y-2.1573
N12090 X0.1178 Y-2.1392
N12095 X0.0727 Y-2.1137
N12100 X0.032 Y-2.0817
N12105 X-0.004 Y-2.0445
N12110 X-0.0349 Y-2.0029
N12115 X-0.0608 Y-1.9581
N12120 X-0.0821 Y-1.9109
N12125 X-0.0991 Y-1.862
N12130 X-0.1124 Y-1.8119
N12135 X-0.1226 Y-1.7612
N12140 X-0.1303 Y-1.71
N12145 X-0.1359 Y-1.6585
N12150 X-0.14 Y-1.6069
N12155 X-0.1429 Y-1.5552
N12160 G2 X-0.148 Y-1.3481 I5.7693 J0.2466
N12165 X-0.1492 Y-1.141 I22.7738 J0.2324
N12170 G1 X-0.1494 Y-1.0374
N12175 Y-0.882
N12180 Y-0.3642
N12185 X-0.1485 Y-0.3124
N12190 X-0.1413 Y-0.2611
N12195 X-0.1267 Y-0.2114
N12200 X-0.105 Y-0.1644
N12205 X-0.0768 Y-0.121
N12210 X-0.043 Y-0.0818
N12215 X-0.0045 Y-0.0472
N12220 X0.0378 Y-0.0173
N12225 X0.0831 Y0.0079
N12230 X0.1305 Y0.0288
N12235 X0.1794 Y0.0457
N12240 X0.2294 Y0.0591
N12245 X0.2802 Y0.0695
N12250 X0.3313 Y0.0775
N12255 X0.3461 Y0.0792
N12260 X0.3531 Y0.0802
N12265 X0.3601 Y0.0816
N12270 X0.367 Y0.0834
N12275 X0.4099 Y0.0958
N12280 X0.4249 Y0.1
N12285 X0.4399 Y0.1042
N12290 X0.4699 Y0.1099
N12295 G2 X0.5598 Y0.1184 I0.2554 J-2.2085
N12300 G1 X0.5748 Y0.1194
N12305 X0.5898 Y0.12
N12310 X8.846
N12315 X8.861 Y0.1193
N12320 X8.8622 Y0.1195 Z0.2746
N12325 X8.8632 Y0.1202 Z0.2747
N12330 G2 X8.9282 Y0.1581 Z0.2825 I0.1084 J-0.1111
N12335 X9.1262 Y-0.0053 I0.0434 J-0.1491
N12340 X9.1012 Y-0.0764 Z0.2747 I-0.1546 J0.0143
N12345 G1 X9.1007 Y-0.0775 Z0.2746
N12350 Y-0.0786 Z0.2745
N12355 X9.1043 Y-0.0963
N12360 X9.1059 Y-0.1112
N12365 X9.107 Y-0.1262
N12370 X9.1076 Y-0.1412
N12375 Y-0.3659
N12380 X9.1061 Y-0.3958
N12385 X9.1059 Y-0.3972
N12390 X9.1053 Y-0.4032
N12395 X9.1023 Y-0.4549
N12400 X9.1007 Y-0.5066
N12405 G3 X9.0993 Y-0.7137 I10.7315 J-0.1767
N12410 G1 X9.0995 Y-1.0762
N12415 X9.0994 Y-1.4387
N12420 Y-1.6459
N12425 X9.0978 Y-1.6976
N12430 X9.0903 Y-1.7489
N12435 X9.076 Y-1.7986
N12440 X9.0548 Y-1.8459
N12445 X9.0272 Y-1.8897
N12450 X8.9941 Y-1.9295
N12455 X8.9562 Y-1.9648
N12460 X8.9145 Y-1.9955
N12465 X8.8697 Y-2.0215
N12470 X8.8227 Y-2.0432
N12475 X8.774 Y-2.061
N12480 X8.7242 Y-2.0752
N12485 X8.6737 Y-2.0864
N12490 X8.6226 Y-2.095
N12495 X8.5713 Y-2.1015
N12500 X8.5197 Y-2.1064
N12505 X8.468 Y-2.1101
N12510 X8.4163 Y-2.1127
N12515 G2 X8.2093 Y-2.1176 I-0.2583 J6.4984
N12520 X8.0021 Y-2.1189 I-0.2471 J23.3536
N12525 G1 X7.8986 Y-2.1191
N12530 X7.7432 Y-2.1192
N12535 X7.3289 Y-2.1193
N12540 X6.7077
N12545 X6.7 Y-2.1195
N12550 X6.6924 Y-2.1202
N12555 X6.6849 Y-2.1213
N12560 X6.6583 Y-2.126
N12565 X6.6433 Y-2.1286
N12570 X6.612 Y-2.1333
N12575 X6.5984 Y-2.1342
N12580 G2 X6.4935 Y-2.1391 I-0.3363 J5.988
N12585 G1 X6.4635 Y-2.1394
N12590 X6.4485 Y-2.1385
N12595 X6.4186 Y-2.1361
N12600 X6.3586 Y-2.1311
N12605 X6.3436 Y-2.1297
N12610 X6.292 Y-2.126
N12615 X6.2403 Y-2.1236
N12620 G3 X6.0332 Y-2.1201 I-0.2242 J-7.1138
N12625 G1 X5.9814 Y-2.1198
N12630 X5.9296 Y-2.1196
N12635 X5.826 Y-2.1194
N12640 X5.6707 Y-2.1193
N12645 X5.0493 Y-2.1192
N12650 X4.3243
N12655 X2.3047
N12660 X0.3887
N12665 X0.3369 Y-2.1185
N12670 X0.2854 Y-2.1129
N12675 X0.2351 Y-2.1005
N12680 X0.1871 Y-2.0812
N12685 X0.1422 Y-2.0553
N12690 X0.1013 Y-2.0236
N12695 X0.0647 Y-1.987
N12700 X0.0327 Y-1.9463
N12705 X0.0053 Y-1.9024
N12710 X-0.0177 Y-1.856
N12715 X-0.0366 Y-1.8077
N12720 X-0.0518 Y-1.7582
N12725 X-0.0637 Y-1.7078
N12730 X-0.073 Y-1.6569
N12735 X-0.0801 Y-1.6056
N12740 X-0.0855 Y-1.5541
N12745 X-0.0894 Y-1.5025
N12750 X-0.0923 Y-1.4507
N12755 G2 X-0.0977 Y-1.2437 I5.9005 J0.2574
N12760 X-0.0991 Y-1.0366 I21.1536 J0.2429
N12765 G1 X-0.0993 Y-0.933
N12770 X-0.0994 Y-0.7776
N12775 Y-0.6829
N12780 X-0.0995 Y-0.6771
N12785 X-0.1 Y-0.6712
N12790 X-0.1007 Y-0.6654
N12795 X-0.1026 Y-0.6504
N12800 X-0.1044 Y-0.6355
N12805 X-0.1051 Y-0.6055
N12810 X-0.1058 Y-0.5756
N12815 X-0.106 Y-0.5606
N12820 X-0.1059 Y-0.5306
N12825 X-0.1058 Y-0.5293
N12830 X-0.1041 Y-0.4775
N12835 X-0.1022 Y-0.4257
N12840 X-0.0976 Y-0.3742
N12845 X-0.0874 Y-0.3234
N12850 X-0.071 Y-0.2743
N12855 X-0.0483 Y-0.2278
N12860 X-0.0197 Y-0.1846
N12865 X0.0141 Y-0.1454
N12870 X0.0523 Y-0.1104
N12875 X0.0942 Y-0.0798
N12880 X0.1005 Y-0.0759
N12885 X0.1065 Y-0.0714
N12890 X0.1122 Y-0.0667
N12895 X0.1252 Y-0.055
N12900 G2 X0.1852 Y-0.0089 I2.4302 J-3.0956
N12905 G1 X0.2152 Y0.0126
N12910 X0.2301 Y0.0216
N12915 G2 X0.3238 Y0.0685 I1.0676 J-2.0128
N12920 X0.367 Y0.0834 I0.2344 J-0.611
N12925 G3 X0.3917 Y0.1012 I-0.0155 J0.0475
N12930 G1 X0.395 Y0.1057 Z0.2748
N12935 X0.3983 Y0.1101 Z0.2758
N12940 X0.4015 Y0.1145 Z0.2773
N12945 X0.4046 Y0.1186 Z0.2795
N12950 X0.4075 Y0.1226 Z0.2822
N12955 X0.4102 Y0.1263 Z0.2854
N12960 X0.4127 Y0.1296 Z0.2891
N12965 X0.4149 Y0.1326 Z0.2933
N12970 X0.4168 Y0.1352 Z0.2979
N12975 X0.4184 Y0.1374 Z0.3028
N12980 X0.4197 Y0.1391 Z0.308
N12985 X0.4206 Y0.1404 Z0.3134
N12990 X0.4212 Y0.1411 Z0.3189
N12995 X0.4214 Y0.1414 Z0.3245
N13000 Z1.72 F500.
N13005 X-0.146 Y-0.5988
N13010 Z0.3745
N13015 Z0.3245 F120.
N13020 X-0.1458 Y-0.5985 Z0.3189
N13025 X-0.1453 Y-0.5978 Z0.3134
N13030 X-0.1444 Y-0.5965 Z0.308
N13035 X-0.1431 Y-0.5948 Z0.3028
N13040 X-0.1416 Y-0.5926 Z0.2979
N13045 X-0.1397 Y-0.5899 Z0.2933
N13050 X-0.1375 Y-0.5869 Z0.2891
N13055 X-0.1351 Y-0.5835 Z0.2854
N13060 X-0.1324 Y-0.5797 Z0.2822
N13065 X-0.1296 Y-0.5758 Z0.2795
N13070 X-0.1266 Y-0.5715 Z0.2773
N13075 X-0.1234 Y-0.5671 Z0.2758
N13080 X-0.1202 Y-0.5626 Z0.2748
N13085 X-0.117 Y-0.5581 Z0.2745
N13090 G3 X-0.1058 Y-0.5293 I-0.0507 J0.0362
N13095 G1 X-0.1047 Y-0.5156
N13100 X-0.1029 Y-0.5007
N13105 X-0.1008 Y-0.4857
N13110 X-0.0907 Y-0.4258
N13115 X-0.0877 Y-0.4108
N13120 X-0.0803 Y-0.3808
N13125 X-0.075 Y-0.3659
N13130 X-0.0546 Y-0.3107
N13135 X-0.0528 Y-0.3059
N13140 X-0.0396 Y-0.2737
N13145 X-0.0329 Y-0.261
N13150 G2 X0.0214 Y-0.1711 I1.415 J-0.7928
N13155 G1 X0.0317 Y-0.1562
N13160 X0.0353 Y-0.1516
N13165 G2 X0.1017 Y-0.0773 I2.2006 J-1.8998
N13170 G1 X0.1103 Y-0.0684
N13175 X0.1122 Y-0.0667
N13180 G3 X0.1267 Y-0.0399 I-0.0346 J0.0361
N13185 G1 X0.1278 Y-0.0344 Z0.2748
N13190 X0.1288 Y-0.029 Z0.2758
N13195 X0.1298 Y-0.0237 Z0.2773
N13200 X0.1308 Y-0.0186 Z0.2795
N13205 X0.1317 Y-0.0138 Z0.2822
N13210 X0.1325 Y-0.0093 Z0.2854
N13215 X0.1333 Y-0.0052 Z0.2891
N13220 X0.134 Y-0.0015 Z0.2933
N13225 X0.1346 Y0.0017 Z0.2979
N13230 X0.1351 Y0.0044 Z0.3028
N13235 X0.1355 Y0.0065 Z0.308
N13240 X0.1358 Y0.008 Z0.3134
N13245 X0.136 Y0.0089 Z0.3189
N13250 Y0.0092 Z0.3245
N13255 Z1.72 F500.
N13260 X6.4116 Y-2.1726
N13265 Z0.3745
N13270 Z0.3245 F120.
N13275 X6.4113 Y-2.1724 Z0.3189
N13280 X6.4106 Y-2.1718 Z0.3134
N13285 X6.4093 Y-2.1709 Z0.308
N13290 X6.4076 Y-2.1696 Z0.3028
N13295 X6.4055 Y-2.1679 Z0.2979
N13300 X6.4029 Y-2.1659 Z0.2933
N13305 X6.4 Y-2.1636 Z0.2891
N13310 X6.3967 Y-2.1611 Z0.2854
N13315 X6.3931 Y-2.1583 Z0.2822
N13320 X6.3892 Y-2.1553 Z0.2795
N13325 X6.3851 Y-2.1521 Z0.2773
N13330 X6.3808 Y-2.1488 Z0.2758
N13335 X6.3764 Y-2.1454 Z0.2748
N13340 X6.372 Y-2.142 Z0.2745
N13345 G3 X6.3436 Y-2.1297 I-0.0381 J-0.0493
N13350 G1 X6.3137 Y-2.126
N13355 X6.2987 Y-2.1239
N13360 X6.0601 Y-2.0884
N13365 X6.0086 Y-2.0833
N13370 X5.9644 Y-2.0789
N13375 X5.9128 Y-2.0755
N13380 X5.861 Y-2.0733
N13385 G3 X5.6539 Y-2.07 I-0.2266 J-7.7865
N13390 G1 X5.6021 Y-2.0697
N13395 X5.5504 Y-2.0696
N13400 X5.4468 Y-2.0694
N13405 X5.2914 Y-2.0693
N13410 X4.67 Y-2.0692
N13415 X4.0486
N13420 X2.029
N13425 X0.5273
N13430 X0.4755 Y-2.0691
N13435 X0.4237 Y-2.0681
N13440 X0.3722 Y-2.063
N13445 X0.3216 Y-2.0522
N13450 X0.2727 Y-2.035
N13455 X0.2265 Y-2.0116
N13460 X0.1836 Y-1.9825
N13465 X0.1447 Y-1.9484
N13470 X0.11 Y-1.9099
N13475 X0.0798 Y-1.8679
N13480 X0.0538 Y-1.8231
N13485 X0.032 Y-1.7762
N13490 X0.0139 Y-1.7276
N13495 X-0.0008 Y-1.678
N13500 X-0.0125 Y-1.6275
N13505 X-0.0217 Y-1.5766
N13510 X-0.0288 Y-1.5253
N13515 X-0.0342 Y-1.4738
N13520 X-0.0383 Y-1.4222
N13525 X-0.0413 Y-1.3705
N13530 G2 X-0.0473 Y-1.1634 I5.7103 J0.2676
N13535 X-0.0491 Y-0.872 I23.1217 J0.2911
N13540 G1 X-0.0503 Y-0.8551
N13545 X-0.0536 Y-0.8385
N13550 X-0.0591 Y-0.8225
N13555 X-0.0621 Y-0.8152
N13560 X-0.0739 Y-0.7853
N13565 X-0.0781 Y-0.7703
N13570 X-0.0845 Y-0.7451
N13575 X-0.0966 Y-0.6871
N13580 X-0.0995 Y-0.6734
N13585 X-0.1007 Y-0.6654
N13590 G3 X-0.1152 Y-0.6387 I-0.0491 J-0.0093
N13595 G1 X-0.1193 Y-0.6348 Z0.2748
N13600 X-0.1233 Y-0.631 Z0.2758
N13605 X-0.1272 Y-0.6272 Z0.2773
N13610 X-0.1309 Y-0.6237 Z0.2795
N13615 X-0.1344 Y-0.6203 Z0.2822
N13620 X-0.1377 Y-0.6171 Z0.2854
N13625 X-0.1408 Y-0.6142 Z0.2891
N13630 X-0.1435 Y-0.6116 Z0.2933
N13635 X-0.1458 Y-0.6094 Z0.2979
N13640 X-0.1478 Y-0.6075 Z0.3028
N13645 X-0.1493 Y-0.606 Z0.308
N13650 X-0.1504 Y-0.6049 Z0.3134
N13655 X-0.1511 Y-0.6043 Z0.3189
N13660 X-0.1513 Y-0.6041 Z0.3245
N13665 Z1.72 F500.
N13670 X6.1269 Y-2.133
N13675 Z0.3745
N13680 Z0.3245 F120.
N13685 X6.1267 Y-2.1328 Z0.3189
N13690 X6.1259 Y-2.1322 Z0.3134
N13695 X6.1247 Y-2.1312 Z0.308
N13700 X6.1231 Y-2.1298 Z0.3028
N13705 X6.121 Y-2.1281 Z0.2979
N13710 X6.1184 Y-2.1261 Z0.2933
N13715 X6.1155 Y-2.1237 Z0.2891
N13720 X6.1123 Y-2.1211 Z0.2854
N13725 X6.1088 Y-2.1182 Z0.2822
N13730 X6.105 Y-2.1151 Z0.2795
N13735 X6.1009 Y-2.1118 Z0.2773
N13740 X6.0968 Y-2.1084 Z0.2758
N13745 X6.0925 Y-2.1049 Z0.2748
N13750 X6.0882 Y-2.1014 Z0.2745
N13755 G3 X6.0601 Y-2.0884 I-0.0394 J-0.0483
N13760 G1 X5.7293 Y-2.0391
N13765 X5.6778 Y-2.034
N13770 X5.6357 Y-2.0296
N13775 X5.5841 Y-2.026
N13780 X5.5323 Y-2.0236
N13785 G3 X5.3252 Y-2.0201 I-0.2272 J-7.2732
N13790 G1 X5.2734 Y-2.0198
N13795 X5.2217 Y-2.0196
N13800 X5.1699 Y-2.0195
N13805 X5.0663 Y-2.0193
N13810 X4.8592
N13815 X3.7199 Y-2.0192
N13820 X1.7003
N13825 X0.6129
N13830 X0.5611 Y-2.0191
N13835 X0.5093 Y-2.018
N13840 X0.4577 Y-2.0138
N13845 X0.4067 Y-2.0046
N13850 X0.3571 Y-1.9897
N13855 X0.3097 Y-1.9689
N13860 X0.2652 Y-1.9424
N13865 X0.2242 Y-1.9107
N13870 X0.1872 Y-1.8746
N13875 X0.1542 Y-1.8346
N13880 X0.1255 Y-1.7915
N13885 X0.1009 Y-1.746
N13890 X0.0802 Y-1.6985
N13895 X0.0629 Y-1.6497
N13900 X0.0489 Y-1.5998
N13905 X0.0377 Y-1.5493
N13910 X0.0288 Y-1.4983
N13915 X0.0218 Y-1.4469
N13920 X0.0164 Y-1.3954
N13925 X0.0124 Y-1.3438
N13930 X0.0093 Y-1.2921
N13935 G2 X0.003 Y-1.0851 I5.7191 J0.2757
N13940 G1 X0.0023 Y-1.0333
N13945 X0.0018 Y-0.9815
N13950 X0.0017 Y-0.9768
N13955 X0.0003 Y-0.9604
N13960 X-0.0032 Y-0.9444
N13965 X-0.0087 Y-0.9289
N13970 X-0.0161 Y-0.9142
N13975 X-0.0303 Y-0.8901
N13980 X-0.0372 Y-0.8751
N13985 X-0.0591 Y-0.8225
N13990 G3 X-0.0795 Y-0.8 I-0.0455 J-0.0208
N13995 G1 X-0.0844 Y-0.7972 Z0.2748
N14000 X-0.0891 Y-0.7944 Z0.2758
N14005 X-0.0938 Y-0.7917 Z0.2773
N14010 X-0.0983 Y-0.7891 Z0.2795
N14015 X-0.1025 Y-0.7866 Z0.2822
N14020 X-0.1065 Y-0.7844 Z0.2854
N14025 X-0.1101 Y-0.7823 Z0.2891
N14030 X-0.1134 Y-0.7804 Z0.2933
N14035 X-0.1162 Y-0.7788 Z0.2979
N14040 X-0.1185 Y-0.7774 Z0.3028
N14045 X-0.1204 Y-0.7763 Z0.308
N14050 X-0.1217 Y-0.7756 Z0.3134
N14055 X-0.1225 Y-0.7751 Z0.3189
N14060 X-0.1228 Y-0.7749 Z0.3245
N14065 Z1.72 F500.
N14070 X5.7961 Y-2.0837
N14075 Z0.3745
N14080 Z0.3245 F120.
N14085 X5.7959 Y-2.0835 Z0.3189
N14090 X5.7951 Y-2.0829 Z0.3134
N14095 X5.7939 Y-2.0819 Z0.308
N14100 X5.7923 Y-2.0805 Z0.3028
N14105 X5.7902 Y-2.0788 Z0.2979
N14110 X5.7876 Y-2.0768 Z0.2933
N14115 X5.7847 Y-2.0744 Z0.2891
N14120 X5.7815 Y-2.0718 Z0.2854
N14125 X5.778 Y-2.0689 Z0.2822
N14130 X5.7742 Y-2.0658 Z0.2795
N14135 X5.7701 Y-2.0625 Z0.2773
N14140 X5.766 Y-2.0591 Z0.2758
N14145 X5.7617 Y-2.0556 Z0.2748
N14150 X5.7574 Y-2.0521 Z0.2745
N14155 G3 X5.7293 Y-2.0391 I-0.0394 J-0.0483
N14160 G1 X5.3847 Y-1.9877
N14165 X5.3331 Y-1.9827
N14170 X5.3073 Y-1.9803
N14175 X5.2557 Y-1.9763
N14180 X5.204 Y-1.9739
N14185 G3 X4.9969 Y-1.9701 I-0.2271 J-6.8739
N14190 G1 X4.9451 Y-1.9698
N14195 X4.8933 Y-1.9696
N14200 X4.8415 Y-1.9695
N14205 X4.738 Y-1.9693
N14210 X4.5308
N14215 X3.3916 Y-1.9692
N14220 X1.372
N14225 X0.6988
N14230 X0.647 Y-1.969
N14235 X0.5952 Y-1.9681
N14240 X0.5436 Y-1.9648
N14245 X0.4923 Y-1.9575
N14250 X0.4421 Y-1.9449
N14255 X0.3935 Y-1.9268
N14260 X0.3475 Y-1.9031
N14265 X0.3046 Y-1.8741
N14270 X0.2653 Y-1.8404
N14275 X0.2298 Y-1.8027
N14280 X0.1984 Y-1.7615
N14285 X0.1711 Y-1.7175
N14290 X0.1477 Y-1.6713
N14295 X0.1279 Y-1.6234
N14300 X0.1115 Y-1.5743
N14305 X0.0982 Y-1.5243
N14310 X0.0874 Y-1.4737
N14315 X0.0788 Y-1.4226
N14320 X0.072 Y-1.3712
N14325 X0.0668 Y-1.3197
N14330 X0.0627 Y-1.2681
N14335 X0.0596 Y-1.2164
N14340 X0.0573 Y-1.1647
N14345 X0.0555 Y-1.1129
N14350 X0.0542 Y-1.069
N14355 X0.0528 Y-1.0457
N14360 X0.0512 Y-1.0299
N14365 X0.0485 Y-1.0174
N14370 X0.0435 Y-1.0056
N14375 X0.0365 Y-0.9949
N14380 X0.0165 Y-0.965
N14385 X-0.0096 Y-0.9253
N14390 X-0.0161 Y-0.9142
N14395 G3 X-0.0395 Y-0.8947 I-0.0422 J-0.0268
N14400 G1 X-0.0447 Y-0.8926 Z0.2748
N14405 X-0.0498 Y-0.8905 Z0.2758
N14410 X-0.0548 Y-0.8885 Z0.2773
N14415 X-0.0596 Y-0.8865 Z0.2795
N14420 X-0.0641 Y-0.8847 Z0.2822
N14425 X-0.0684 Y-0.8829 Z0.2854
N14430 X-0.0722 Y-0.8814 Z0.2891
N14435 X-0.0757 Y-0.88 Z0.2933
N14440 X-0.0787 Y-0.8787 Z0.2979
N14445 X-0.0812 Y-0.8777 Z0.3028
N14450 X-0.0832 Y-0.8769 Z0.308
N14455 X-0.0846 Y-0.8763 Z0.3134
N14460 X-0.0855 Y-0.876 Z0.3189
N14465 X-0.0858 Y-0.8758 Z0.3245
N14470 Z1.72 F500.
N14475 X5.4515 Y-2.0323
N14480 Z0.3745
N14485 Z0.3245 F120.
N14490 X5.4512 Y-2.0321 Z0.3189
N14495 X5.4505 Y-2.0315 Z0.3134
N14500 X5.4493 Y-2.0306 Z0.308
N14505 X5.4476 Y-2.0292 Z0.3028
N14510 X5.4455 Y-2.0275 Z0.2979
N14515 X5.443 Y-2.0254 Z0.2933
N14520 X5.4401 Y-2.0231 Z0.2891
N14525 X5.4369 Y-2.0204 Z0.2854
N14530 X5.4333 Y-2.0175 Z0.2822
N14535 X5.4295 Y-2.0144 Z0.2795
N14540 X5.4255 Y-2.0112 Z0.2773
N14545 X5.4213 Y-2.0078 Z0.2758
N14550 X5.4171 Y-2.0043 Z0.2748
N14555 X5.4127 Y-2.0007 Z0.2745
N14560 G3 X5.3847 Y-1.9877 I-0.0394 J-0.0483
N14565 G1 X5.055 Y-1.9386
N14570 X5.0035 Y-1.9336
N14575 X4.9777 Y-1.931
N14580 X4.9261 Y-1.9268
N14585 X4.8744 Y-1.9241
N14590 G3 X4.6673 Y-1.9202 I-0.2268 J-6.4568
N14595 G1 X4.6155 Y-1.9198
N14600 X4.5637 Y-1.9196
N14605 X4.5119 Y-1.9195
N14610 X4.4084 Y-1.9194
N14615 X4.2012 Y-1.9193
N14620 X3.062 Y-1.9192
N14625 X1.0424
N14630 X0.7835
N14635 X0.7317 Y-1.919
N14640 X0.6799 Y-1.9183
N14645 X0.6282 Y-1.9159
N14650 X0.5767 Y-1.9101
N14655 X0.526 Y-1.8997
N14660 X0.4766 Y-1.8841
N14665 X0.4293 Y-1.8631
N14670 X0.3847 Y-1.8368
N14675 X0.3433 Y-1.8057
N14680 X0.3056 Y-1.7702
N14685 X0.2717 Y-1.731
N14690 X0.2419 Y-1.6887
N14695 X0.2159 Y-1.6439
N14700 X0.1937 Y-1.5971
N14705 X0.175 Y-1.5488
N14710 X0.1595 Y-1.4994
N14715 X0.1468 Y-1.4492
N14720 X0.1365 Y-1.3984
N14725 X0.1283 Y-1.3473
N14730 X0.1218 Y-1.2959
N14735 X0.1167 Y-1.2444
N14740 X0.1128 Y-1.1928
N14745 X0.1093 Y-1.1411
N14750 X0.107 Y-1.1161
N14755 X0.106 Y-1.1083
N14760 X0.1029 Y-1.0919
N14765 X0.0978 Y-1.0761
N14770 X0.0906 Y-1.0611
N14775 X0.0816 Y-1.0471
N14780 X0.0709 Y-1.0344
N14785 X0.0619 Y-1.0249
N14790 X0.0503 Y-1.0123
N14795 X0.0484 Y-1.0099
N14800 X0.0365 Y-0.9949
N14805 G3 X0.0105 Y-0.979 I-0.038 J-0.0326
N14810 G1 X0.0051 Y-0.9776 Z0.2748
N14815 X-0.0002 Y-0.9763 Z0.2758
N14820 X-0.0055 Y-0.975 Z0.2773
N14825 X-0.0105 Y-0.9737 Z0.2795
N14830 X-0.0153 Y-0.9726 Z0.2822
N14835 X-0.0197 Y-0.9715 Z0.2854
N14840 X-0.0238 Y-0.9705 Z0.2891
N14845 X-0.0274 Y-0.9696 Z0.2933
N14850 X-0.0305 Y-0.9688 Z0.2979
N14855 X-0.0332 Y-0.9681 Z0.3028
N14860 X-0.0353 Y-0.9676 Z0.308
N14865 X-0.0368 Y-0.9672 Z0.3134
N14870 X-0.0377 Y-0.967 Z0.3189
N14875 X-0.038 Y-0.9669 Z0.3245
N14880 Z1.72 F500.
N14885 X5.1218 Y-1.9832
N14890 Z0.3745
N14895 Z0.3245 F120.
N14900 X5.1216 Y-1.983 Z0.3189
N14905 X5.1208 Y-1.9824 Z0.3134
N14910 X5.1196 Y-1.9814 Z0.308
N14915 X5.118 Y-1.9801 Z0.3028
N14920 X5.1159 Y-1.9784 Z0.2979
N14925 X5.1134 Y-1.9763 Z0.2933
N14930 X5.1105 Y-1.974 Z0.2891
N14935 X5.1072 Y-1.9713 Z0.2854
N14940 X5.1037 Y-1.9684 Z0.2822
N14945 X5.0999 Y-1.9653 Z0.2795
N14950 X5.0959 Y-1.9621 Z0.2773
N14955 X5.0917 Y-1.9586 Z0.2758
N14960 X5.0874 Y-1.9551 Z0.2748
N14965 X5.0831 Y-1.9516 Z0.2745
N14970 G3 X5.055 Y-1.9386 I-0.0394 J-0.0483
N14975 G1 X4.7254 Y-1.8895
N14980 X4.6738 Y-1.8844
N14985 X4.6332 Y-1.8801
N14990 X4.5816 Y-1.8762
N14995 X4.5298 Y-1.8738
N15000 G3 X4.3227 Y-1.8701 I-0.2272 J-6.9739
N15005 G1 X4.2709 Y-1.8698
N15010 X4.2192 Y-1.8696
N15015 X4.1674 Y-1.8695
N15020 X4.0638 Y-1.8693
N15025 X3.8567 Y-1.8692
N15030 X2.7174
N15035 X0.905
N15040 X0.8532 Y-1.8691
N15045 X0.8014 Y-1.869
N15050 X0.7496 Y-1.8682
N15055 X0.6979 Y-1.8658
N15060 X0.6464 Y-1.8604
N15065 X0.5955 Y-1.8508
N15070 X0.5458 Y-1.8362
N15075 X0.498 Y-1.8164
N15080 X0.4526 Y-1.7914
N15085 X0.4103 Y-1.7615
N15090 X0.3715 Y-1.7272
N15095 X0.3364 Y-1.6891
N15100 X0.3052 Y-1.6478
N15105 X0.2779 Y-1.6038
N15110 X0.2543 Y-1.5577
N15115 X0.2343 Y-1.51
N15120 X0.2175 Y-1.461
N15125 X0.2035 Y-1.4111
N15130 X0.1922 Y-1.3606
N15135 X0.183 Y-1.3096
N15140 X0.1755 Y-1.2584
N15145 X0.169 Y-1.207
N15150 X0.1653 Y-1.1818
N15155 X0.1618 Y-1.1626
N15160 X0.16 Y-1.1544
N15165 X0.1548 Y-1.1364
N15170 X0.1471 Y-1.1193
N15175 X0.1369 Y-1.1036
N15180 X0.1246 Y-1.0894
N15185 X0.1103 Y-1.0751
N15190 X0.0733 Y-1.0368
N15195 X0.0709 Y-1.0344
N15200 G3 X0.0437 Y-1.0208 I-0.0349 J-0.0358
N15205 G1 X0.0382 Y-1.0199 Z0.2748
N15210 X0.0327 Y-1.0191 Z0.2758
N15215 X0.0274 Y-1.0183 Z0.2773
N15220 X0.0222 Y-1.0175 Z0.2795
N15225 X0.0174 Y-1.0167 Z0.2822
N15230 X0.0129 Y-1.016 Z0.2854
N15235 X0.0087 Y-1.0154 Z0.2891
N15240 X0.0051 Y-1.0148 Z0.2933
N15245 X0.0018 Y-1.0143 Z0.2979
N15250 X-0.0008 Y-1.0139 Z0.3028
N15255 X-0.003 Y-1.0136 Z0.308
N15260 X-0.0045 Y-1.0133 Z0.3134
N15265 X-0.0054 Y-1.0132 Z0.3189
N15270 X-0.0057 Y-1.0131 Z0.3245
N15275 Z1.72 F500.
N15280 X4.7922 Y-1.9341
N15285 Z0.3745
N15290 Z0.3245 F120.
N15295 X4.7919 Y-1.9339 Z0.3189
N15300 X4.7912 Y-1.9333 Z0.3134
N15305 X4.79 Y-1.9323 Z0.308
N15310 X4.7883 Y-1.931 Z0.3028
N15315 X4.7862 Y-1.9293 Z0.2979
N15320 X4.7837 Y-1.9272 Z0.2933
N15325 X4.7808 Y-1.9248 Z0.2891
N15330 X4.7776 Y-1.9222 Z0.2854
N15335 X4.774 Y-1.9193 Z0.2822
N15340 X4.7702 Y-1.9162 Z0.2795
N15345 X4.7662 Y-1.9129 Z0.2773
N15350 X4.762 Y-1.9095 Z0.2758
N15355 X4.7578 Y-1.906 Z0.2748
N15360 X4.7534 Y-1.9025 Z0.2745
N15365 G3 X4.7254 Y-1.8895 I-0.0394 J-0.0483
N15370 G1 X4.3807 Y-1.8382
N15375 X4.3292 Y-1.8331
N15380 X4.2835 Y-1.8287
N15385 X4.2319 Y-1.8253
N15390 X4.1801 Y-1.8232
N15395 G3 X3.973 Y-1.82 I-0.2278 J-8.003
N15400 G1 X3.9212 Y-1.8197
N15405 X3.8695 Y-1.8196
N15410 X3.7659 Y-1.8194
N15415 X3.6105 Y-1.8193
N15420 X2.9891 Y-1.8192
N15425 X2.3677
N15430 X0.9695
N15435 X0.9178 Y-1.8191
N15440 X0.866 Y-1.8189
N15445 X0.8142 Y-1.8181
N15450 X0.7625 Y-1.8156
N15455 X0.711 Y-1.8104
N15460 X0.66 Y-1.8011
N15465 X0.6102 Y-1.7871
N15470 X0.562 Y-1.768
N15475 X0.5162 Y-1.7438
N15480 X0.4733 Y-1.7148
N15485 X0.4338 Y-1.6814
N15490 X0.3979 Y-1.6441
N15495 X0.3657 Y-1.6035
N15500 X0.3374 Y-1.5601
N15505 X0.3128 Y-1.5145
N15510 X0.2918 Y-1.4672
N15515 X0.274 Y-1.4186
N15520 X0.2591 Y-1.369
N15525 X0.2466 Y-1.3187
N15530 X0.2355 Y-1.2682
N15535 X0.2273 Y-1.2312
N15540 X0.2221 Y-1.2107
N15545 X0.2175 Y-1.1948
N15550 X0.2154 Y-1.1884
N15555 X0.2093 Y-1.1731
N15560 X0.2013 Y-1.1587
N15565 X0.1915 Y-1.1454
N15570 X0.1802 Y-1.1334
N15575 X0.1674 Y-1.123
N15580 X0.1559 Y-1.1148
N15585 G3 X0.1267 Y-1.1065 I-0.0276 J-0.0417
N15590 G1 X0.1211 Y-1.1066 Z0.2748
N15595 X0.1155 Y-1.1068 Z0.2758
N15600 X0.1102 Y-1.107 Z0.2773
N15605 X0.105 Y-1.1072 Z0.2795
N15610 X0.1001 Y-1.1073 Z0.2822
N15615 X0.0955 Y-1.1075 Z0.2854
N15620 X0.0913 Y-1.1076 Z0.2891
N15625 X0.0876 Y-1.1077 Z0.2933
N15630 X0.0844 Y-1.1078 Z0.2979
N15635 X0.0816 Y-1.1079 Z0.3028
N15640 X0.0795 Y-1.108 Z0.308
N15645 X0.0779 Y-1.1081 Z0.3134
N15650 X0.077 Z0.3189
N15655 X0.0767 Z0.3245
N15660 Z1.72 F500.
N15665 X4.4475 Y-1.8828
N15670 Z0.3745
N15675 Z0.3245 F120.
N15680 X4.4473 Y-1.8826 Z0.3189
N15685 X4.4466 Y-1.882 Z0.3134
N15690 X4.4454 Y-1.881 Z0.308
N15695 X4.4437 Y-1.8796 Z0.3028
N15700 X4.4416 Y-1.8779 Z0.2979
N15705 X4.4391 Y-1.8759 Z0.2933
N15710 X4.4362 Y-1.8735 Z0.2891
N15715 X4.4329 Y-1.8709 Z0.2854
N15720 X4.4294 Y-1.868 Z0.2822
N15725 X4.4256 Y-1.8649 Z0.2795
N15730 X4.4216 Y-1.8616 Z0.2773
N15735 X4.4174 Y-1.8582 Z0.2758
N15740 X4.4131 Y-1.8547 Z0.2748
N15745 X4.4088 Y-1.8512 Z0.2745
N15750 G3 X4.3807 Y-1.8382 I-0.0394 J-0.0483
N15755 G1 X4.0511 Y-1.7891
N15760 X3.9995 Y-1.784
N15765 X3.9574 Y-1.7796
N15770 X3.9058 Y-1.7759
N15775 X3.854 Y-1.7736
N15780 G3 X3.6469 Y-1.7701 I-0.2273 J-7.2817
N15785 G1 X3.5952 Y-1.7698
N15790 X3.5434 Y-1.7696
N15795 X3.4916 Y-1.7695
N15800 X3.388 Y-1.7693
N15805 X3.1809 Y-1.7692
N15810 X2.0416
N15815 X1.0577
N15820 X1.0059 Y-1.7691
N15825 X0.9542 Y-1.769
N15830 X0.9024 Y-1.7684
N15835 X0.8506 Y-1.7669
N15840 X0.799 Y-1.7632
N15845 X0.7477 Y-1.7562
N15850 X0.6971 Y-1.7451
N15855 X0.6479 Y-1.729
N15860 X0.6005 Y-1.708
N15865 X0.5557 Y-1.6821
N15870 X0.5139 Y-1.6515
N15875 X0.4755 Y-1.6168
N15880 X0.4407 Y-1.5785
N15885 X0.4097 Y-1.537
N15890 X0.3824 Y-1.493
N15895 X0.3587 Y-1.4469
N15900 X0.3382 Y-1.3994
N15905 X0.3203 Y-1.3508
N15910 X0.3042 Y-1.3016
N15915 X0.2914 Y-1.2621
N15920 X0.2837 Y-1.2408
N15925 X0.2778 Y-1.226
N15930 X0.276 Y-1.2219
N15935 X0.2687 Y-1.2076
N15940 X0.2596 Y-1.1942
N15945 X0.2489 Y-1.1821
N15950 X0.2369 Y-1.1714
N15955 X0.2235 Y-1.1623
N15960 X0.2192 Y-1.1597
N15965 X0.2152 Y-1.1569
N15970 X0.1852 Y-1.1357
N15975 X0.1674 Y-1.123
N15980 G3 X0.1381 Y-1.1147 I-0.0276 J-0.0417
N15985 G1 X0.1325 Y-1.1148 Z0.2748
N15990 X0.127 Y-1.115 Z0.2758
N15995 X0.1216 Y-1.1152 Z0.2773
N16000 X0.1164 Y-1.1154 Z0.2795
N16005 X0.1115 Y-1.1155 Z0.2822
N16010 X0.107 Y-1.1157 Z0.2854
N16015 X0.1028 Y-1.1158 Z0.2891
N16020 X0.0991 Y-1.1159 Z0.2933
N16025 X0.0958 Y-1.116 Z0.2979
N16030 X0.0931 Y-1.1161 Z0.3028
N16035 X0.091 Y-1.1162 Z0.308
N16040 X0.0894 Z0.3134
N16045 X0.0885 Y-1.1163 Z0.3189
N16050 X0.0882 Z0.3245
N16055 Z1.72 F500.
N16060 X4.1179 Y-1.8336
N16065 Z0.3745
N16070 Z0.3245 F120.
N16075 X4.1176 Y-1.8334 Z0.3189
N16080 X4.1169 Y-1.8329 Z0.3134
N16085 X4.1157 Y-1.8319 Z0.308
N16090 X4.114 Y-1.8305 Z0.3028
N16095 X4.1119 Y-1.8288 Z0.2979
N16100 X4.1094 Y-1.8268 Z0.2933
N16105 X4.1065 Y-1.8244 Z0.2891
N16110 X4.1033 Y-1.8217 Z0.2854
N16115 X4.0997 Y-1.8189 Z0.2822
N16120 X4.0959 Y-1.8158 Z0.2795
N16125 X4.0919 Y-1.8125 Z0.2773
N16130 X4.0878 Y-1.8091 Z0.2758
N16135 X4.0835 Y-1.8056 Z0.2748
N16140 X4.0791 Y-1.802 Z0.2745
N16145 G3 X4.0511 Y-1.7891 I-0.0394 J-0.0483
N16150 G1 X3.7064 Y-1.7377
N16155 X3.6549 Y-1.7326
N16160 X3.6074 Y-1.7282
N16165 X3.5557 Y-1.725
N16170 X3.504 Y-1.723
N16175 G3 X3.2968 Y-1.72 I-0.2279 J-8.4185
N16180 G1 X3.2451 Y-1.7197
N16185 X3.1933 Y-1.7195
N16190 X3.0897 Y-1.7194
N16195 X2.9344 Y-1.7193
N16200 X2.2612 Y-1.7192
N16205 X1.6915
N16210 X1.1219
N16215 X1.0701 Y-1.7191
N16220 X1.0183 Y-1.719
N16225 X0.9666 Y-1.7184
N16230 X0.9148 Y-1.7169
N16235 X0.8631 Y-1.7133
N16240 X0.8118 Y-1.7068
N16245 X0.7611 Y-1.6962
N16250 X0.7116 Y-1.6809
N16255 X0.6639 Y-1.6608
N16260 X0.6186 Y-1.6357
N16265 X0.5761 Y-1.6061
N16270 X0.5369 Y-1.5722
N16275 X0.5013 Y-1.5347
N16280 X0.4692 Y-1.494
N16285 X0.4406 Y-1.4508
N16290 X0.4152 Y-1.4057
N16295 X0.3923 Y-1.3593
N16300 X0.371 Y-1.3121
N16305 X0.3572 Y-1.2819
N16310 X0.3474 Y-1.2622
N16315 X0.3401 Y-1.2485
N16320 X0.3383 Y-1.2454
N16325 X0.3295 Y-1.2321
N16330 X0.3191 Y-1.22
N16335 X0.3073 Y-1.2093
N16340 X0.2943 Y-1.2001
N16345 X0.2803 Y-1.1925
N16350 X0.2601 Y-1.1832
N16355 X0.2451 Y-1.1752
N16360 X0.2235 Y-1.1623
N16365 G3 X0.1937 Y-1.1564 I-0.0241 J-0.0438
N16370 G1 X0.1881 Y-1.157 Z0.2748
N16375 X0.1826 Y-1.1577 Z0.2758
N16380 X0.1773 Y-1.1583 Z0.2773
N16385 X0.1721 Y-1.1589 Z0.2795
N16390 X0.1673 Y-1.1594 Z0.2822
N16395 X0.1627 Y-1.16 Z0.2854
N16400 X0.1586 Y-1.1604 Z0.2891
N16405 X0.1548 Y-1.1609 Z0.2933
N16410 X0.1516 Y-1.1612 Z0.2979
N16415 X0.1489 Y-1.1616 Z0.3028
N16420 X0.1468 Y-1.1618 Z0.308
N16425 X0.1453 Y-1.162 Z0.3134
N16430 X0.1443 Y-1.1621 Z0.3189
N16435 X0.144 Z0.3245
N16440 Z1.72 F500.
N16445 X3.7732 Y-1.7823
N16450 Z0.3745
N16455 Z0.3245 F120.
N16460 X3.773 Y-1.7821 Z0.3189
N16465 X3.7723 Y-1.7815 Z0.3134
N16470 X3.7711 Y-1.7805 Z0.308
N16475 X3.7694 Y-1.7792 Z0.3028
N16480 X3.7673 Y-1.7775 Z0.2979
N16485 X3.7648 Y-1.7754 Z0.2933
N16490 X3.7619 Y-1.773 Z0.2891
N16495 X3.7587 Y-1.7704 Z0.2854
N16500 X3.7551 Y-1.7675 Z0.2822
N16505 X3.7513 Y-1.7644 Z0.2795
N16510 X3.7473 Y-1.7611 Z0.2773
N16515 X3.7431 Y-1.7577 Z0.2758
N16520 X3.7388 Y-1.7542 Z0.2748
N16525 X3.7345 Y-1.7507 Z0.2745
N16530 G3 X3.7064 Y-1.7377 I-0.0394 J-0.0483
N16535 G1 X3.3768 Y-1.6886
N16540 X3.3253 Y-1.6835
N16545 X3.2815 Y-1.6791
N16550 X3.2298 Y-1.6756
N16555 X3.1781 Y-1.6734
N16560 G3 X2.971 Y-1.67 I-0.2275 J-7.6233
N16565 G1 X2.9192 Y-1.6697
N16570 X2.8674 Y-1.6696
N16575 X2.7638 Y-1.6694
N16580 X2.6085 Y-1.6693
N16585 X2.0389 Y-1.6692
N16590 X1.3657
N16595 X1.1585
N16600 X1.1067 Y-1.669
N16605 X1.055 Y-1.6687
N16610 X1.0032 Y-1.6677
N16615 X0.9515 Y-1.6654
N16620 X0.8999 Y-1.6607
N16625 X0.8487 Y-1.6526
N16630 X0.7984 Y-1.6404
N16635 X0.7495 Y-1.6234
N16640 X0.7026 Y-1.6015
N16645 X0.6581 Y-1.575
N16650 X0.6166 Y-1.5441
N16655 X0.5782 Y-1.5093
N16660 X0.5431 Y-1.4712
N16665 X0.5112 Y-1.4304
N16670 X0.482 Y-1.3876
N16675 X0.4548 Y-1.3436
N16680 X0.4295 Y-1.3011
N16685 X0.4165 Y-1.2808
N16690 X0.4073 Y-1.2673
N16695 X0.3953 Y-1.2533
N16700 X0.3815 Y-1.241
N16705 X0.3661 Y-1.2309
N16710 X0.3494 Y-1.223
N16715 X0.335 Y-1.2175
N16720 X0.32 Y-1.2107
N16725 X0.2847 Y-1.1946
N16730 X0.2803 Y-1.1925
N16735 G3 X0.25 Y-1.1899 I-0.0194 J-0.0461
N16740 G1 X0.2445 Y-1.1911 Z0.2748
N16745 X0.2391 Y-1.1923 Z0.2758
N16750 X0.2339 Y-1.1935 Z0.2773
N16755 X0.2288 Y-1.1946 Z0.2795
N16760 X0.224 Y-1.1957 Z0.2822
N16765 X0.2196 Y-1.1967 Z0.2854
N16770 X0.2155 Y-1.1976 Z0.2891
N16775 X0.2119 Y-1.1984 Z0.2933
N16780 X0.2087 Y-1.1991 Z0.2979
N16785 X0.206 Y-1.1997 Z0.3028
N16790 X0.204 Y-1.2002 Z0.308
N16795 X0.2024 Y-1.2005 Z0.3134
N16800 X0.2015 Y-1.2007 Z0.3189
N16805 X0.2012 Y-1.2008 Z0.3245
N16810 Z1.72 F500.
N16815 X3.4436 Y-1.7332
N16820 Z0.3745
N16825 Z0.3245 F120.
N16830 X3.4434 Y-1.733 Z0.3189
N16835 X3.4426 Y-1.7324 Z0.3134
N16840 X3.4414 Y-1.7314 Z0.308
N16845 X3.4398 Y-1.7301 Z0.3028
N16850 X3.4377 Y-1.7283 Z0.2979
N16855 X3.4351 Y-1.7263 Z0.2933
N16860 X3.4322 Y-1.7239 Z0.2891
N16865 X3.429 Y-1.7213 Z0.2854
N16870 X3.4255 Y-1.7184 Z0.2822
N16875 X3.4217 Y-1.7153 Z0.2795
N16880 X3.4176 Y-1.712 Z0.2773
N16885 X3.4135 Y-1.7086 Z0.2758
N16890 X3.4092 Y-1.7051 Z0.2748
N16895 X3.4049 Y-1.7016 Z0.2745
N16900 G3 X3.3768 Y-1.6886 I-0.0394 J-0.0483
N16905 G1 X3.0471 Y-1.6395
N16910 X2.9956 Y-1.6344
N16915 X2.9699 Y-1.6317
N16920 X2.9183 Y-1.6272
N16925 X2.8666 Y-1.6244
N16930 X2.8148 Y-1.6226
N16935 G3 X2.5559 Y-1.6197 I-0.2545 J-11.0779
N16940 G1 X2.5041 Y-1.6195
N16945 X2.4006 Y-1.6193
N16950 X2.1934 Y-1.6192
N16955 X1.2613
N16960 X1.2095 Y-1.6191
N16965 X1.1577 Y-1.619
N16970 X1.106 Y-1.6186
N16975 X1.0542 Y-1.6174
N16980 X1.0025 Y-1.6147
N16985 X0.9509 Y-1.6097
N16990 X0.8998 Y-1.6012
N16995 X0.8496 Y-1.5885
N17000 X0.8008 Y-1.5713
N17005 X0.7539 Y-1.5493
N17010 X0.7094 Y-1.5228
N17015 X0.6676 Y-1.4923
N17020 X0.6286 Y-1.4582
N17025 X0.5925 Y-1.4211
N17030 X0.5587 Y-1.3818
N17035 X0.5267 Y-1.3411
N17040 X0.5013 Y-1.3081
N17045 X0.4866 Y-1.2904
N17050 X0.476 Y-1.2784
N17055 X0.4623 Y-1.2657
N17060 X0.4469 Y-1.2552
N17065 X0.4302 Y-1.247
N17070 X0.4124 Y-1.2413
N17075 X0.395 Y-1.2369
N17080 X0.365 Y-1.2289
N17085 X0.3494 Y-1.223
N17090 G3 X0.3189 Y-1.2223 I-0.0164 J-0.0472
N17095 G1 X0.3136 Y-1.2239 Z0.2748
N17100 X0.3083 Y-1.2254 Z0.2758
N17105 X0.3031 Y-1.227 Z0.2773
N17110 X0.2981 Y-1.2284 Z0.2795
N17115 X0.2934 Y-1.2298 Z0.2822
N17120 X0.289 Y-1.2311 Z0.2854
N17125 X0.285 Y-1.2323 Z0.2891
N17130 X0.2814 Y-1.2333 Z0.2933
N17135 X0.2783 Y-1.2342 Z0.2979
N17140 X0.2757 Y-1.235 Z0.3028
N17145 X0.2736 Y-1.2356 Z0.308
N17150 X0.2722 Y-1.236 Z0.3134
N17155 X0.2713 Y-1.2363 Z0.3189
N17160 X0.2709 Y-1.2364 Z0.3245
N17165 Z1.72 F500.
N17170 X3.1139 Y-1.6841
N17175 Z0.3745
N17180 Z0.3245 F120.
N17185 X3.1137 Y-1.6839 Z0.3189
N17190 X3.113 Y-1.6833 Z0.3134
N17195 X3.1118 Y-1.6823 Z0.308
N17200 X3.1101 Y-1.6809 Z0.3028
N17205 X3.108 Y-1.6792 Z0.2979
N17210 X3.1055 Y-1.6772 Z0.2933
N17215 X3.1026 Y-1.6748 Z0.2891
N17220 X3.0994 Y-1.6722 Z0.2854
N17225 X3.0958 Y-1.6693 Z0.2822
N17230 X3.092 Y-1.6662 Z0.2795
N17235 X3.088 Y-1.6629 Z0.2773
N17240 X3.0838 Y-1.6595 Z0.2758
N17245 X3.0795 Y-1.656 Z0.2748
N17250 X3.0752 Y-1.6525 Z0.2745
N17255 G3 X3.0471 Y-1.6395 I-0.0394 J-0.0483
N17260 G1 X2.7025 Y-1.5881
N17265 X2.651 Y-1.5831
N17270 X2.6252 Y-1.5806
N17275 X2.5736 Y-1.5765
N17280 X2.5219 Y-1.574
N17285 G3 X2.3148 Y-1.5701 I-0.2271 J-6.6625
N17290 G1 X2.263 Y-1.5698
N17295 X2.2112 Y-1.5696
N17300 X2.1594 Y-1.5695
N17305 X2.0558 Y-1.5693
N17310 X1.8487 Y-1.5692
N17315 X1.3309
N17320 X1.2791 Y-1.5691
N17325 X1.2273 Y-1.569
N17330 X1.1755 Y-1.5686
N17335 X1.1237 Y-1.5676
N17340 X1.072 Y-1.5654
N17345 X1.0204 Y-1.561
N17350 X0.9692 Y-1.5536
N17355 X0.9186 Y-1.5422
N17360 X0.8693 Y-1.5265
N17365 X0.8216 Y-1.5063
N17370 X0.776 Y-1.4819
N17375 X0.7326 Y-1.4535
N17380 X0.6917 Y-1.4218
N17385 X0.653 Y-1.3874
N17390 X0.6161 Y-1.351
N17395 X0.58 Y-1.3139
N17400 X0.5634 Y-1.2976
N17405 X0.5559 Y-1.2907
N17410 X0.5409 Y-1.2789
N17415 X0.5243 Y-1.2693
N17420 X0.5064 Y-1.2624
N17425 X0.4878 Y-1.2581
N17430 X0.4849 Y-1.2576
N17435 X0.4699 Y-1.2551
N17440 X0.4549 Y-1.2517
N17445 X0.4124 Y-1.2413
N17450 G3 X0.3822 Y-1.2444 I-0.0103 J-0.0489
N17455 G1 X0.377 Y-1.2466 Z0.2748
N17460 X0.372 Y-1.2488 Z0.2758
N17465 X0.367 Y-1.251 Z0.2773
N17470 X0.3623 Y-1.2531 Z0.2795
N17475 X0.3578 Y-1.255 Z0.2822
N17480 X0.3536 Y-1.2569 Z0.2854
N17485 X0.3498 Y-1.2585 Z0.2891
N17490 X0.3464 Y-1.26 Z0.2933
N17495 X0.3434 Y-1.2613 Z0.2979
N17500 X0.3409 Y-1.2624 Z0.3028
N17505 X0.3389 Y-1.2633 Z0.308
N17510 X0.3375 Y-1.2639 Z0.3134
N17515 X0.3366 Y-1.2643 Z0.3189
N17520 X0.3364 Y-1.2644 Z0.3245
N17525 Z1.72 F500.
N17530 X2.7693 Y-1.6327
N17535 Z0.3745
N17540 Z0.3245 F120.
N17545 X2.7691 Y-1.6325 Z0.3189
N17550 X2.7683 Y-1.6319 Z0.3134
N17555 X2.7671 Y-1.631 Z0.308
N17560 X2.7655 Y-1.6296 Z0.3028
N17565 X2.7634 Y-1.6279 Z0.2979
N17570 X2.7609 Y-1.6258 Z0.2933
N17575 X2.758 Y-1.6235 Z0.2891
N17580 X2.7547 Y-1.6208 Z0.2854
N17585 X2.7512 Y-1.6179 Z0.2822
N17590 X2.7474 Y-1.6148 Z0.2795
N17595 X2.7434 Y-1.6116 Z0.2773
N17600 X2.7392 Y-1.6082 Z0.2758
N17605 X2.7349 Y-1.6047 Z0.2748
N17610 X2.7306 Y-1.6011 Z0.2745
N17615 G3 X2.7025 Y-1.5881 I-0.0394 J-0.0483
N17620 G1 X2.3729 Y-1.539
N17625 X2.3213 Y-1.534
N17630 X2.2791 Y-1.5296
N17635 X2.2275 Y-1.5259
N17640 X2.1757 Y-1.5236
N17645 G3 X1.9686 Y-1.5201 I-0.2274 J-7.2901
N17650 G1 X1.9168 Y-1.5197
N17655 X1.8651 Y-1.5196
N17660 X1.8133 Y-1.5194
N17665 X1.7097 Y-1.5193
N17670 X1.5026 Y-1.5192
N17675 X1.399
N17680 G2 X1.1919 Y-1.5179 I-0.0345 J10.9422
N17685 G1 X1.1401 Y-1.516
N17690 X1.0885 Y-1.5121
N17695 X1.0371 Y-1.5055
N17700 X0.9863 Y-1.4955
N17705 X0.9365 Y-1.4813
N17710 X0.8881 Y-1.463
N17715 X0.8413 Y-1.4407
N17720 X0.7965 Y-1.4148
N17725 X0.7536 Y-1.3859
N17730 X0.7124 Y-1.3545
N17735 X0.6723 Y-1.3217
N17740 X0.6496 Y-1.3034
N17745 X0.6411 Y-1.297
N17750 X0.6276 Y-1.2881
N17755 X0.6131 Y-1.2809
N17760 X0.5979 Y-1.2756
N17765 X0.582 Y-1.2722
N17770 X0.5148 Y-1.2622
N17775 X0.4878 Y-1.2581
N17780 G3 X0.4579 Y-1.2639 I-0.0058 J-0.0497
N17785 G1 X0.453 Y-1.2666 Z0.2748
N17790 X0.4481 Y-1.2692 Z0.2758
N17795 X0.4434 Y-1.2718 Z0.2773
N17800 X0.4389 Y-1.2743 Z0.2795
N17805 X0.4346 Y-1.2767 Z0.2822
N17810 X0.4306 Y-1.2789 Z0.2854
N17815 X0.4269 Y-1.2809 Z0.2891
N17820 X0.4236 Y-1.2827 Z0.2933
N17825 X0.4208 Y-1.2842 Z0.2979
N17830 X0.4184 Y-1.2855 Z0.3028
N17835 X0.4165 Y-1.2866 Z0.308
N17840 X0.4152 Y-1.2873 Z0.3134
N17845 X0.4143 Y-1.2878 Z0.3189
N17850 X0.4141 Y-1.2879 Z0.3245
N17855 Z1.72 F500.
N17860 X2.4397 Y-1.5836
N17865 Z0.3745
N17870 Z0.3245 F120.
N17875 X2.4394 Y-1.5834 Z0.3189
N17880 X2.4387 Y-1.5828 Z0.3134
N17885 X2.4375 Y-1.5818 Z0.308
N17890 X2.4358 Y-1.5805 Z0.3028
N17895 X2.4337 Y-1.5788 Z0.2979
N17900 X2.4312 Y-1.5767 Z0.2933
N17905 X2.4283 Y-1.5744 Z0.2891
N17910 X2.4251 Y-1.5717 Z0.2854
N17915 X2.4215 Y-1.5688 Z0.2822
N17920 X2.4177 Y-1.5657 Z0.2795
N17925 X2.4137 Y-1.5625 Z0.2773
N17930 X2.4095 Y-1.559 Z0.2758
N17935 X2.4053 Y-1.5556 Z0.2748
N17940 X2.4009 Y-1.552 Z0.2745
N17945 G3 X2.3729 Y-1.539 I-0.0394 J-0.0483
N17950 G1 X2.0387 Y-1.4892
N17955 X1.9871 Y-1.4842
N17960 X1.9457 Y-1.4798
N17965 X1.894 Y-1.476
N17970 X1.8423 Y-1.4737
N17975 G3 X1.6352 Y-1.4701 I-0.2273 J-7.1369
N17980 G1 X1.5834 Y-1.4697
N17985 X1.5317 Y-1.4696
N17990 X1.3763 Y-1.4692
N17995 X1.3245 Y-1.4689
N18000 X1.2727 Y-1.4683
N18005 X1.221 Y-1.4669
N18010 X1.1693 Y-1.4642
N18015 X1.1177 Y-1.4592
N18020 X1.0666 Y-1.4511
N18025 X1.0161 Y-1.4396
N18030 X0.9666 Y-1.4243
N18035 X0.9184 Y-1.4053
N18040 X0.8717 Y-1.3829
N18045 X0.8266 Y-1.3575
N18050 X0.7828 Y-1.33
N18055 X0.7516 Y-1.3096
N18060 X0.7353 Y-1.3005
N18065 X0.7178 Y-1.2938
N18070 X0.6995 Y-1.2897
N18075 X0.582 Y-1.2722
N18080 G3 X0.5522 Y-1.2782 I-0.0056 J-0.0497
N18085 G1 X0.5473 Y-1.2809 Z0.2748
N18090 X0.5425 Y-1.2835 Z0.2758
N18095 X0.5377 Y-1.2861 Z0.2773
N18100 X0.5332 Y-1.2887 Z0.2795
N18105 X0.5289 Y-1.291 Z0.2822
N18110 X0.5249 Y-1.2932 Z0.2854
N18115 X0.5213 Y-1.2953 Z0.2891
N18120 X0.518 Y-1.2971 Z0.2933
N18125 X0.5151 Y-1.2986 Z0.2979
N18130 X0.5128 Y-1.3 Z0.3028
N18135 X0.5109 Y-1.301 Z0.308
N18140 X0.5095 Y-1.3018 Z0.3134
N18145 X0.5087 Y-1.3022 Z0.3189
N18150 X0.5084 Y-1.3024 Z0.3245
N18155 Z1.72 F500.
N18160 X2.1055 Y-1.5338
N18165 Z0.3745
N18170 Z0.3245 F120.
N18175 X2.1052 Y-1.5336 Z0.3189
N18180 X2.1045 Y-1.533 Z0.3134
N18185 X2.1033 Y-1.5321 Z0.308
N18190 X2.1016 Y-1.5307 Z0.3028
N18195 X2.0995 Y-1.529 Z0.2979
N18200 X2.097 Y-1.5269 Z0.2933
N18205 X2.0941 Y-1.5246 Z0.2891
N18210 X2.0909 Y-1.5219 Z0.2854
N18215 X2.0873 Y-1.519 Z0.2822
N18220 X2.0835 Y-1.5159 Z0.2795
N18225 X2.0795 Y-1.5127 Z0.2773
N18230 X2.0753 Y-1.5093 Z0.2758
N18235 X2.0711 Y-1.5058 Z0.2748
N18240 X2.0667 Y-1.5022 Z0.2745
N18245 G3 X2.0387 Y-1.4892 I-0.0394 J-0.0483
N18250 G1 X1.6986 Y-1.4386
N18255 X1.647 Y-1.4335
N18260 X1.603 Y-1.4291
N18265 X1.5514 Y-1.4256
N18270 X1.4996 Y-1.4233
N18275 X1.4479 Y-1.4218
N18280 X1.3961 Y-1.4207
N18285 X1.3443 Y-1.4196
N18290 X1.2926 Y-1.4181
N18295 X1.2408 Y-1.4157
N18300 X1.1892 Y-1.4115
N18305 X1.1379 Y-1.4047
N18310 X1.087 Y-1.3949
N18315 X1.0369 Y-1.3818
N18320 X0.9878 Y-1.3654
N18325 X0.9399 Y-1.3459
N18330 X0.894 Y-1.3243
N18335 X0.8823 Y-1.3194
N18340 X0.8702 Y-1.3158
N18345 X0.8577 Y-1.3133
N18350 X0.6995 Y-1.2897
N18355 G3 X0.6697 Y-1.2957 I-0.0056 J-0.0497
N18360 G1 X0.6648 Y-1.2984 Z0.2748
N18365 X0.66 Y-1.301 Z0.2758
N18370 X0.6552 Y-1.3037 Z0.2773
N18375 X0.6507 Y-1.3062 Z0.2795
N18380 X0.6464 Y-1.3085 Z0.2822
N18385 X0.6424 Y-1.3108 Z0.2854
N18390 X0.6388 Y-1.3128 Z0.2891
N18395 X0.6355 Y-1.3146 Z0.2933
N18400 X0.6326 Y-1.3162 Z0.2979
N18405 X0.6303 Y-1.3175 Z0.3028
N18410 X0.6284 Y-1.3185 Z0.308
N18415 X0.627 Y-1.3193 Z0.3134
N18420 X0.6262 Y-1.3197 Z0.3189
N18425 X0.6259 Y-1.3199 Z0.3245
N18430 Z1.72 F500.
N18435 X1.7654 Y-1.4832
N18440 Z0.3745
N18445 Z0.3245 F120.
N18450 X1.7651 Y-1.483 Z0.3189
N18455 X1.7644 Y-1.4824 Z0.3134
N18460 X1.7632 Y-1.4814 Z0.308
N18465 X1.7615 Y-1.48 Z0.3028
N18470 X1.7594 Y-1.4783 Z0.2979
N18475 X1.7569 Y-1.4763 Z0.2933
N18480 X1.754 Y-1.4739 Z0.2891
N18485 X1.7508 Y-1.4713 Z0.2854
N18490 X1.7472 Y-1.4684 Z0.2822
N18495 X1.7434 Y-1.4653 Z0.2795
N18500 X1.7394 Y-1.462 Z0.2773
N18505 X1.7353 Y-1.4586 Z0.2758
N18510 X1.731 Y-1.4551 Z0.2748
N18515 X1.7266 Y-1.4516 Z0.2745
N18520 G3 X1.6986 Y-1.4386 I-0.0394 J-0.0483
N18525 G1 X0.8577 Y-1.3133
N18530 G3 X0.8279 Y-1.3192 I-0.0056 J-0.0497
N18535 G1 X0.823 Y-1.3219 Z0.2748
N18540 X0.8181 Y-1.3246 Z0.2758
N18545 X0.8134 Y-1.3272 Z0.2773
N18550 X0.8089 Y-1.3297 Z0.2795
N18555 X0.8046 Y-1.3321 Z0.2822
N18560 X0.8006 Y-1.3343 Z0.2854
N18565 X0.7969 Y-1.3363 Z0.2891
N18570 X0.7937 Y-1.3382 Z0.2933
N18575 X0.7908 Y-1.3397 Z0.2979
N18580 X0.7885 Y-1.341 Z0.3028
N18585 X0.7866 Y-1.3421 Z0.308
N18590 X0.7852 Y-1.3428 Z0.3134
N18595 X0.7844 Y-1.3433 Z0.3189
N18600 X0.7841 Y-1.3434 Z0.3245
N18605 Z1.72 F500.
N18610 X9.1501 Y-0.3301
N18615 Z0.3745
N18620 Z0.3245 F120.
N18625 X9.1499 Y-0.3304 Z0.3189
N18630 X9.1493 Y-0.3311 Z0.3134
N18635 X9.1483 Y-0.3323 Z0.308
N18640 X9.147 Y-0.334 Z0.3028
N18645 X9.1453 Y-0.3361 Z0.2979
N18650 X9.1433 Y-0.3386 Z0.2933
N18655 X9.1409 Y-0.3415 Z0.2891
N18660 X9.1383 Y-0.3448 Z0.2854
N18665 X9.1354 Y-0.3484 Z0.2822
N18670 X9.1323 Y-0.3522 Z0.2795
N18675 X9.1291 Y-0.3562 Z0.2773
N18680 X9.1257 Y-0.3604 Z0.2758
N18685 X9.1222 Y-0.3647 Z0.2748
N18690 X9.1187 Y-0.3691 Z0.2745
N18695 G3 X9.1059 Y-0.3972 I0.0485 J-0.0391
N18700 G1 X9.1039 Y-0.4108
N18705 X9.1007 Y-0.4286
N18710 X9.0974 Y-0.4408
N18715 X9.0926 Y-0.4557
N18720 X9.0871 Y-0.4707
N18725 X9.085 Y-0.4763
N18730 X9.082 Y-0.4862
N18735 X9.0787 Y-0.4982
N18740 X9.0753 Y-0.5129
N18745 X9.0716 Y-0.5311
N18750 X9.0677 Y-0.5541
N18755 X9.0636 Y-0.5842
N18760 X9.0594 Y-0.6258
N18765 X9.0557 Y-0.6774
N18770 X9.0535 Y-0.7291
N18775 G3 X9.0502 Y-0.9362 I7.4585 J-0.2208
N18780 G1 X9.0499 Y-0.988
N18785 X9.0498 Y-1.0398
N18790 X9.0496 Y-1.1434
N18795 X9.0495 Y-1.3505
N18800 X9.0494 Y-1.5059
N18805 X9.0493 Y-1.5577
N18810 X9.0474 Y-1.6094
N18815 X9.041 Y-1.6608
N18820 X9.0286 Y-1.7111
N18825 X9.0098 Y-1.7593
N18830 X8.9849 Y-1.8047
N18835 X8.9544 Y-1.8466
N18840 X8.9191 Y-1.8845
N18845 X8.8796 Y-1.918
N18850 X8.8368 Y-1.9471
N18855 X8.7914 Y-1.972
N18860 X8.744 Y-1.9928
N18865 X8.6951 Y-2.01
N18870 X8.6452 Y-2.0238
N18875 X8.5946 Y-2.0348
N18880 X8.5436 Y-2.0434
N18885 X8.4922 Y-2.0501
N18890 X8.4407 Y-2.0551
N18895 X8.389 Y-2.0589
N18900 X8.3373 Y-2.0617
N18905 G2 X8.1303 Y-2.0672 I-0.2681 J6.1804
N18910 X7.8713 Y-2.0689 I-0.2862 J24.0251
N18915 G1 X7.7678 Y-2.0691
N18920 X7.6124 Y-2.0692
N18925 X7.1982 Y-2.0693
N18930 X6.9025
N18935 X6.8893 Y-2.0699
N18940 X6.8762 Y-2.072
N18945 X6.8634 Y-2.0753
N18950 X6.8081 Y-2.0927
N18955 X6.7932 Y-2.0974
N18960 X6.7632 Y-2.1064
N18965 X6.7482 Y-2.1099
N18970 X6.7332 Y-2.1127
N18975 X6.6849 Y-2.1213
N18980 G3 X6.6585 Y-2.1364 I0.0105 J-0.0489
N18985 G1 X6.6547 Y-2.1405 Z0.2748
N18990 X6.651 Y-2.1446 Z0.2758
N18995 X6.6473 Y-2.1486 Z0.2773
N19000 X6.6438 Y-2.1524 Z0.2795
N19005 X6.6405 Y-2.156 Z0.2822
N19010 X6.6374 Y-2.1594 Z0.2854
N19015 X6.6346 Y-2.1625 Z0.2891
N19020 X6.6321 Y-2.1652 Z0.2933
N19025 X6.6299 Y-2.1676 Z0.2979
N19030 X6.6281 Y-2.1696 Z0.3028
N19035 X6.6266 Y-2.1712 Z0.308
N19040 X6.6256 Y-2.1724 Z0.3134
N19045 X6.6249 Y-2.1731 Z0.3189
N19050 X6.6247 Y-2.1733 Z0.3245
N19055 Z1.72 F500.
N19060 X9.1485 Y-0.4189
N19065 Z0.3745
N19070 Z0.3245 F120.
N19075 X9.1482 Y-0.4191 Z0.3189
N19080 X9.1475 Y-0.4197 Z0.3134
N19085 X9.1462 Y-0.4205 Z0.308
N19090 X9.1444 Y-0.4218 Z0.3028
N19095 X9.1422 Y-0.4233 Z0.2979
N19100 X9.1395 Y-0.4251 Z0.2933
N19105 X9.1364 Y-0.4273 Z0.2891
N19110 X9.133 Y-0.4296 Z0.2854
N19115 X9.1292 Y-0.4322 Z0.2822
N19120 X9.1252 Y-0.435 Z0.2795
N19125 X9.1209 Y-0.438 Z0.2773
N19130 X9.1165 Y-0.441 Z0.2758
N19135 X9.112 Y-0.4442 Z0.2748
N19140 X9.1073 Y-0.4474 Z0.2745
N19145 G3 X9.0871 Y-0.4707 I0.0354 J-0.0513
N19150 G1 X9.0802 Y-0.4857
N19155 X9.0719 Y-0.5007
N19160 X9.0692 Y-0.5045
N19165 G3 X9.0488 Y-0.5457 I0.1864 J-0.1182
N19170 X9.0327 Y-0.5981 I0.3898 J-0.1485
N19175 G1 X9.0282 Y-0.618
N19180 X9.0237 Y-0.6413
N19185 X9.019 Y-0.6709
N19190 X9.0141 Y-0.7092
N19195 X9.0093 Y-0.7608
N19200 X9.0061 Y-0.8124
N19205 X9.004 Y-0.8642
N19210 G3 X9.0005 Y-1.0713 I7.9638 J-0.2386
N19215 G1 X9.0001 Y-1.1231
N19220 X8.9999 Y-1.1749
N19225 X8.9998 Y-1.2266
N19230 X8.9996 Y-1.3302
N19235 X8.9995 Y-1.4338
N19240 X8.999 Y-1.4856
N19245 X8.9966 Y-1.5373
N19250 X8.9899 Y-1.5886
N19255 X8.9779 Y-1.639
N19260 X8.9599 Y-1.6876
N19265 X8.9361 Y-1.7335
N19270 X8.9068 Y-1.7763
N19275 X8.8728 Y-1.8153
N19280 X8.8346 Y-1.8502
N19285 X8.7929 Y-1.881
N19290 X8.7484 Y-1.9075
N19295 X8.7018 Y-1.9301
N19300 X8.6536 Y-1.9489
N19305 X8.6042 Y-1.9644
N19310 X8.5539 Y-1.9769
N19315 X8.5031 Y-1.9869
N19320 X8.4519 Y-1.9948
N19325 X8.4005 Y-2.0009
N19330 X8.3489 Y-2.0056
N19335 X8.2973 Y-2.0091
N19340 X8.2455 Y-2.0118
N19345 G2 X8.0385 Y-2.0171 I-0.2751 J6.6383
N19350 X7.7796 Y-2.0189 I-0.293 J24.4061
N19355 G1 X7.676 Y-2.0191
N19360 X7.5206 Y-2.0192
N19365 X7.1582 Y-2.0193
N19370 X7.0243
N19375 X7.0055 Y-2.0206
N19380 X6.9871 Y-2.0247
N19385 X6.9695 Y-2.0314
N19390 X6.928 Y-2.0506
N19395 X6.9112 Y-2.0584
N19400 G2 X6.8634 Y-2.0753 I-0.405 J1.0677
N19405 G3 X6.8392 Y-2.0937 I0.0167 J-0.0471
N19410 G1 X6.836 Y-2.0983 Z0.2748
N19415 X6.8328 Y-2.1028 Z0.2758
N19420 X6.8297 Y-2.1072 Z0.2773
N19425 X6.8267 Y-2.1115 Z0.2795
N19430 X6.8239 Y-2.1155 Z0.2822
N19435 X6.8213 Y-2.1192 Z0.2854
N19440 X6.8189 Y-2.1227 Z0.2891
N19445 X6.8167 Y-2.1257 Z0.2933
N19450 X6.8149 Y-2.1284 Z0.2979
N19455 X6.8133 Y-2.1306 Z0.3028
N19460 X6.8121 Y-2.1323 Z0.308
N19465 X6.8112 Y-2.1336 Z0.3134
N19470 X6.8106 Y-2.1344 Z0.3189
N19475 X6.8105 Y-2.1346 Z0.3245
N19480 Z1.72 F500.
N19485 X9.1384 Y-0.4637
N19490 Z0.3745
N19495 Z0.3245 F120.
N19500 X9.1381 Y-0.4639 Z0.3189
N19505 X9.1373 Y-0.4643 Z0.3134
N19510 X9.1359 Y-0.4649 Z0.308
N19515 X9.1339 Y-0.4658 Z0.3028
N19520 X9.1315 Y-0.467 Z0.2979
N19525 X9.1285 Y-0.4684 Z0.2933
N19530 X9.1252 Y-0.4699 Z0.2891
N19535 X9.1214 Y-0.4717 Z0.2854
N19540 X9.1172 Y-0.4736 Z0.2822
N19545 X9.1128 Y-0.4757 Z0.2795
N19550 X9.1081 Y-0.4779 Z0.2773
N19555 X9.1032 Y-0.4802 Z0.2758
N19560 X9.0982 Y-0.4825 Z0.2748
N19565 X9.0931 Y-0.4849 Z0.2745
N19570 G3 X9.0692 Y-0.5045 I0.0264 J-0.0565
N19575 G1 X9.0515 Y-0.5306
N19580 X9.0492 Y-0.5336
N19585 X9.0467 Y-0.5366
N19590 X9.0457 Y-0.5376
N19595 G3 X9.0205 Y-0.5743 I0.1175 J-0.1077
N19600 X8.9991 Y-0.6253 I0.2905 J-0.1517
N19605 G1 X8.9941 Y-0.6411
N19610 X8.9892 Y-0.6585
N19615 X8.9842 Y-0.6788
N19620 X8.979 Y-0.703
N19625 X8.9738 Y-0.7325
N19630 X8.9685 Y-0.7684
N19635 X8.9632 Y-0.8162
N19640 X8.959 Y-0.8678
N19645 X8.9562 Y-0.9195
N19650 G3 X8.9511 Y-1.1266 I6.0209 J-0.2507
N19655 X8.9496 Y-1.3855 I38.6176 J-0.3607
N19660 G1 X8.9481 Y-1.4372
N19665 X8.9439 Y-1.4888
N19670 X8.9353 Y-1.5399
N19675 X8.9214 Y-1.5898
N19680 X8.9018 Y-1.6377
N19685 X8.8768 Y-1.6831
N19690 X8.8467 Y-1.7252
N19695 X8.8119 Y-1.7636
N19700 X8.7733 Y-1.7981
N19705 X8.7313 Y-1.8284
N19710 X8.6868 Y-1.8548
N19715 X8.6401 Y-1.8773
N19720 X8.5919 Y-1.8961
N19725 X8.5425 Y-1.9117
N19730 X8.4923 Y-1.9244
N19735 X8.4415 Y-1.9346
N19740 X8.3904 Y-1.9427
N19745 X8.339 Y-1.9491
N19750 X8.2874 Y-1.9541
N19755 X8.2358 Y-1.9579
N19760 X8.1841 Y-1.9608
N19765 X8.1324 Y-1.9629
