%
O01002
(Using high feed G1 F500. instead of G0.)
(T1 D=0.5 CR=0. - ZMIN=1. - flat end mill)
N10 G90 G17
N15 G20
N20 G53 G0 Z0.

(Adaptive4)
N25 T1 M6
N30 S10000 M3
N35 G54
N40 G17 G90
N45 M8
N50 G1 X-0.1987 Y-2.4599 F500.
N55 G0 G43 Z1.882 H1
N60 G0 Z1.105
N65 G1 Z1.055 F120.
N70 Y-2.4596 Z1.0494
N75 X-0.1984 Y-2.4587 Z1.0439
N80 X-0.198 Y-2.4572 Z1.0385
N85 X-0.1975 Y-2.4551 Z1.0333
N90 X-0.1968 Y-2.4525 Z1.0284
N95 X-0.196 Y-2.4493 Z1.0238
N100 X-0.1951 Y-2.4457 Z1.0196
N105 X-0.1941 Y-2.4417 Z1.0159
N110 X-0.1929 Y-2.4372 Z1.0127
N115 X-0.1917 Y-2.4325 Z1.01
N120 X-0.1904 Y-2.4275 Z1.0078
N125 X-0.1891 Y-2.4222 Z1.0063
N130 X-0.1877 Y-2.4169 Z1.0053
N135 X-0.1863 Y-2.4115 Z1.005
N140 G3 X-0.1472 Y-2.1393 I-1.2366 J0.3167
N145 G1 Y-2.1329
N150 X-0.1882 Y-2.1021
N155 X-0.2236 Y-2.065
N160 X-0.2533 Y-2.0232
N165 X-0.2774 Y-1.9779
N170 X-0.2963 Y-1.9303
N175 X-0.3109 Y-1.8811
N180 X-0.3217 Y-1.831
N185 X-0.3296 Y-1.7804
N190 X-0.3352 Y-1.7294
N195 X-0.3391 Y-1.6783
N200 X-0.3417 Y-1.6271
N205 G2 X-0.346 Y-1.422 I6.098 J0.2296
N210 G1 X-0.3464 Y-1.3708
N215 X-0.3466 Y-1.3195
N220 X-0.3467 Y-1.2682
N225 X-0.3469 Y-1.1657
N230 Y-1.0119
N235 X-0.3468 Y-0.2941
N240 Y-0.1915
N245 X-0.3467 Y0.0136
N250 X-0.3396 Y0.0644
N255 X-0.3215 Y0.1123
N260 X-0.2945 Y0.1559
N265 X-0.2603 Y0.1941
N270 X-0.2206 Y0.2266
N275 X-0.1769 Y0.2533
N280 X-0.1303 Y0.2748
N285 X-0.0818 Y0.2914
N290 X-0.0321 Y0.304
N295 X0.0184 Y0.3132
N300 X0.0692 Y0.3199
N305 X0.1203 Y0.3245
N310 X0.1714 Y0.3277
N315 X0.2227 Y0.3299
N320 G2 X0.4277 Y0.3334 I0.2304 J-7.4503
N325 G1 X0.479 Y0.3337
N330 X0.5302 Y0.3339
N335 X0.5815 Y0.3341
N340 X0.6841 Y0.3342
N345 X0.8892 Y0.3343
N350 X1.2993
N355 X3.2989
N360 X5.2985
N365 X7.2982
N370 X8.7338
N375 X8.7845 Y0.3266
N380 X8.8322 Y0.308
N385 X8.8756 Y0.2806
N390 X8.9135 Y0.2461
N395 X8.9456 Y0.2061
N400 X8.9721 Y0.1622
N405 X8.9933 Y0.1155
N410 X9.0097 Y0.067
N415 X9.0221 Y0.0172
N420 X9.0312 Y-0.0333
N425 X9.0377 Y-0.0841
N430 X9.0423 Y-0.1352
N435 X9.0454 Y-0.1864
N440 X9.0476 Y-0.2376
N445 G2 X9.051 Y-0.4426 I-7.5995 J-0.2303
N450 G1 X9.0513 Y-0.4939
N455 X9.0515 Y-0.5452
N460 X9.0516 Y-0.5964
N465 X9.0518 Y-0.699
N470 X9.0519 Y-0.9041
N475 Y-1.7757
N480 X9.042 Y-1.826
N485 X9.0216 Y-1.8731
N490 X8.9928 Y-1.9154
N495 X8.9571 Y-1.9523
N500 X8.9164 Y-1.9834
N505 X8.8719 Y-2.0089
N510 X8.8247 Y-2.0291
N515 X8.7759 Y-2.0447
N520 X8.726 Y-2.0564
N525 X8.6754 Y-2.065
N530 X8.6245 Y-2.0711
N535 X8.5734 Y-2.0754
N540 X8.5223 Y-2.0783
N545 X8.471 Y-2.0803
N550 G2 X8.266 Y-2.0835 I-0.2298 J8.178
N555 G1 X8.2147 Y-2.0838
N560 X8.1634 Y-2.0839
N565 X8.0609 Y-2.0841
N570 X7.9071 Y-2.0842
N575 X7.2918
N580 X6.8816
N585 X4.882
N590 X2.8824 Y-2.0841
N595 X0.8828 Y-2.084
N600 X0.0624
N605 X0.0118 Y-2.0759
N610 X-0.0365 Y-2.0589
N615 X-0.0813 Y-2.0339
N620 X-0.1217 Y-2.0023
N625 X-0.1571 Y-1.9652
N630 X-0.1873 Y-1.9238
N635 X-0.2126 Y-1.8792
N640 X-0.2331 Y-1.8322
N645 X-0.2495 Y-1.7836
N650 X-0.2622 Y-1.7339
N655 X-0.2719 Y-1.6836
N660 X-0.2791 Y-1.6328
N665 X-0.2844 Y-1.5818
N670 X-0.2882 Y-1.5307
N675 X-0.2909 Y-1.4795
N680 G2 X-0.2956 Y-1.2745 I6.0772 J0.243
N685 X-0.2967 Y-1.0694 I23.5183 J0.2238
N690 G1 X-0.2968 Y-0.9668
N695 X-0.2969 Y-0.813
N700 X-0.2968 Y-0.1978
N705 X-0.2967 Y-0.1465
N710 X-0.2964 Y-0.0952
N715 X-0.2885 Y-0.0446
N720 X-0.2725 Y0.0042
N725 X-0.2491 Y0.0498
N730 X-0.2191 Y0.0914
N735 X-0.1836 Y0.1283
N740 X-0.1436 Y0.1604
N745 X-0.1001 Y0.1876
N750 X-0.0541 Y0.2101
N755 X-0.0061 Y0.2283
N760 X0.0431 Y0.2427
N765 X0.0931 Y0.2538
N770 X0.1437 Y0.2623
N775 X0.1946 Y0.2686
N780 X0.2457 Y0.2732
N785 X0.2968 Y0.2765
N790 X0.348 Y0.2788
N795 G2 X0.5531 Y0.283 I0.2458 J-7.0069
N800 G1 X0.6043 Y0.2835
N805 X0.6556 Y0.2837
N810 X0.7069 Y0.2839
N815 X0.8094 Y0.2841
N820 X0.9632 Y0.2842
N825 X1.3734 Y0.2843
N830 X2.5527
N835 X4.5523
N840 X6.5519
N845 X8.5515
N850 X8.6028
N855 X8.6538 Y0.2795
N860 X8.7035 Y0.2666
N865 X8.7504 Y0.2461
N870 X8.7937 Y0.2185
N875 X8.8325 Y0.185
N880 X8.8664 Y0.1466
N885 X8.8955 Y0.1043
N890 X8.9197 Y0.0592
N895 X8.9395 Y0.0119
N900 X8.9553 Y-0.0369
N905 X8.9676 Y-0.0867
N910 X8.977 Y-0.1371
N915 X8.984 Y-0.1879
N920 X8.9892 Y-0.2389
N925 X8.9929 Y-0.29
N930 X8.9956 Y-0.3412
N935 G2 X9.0004 Y-0.5463 I-6.1449 J-0.2465
N940 X9.0016 Y-0.7513 I-24.0367 J-0.2363
N945 G1 X9.0017 Y-0.8539
N950 X9.0018 Y-1.0077
N955 X9.0019 Y-1.4691
N960 Y-1.623
N965 X8.999 Y-1.6742
N970 X8.9881 Y-1.7243
N975 X8.9693 Y-1.7719
N980 X8.9433 Y-1.8161
N985 X8.9111 Y-1.856
N990 X8.8738 Y-1.8912
N995 X8.8324 Y-1.9214
N1000 X8.7878 Y-1.9468
N1005 X8.7409 Y-1.9676
N1010 X8.6924 Y-1.9843
N1015 X8.6429 Y-1.9973
N1020 X8.5926 Y-2.0074
N1025 X8.5419 Y-2.0149
N1030 X8.4909 Y-2.0205
N1035 X8.4398 Y-2.0246
N1040 X8.3886 Y-2.0275
N1045 G2 X8.1836 Y-2.0327 I-0.247 J5.6883
N1050 X7.9785 Y-2.0339 I-0.2361 J22.0746
N1055 G1 X7.876 Y-2.0341
N1060 X7.7222 Y-2.0342
N1065 X7.3633
N1070 X5.3636
N1075 X3.364 Y-2.0341
N1080 X1.3644
N1085 X0.1852 Y-2.034
N1090 X0.1341 Y-2.0296
N1095 X0.0841 Y-2.0181
N1100 X0.0364 Y-1.9995
N1105 X-0.0083 Y-1.9742
N1110 X-0.049 Y-1.943
N1115 X-0.0853 Y-1.9068
N1120 X-0.117 Y-1.8665
N1125 X-0.1441 Y-1.823
N1130 X-0.1668 Y-1.777
N1135 X-0.1854 Y-1.7292
N1140 X-0.2003 Y-1.6802
N1145 X-0.2121 Y-1.6303
N1150 X-0.2212 Y-1.5798
N1155 X-0.2281 Y-1.529
N1160 X-0.2333 Y-1.478
N1165 X-0.2372 Y-1.4269
N1170 X-0.24 Y-1.3757
N1175 G2 X-0.2452 Y-1.1707 I5.9481 J0.2545
N1180 X-0.2465 Y-0.9656 I21.3622 J0.2397
N1185 G1 X-0.2467 Y-0.8631
N1190 X-0.2468 Y-0.7092
N1195 Y-0.3503
N1200 Y-0.2478
N1205 X-0.2458 Y-0.1965
N1210 X-0.2395 Y-0.1456
N1215 X-0.2265 Y-0.0961
N1220 X-0.2068 Y-0.0487
N1225 X-0.1807 Y-0.0046
N1230 X-0.149 Y0.0357
N1235 X-0.1124 Y0.0717
N1240 X-0.0719 Y0.1031
N1245 X-0.0283 Y0.13
N1250 X0.0177 Y0.1526
N1255 X0.0655 Y0.1713
N1260 X0.1145 Y0.1863
N1265 X0.1644 Y0.1982
N1270 X0.2148 Y0.2075
N1275 X0.2656 Y0.2145
N1280 X0.3166 Y0.2199
N1285 X0.3677 Y0.2239
N1290 X0.4189 Y0.2268
N1295 G2 X0.6239 Y0.2324 I0.2589 J-5.7619
N1300 X0.8803 Y0.234 I0.2775 J-23.7549
N1305 G1 X0.9828 Y0.2341
N1310 X1.1366 Y0.2342
N1315 X1.6493 Y0.2343
N1320 X2.3159
N1325 X4.3155
N1330 X6.3151
N1335 X8.3147
N1340 X8.4685
N1345 X8.5198 Y0.2333
N1350 X8.5707 Y0.2272
N1355 X8.6203 Y0.2143
N1360 X8.6677 Y0.1948
N1365 X8.7119 Y0.1688
N1370 X8.7523 Y0.1372
N1375 X8.7884 Y0.1008
N1380 X8.82 Y0.0604
N1385 X8.847 Y0.0169
N1390 X8.8697 Y-0.0291
N1395 X8.8884 Y-0.0768
N1400 X8.9035 Y-0.1258
N1405 X8.9155 Y-0.1757
N1410 X8.9248 Y-0.2261
N1415 X8.932 Y-0.2769
N1420 X8.9374 Y-0.3279
N1425 X8.9414 Y-0.379
N1430 X8.9444 Y-0.4302
N1435 G2 X8.9499 Y-0.6352 I-5.7213 J-0.2587
N1440 X8.9516 Y-0.8915 I-23.6275 J-0.2775
N1445 G1 X8.9517 Y-0.9941
N1450 X8.9518 Y-1.1479
N1455 X8.9519 Y-1.353
N1460 Y-1.5068
N1465 X8.9505 Y-1.558
N1470 X8.9436 Y-1.6089
N1475 X8.93 Y-1.6583
N1480 X8.9097 Y-1.7053
N1485 X8.883 Y-1.7492
N1490 X8.8508 Y-1.7891
N1495 X8.8139 Y-1.8246
N1500 X8.7731 Y-1.8557
N1505 X8.7292 Y-1.8822
N1510 X8.6831 Y-1.9045
N1515 X8.6352 Y-1.9228
N1520 X8.5861 Y-1.9375
N1525 X8.5361 Y-1.9491
N1530 X8.4856 Y-1.9582
N1535 X8.4348 Y-1.9651
N1540 X8.3838 Y-1.9703
N1545 X8.3327 Y-1.9742
N1550 X8.2815 Y-1.977
N1555 G2 X8.0765 Y-1.9824 I-0.2581 J5.916
N1560 X7.8202 Y-1.984 I-0.2763 J24.5289
N1565 G1 X7.7176 Y-1.9841
N1570 X7.5125 Y-1.9842
N1575 X7.3587
N1580 X5.3591
N1585 X3.3595 Y-1.9841
N1590 X1.3599
N1595 X0.3344 Y-1.984
N1600 X0.2832 Y-1.9837
N1605 X0.232 Y-1.9803
N1610 X0.1815 Y-1.9713
N1615 X0.1326 Y-1.956
N1620 X0.0861 Y-1.9344
N1625 X0.0428 Y-1.9069
N1630 X0.0033 Y-1.8742
N1635 X-0.032 Y-1.837
N1640 X-0.0629 Y-1.7961
N1645 X-0.0896 Y-1.7523
N1650 X-0.1121 Y-1.7063
N1655 X-0.1307 Y-1.6585
N1660 X-0.146 Y-1.6096
N1665 X-0.1581 Y-1.5597
N1670 X-0.1677 Y-1.5094
N1675 X-0.1751 Y-1.4586
N1680 X-0.1808 Y-1.4077
N1685 X-0.1851 Y-1.3566
N1690 X-0.1883 Y-1.3054
N1695 G2 X-0.1946 Y-1.1004 I5.3167 J0.2656
N1700 X-0.1965 Y-0.8441 I20.4126 J0.2793
N1705 G1 X-0.1967 Y-0.7415
N1710 X-0.1968 Y-0.5877
N1715 Y-0.3826
N1720 X-0.1967 Y-0.3314
N1725 X-0.1951 Y-0.2801
N1730 X-0.1891 Y-0.2292
N1735 X-0.1773 Y-0.1793
N1740 X-0.1593 Y-0.1313
N1745 X-0.1353 Y-0.086
N1750 X-0.1058 Y-0.044
N1755 X-0.0715 Y-0.006
N1760 X-0.033 Y0.0279
N1765 X0.0089 Y0.0574
N1770 X0.0535 Y0.0827
N1775 X0.1002 Y0.104
N1780 X0.1483 Y0.1217
N1785 X0.1975 Y0.136
N1790 X0.2475 Y0.1475
N1795 X0.298 Y0.1565
N1800 X0.3488 Y0.1635
N1805 X0.3998 Y0.1689
N1810 X0.4509 Y0.1729
N1815 X0.502 Y0.176
N1820 X0.5533 Y0.1782
N1825 G2 X0.8096 Y0.1831 I0.29 J-8.5673
N1830 G1 X0.8608 Y0.1835
N1835 X0.9121 Y0.1837
N1840 X0.9634 Y0.1839
N1845 X1.0659 Y0.1841
N1850 X1.2197 Y0.1842
N1855 X1.5787 Y0.1843
N1860 X2.5528
N1865 X4.5524
N1870 X6.552
N1875 X8.3466
N1880 X8.3978 Y0.1841
N1885 X8.449 Y0.1817
N1890 X8.4998 Y0.1745
N1895 X8.5493 Y0.1613
N1900 X8.5968 Y0.1419
N1905 X8.6415 Y0.1167
N1910 X8.6825 Y0.086
N1915 X8.7197 Y0.0507
N1920 X8.7526 Y0.0113
N1925 X8.7811 Y-0.0312
N1930 X8.8055 Y-0.0763
N1935 X8.826 Y-0.1234
N1940 X8.8428 Y-0.1718
N1945 X8.8564 Y-0.2212
N1950 X8.8673 Y-0.2713
N1955 X8.8758 Y-0.3219
N1960 X8.8824 Y-0.3727
N1965 X8.8875 Y-0.4237
N1970 X8.8913 Y-0.4749
N1975 X8.8942 Y-0.5261
N1980 G2 X8.8998 Y-0.7311 I-6.038 J-0.2673
N1985 X8.9015 Y-0.9874 I-23.135 J-0.2857
N1990 G1 X8.9017 Y-1.09
N1995 X8.9018 Y-1.2438
N2000 X8.9019 Y-1.3976
N2005 X8.9012 Y-1.4489
N2010 X8.8973 Y-1.5
N2015 X8.8879 Y-1.5504
N2020 X8.8725 Y-1.5993
N2025 X8.851 Y-1.6458
N2030 X8.8236 Y-1.6892
N2035 X8.7911 Y-1.7289
N2040 X8.7542 Y-1.7645
N2045 X8.7136 Y-1.7958
N2050 X8.6701 Y-1.8228
N2055 X8.6243 Y-1.8458
N2060 X8.5767 Y-1.8649
N2065 X8.5278 Y-1.8805
N2070 X8.4781 Y-1.8931
N2075 X8.4278 Y-1.9031
N2080 X8.3772 Y-1.9108
N2085 X8.3262 Y-1.9168
N2090 X8.2752 Y-1.9214
N2095 X8.224 Y-1.9248
N2100 X8.1728 Y-1.9274
N2105 G2 X7.9678 Y-1.9324 I-0.2661 J6.7024
N2110 X7.7114 Y-1.9339 I-0.2839 J25.901
N2115 G1 X7.6089 Y-1.9341
N2120 X7.4551 Y-1.9342
N2125 X6.9936
N2130 X6.8911
N2135 X4.8915
N2140 X2.8919 Y-1.9341
N2145 X0.8923 Y-1.934
N2150 X0.4308
N2155 X0.3795 Y-1.9337
N2160 X0.3283 Y-1.9314
N2165 X0.2775 Y-1.9248
N2170 X0.2276 Y-1.9127
N2175 X0.1796 Y-1.8947
N2180 X0.1342 Y-1.871
N2185 X0.092 Y-1.8418
N2190 X0.0536 Y-1.8079
N2195 X0.0192 Y-1.7699
N2200 X-0.0111 Y-1.7285
N2205 X-0.0372 Y-1.6844
N2210 X-0.0594 Y-1.6381
N2215 X-0.078 Y-1.5903
N2220 X-0.0932 Y-1.5414
N2225 X-0.1055 Y-1.4916
N2230 X-0.1152 Y-1.4413
N2235 X-0.1229 Y-1.3906
N2240 X-0.1289 Y-1.3397
N2245 X-0.1335 Y-1.2886
N2250 X-0.137 Y-1.2374
N2255 X-0.1396 Y-1.1862
N2260 G2 X-0.1448 Y-0.9812 I6.6018 J0.2711
N2265 X-0.1465 Y-0.7249 I23.3611 J0.2772
N2270 G1 X-0.1467 Y-0.6223
N2275 Y-0.5198
N2280 Y-0.4685
N2285 X-0.1465 Y-0.4172
N2290 X-0.1451 Y-0.366
N2295 X-0.1402 Y-0.3149
N2300 X-0.1302 Y-0.2647
N2305 X-0.1145 Y-0.2158
N2310 X-0.0931 Y-0.1693
N2315 X-0.0662 Y-0.1256
N2320 X-0.0343 Y-0.0855
N2325 X0.002 Y-0.0492
N2330 X0.0419 Y-0.017
N2335 X0.0848 Y0.011
N2340 X0.1301 Y0.0351
N2345 X0.1771 Y0.0554
N2350 X0.2256 Y0.0723
N2355 X0.2749 Y0.0861
N2360 X0.325 Y0.0972
N2365 X0.3755 Y0.106
N2370 X0.4263 Y0.1128
N2375 X0.4773 Y0.1182
N2380 X0.5284 Y0.1223
N2385 X0.5796 Y0.1254
N2390 G2 X0.7846 Y0.1317 I0.2765 J-5.6424
N2395 X1.0922 Y0.1339 I0.3228 J-23.0527
N2400 G1 X1.1948 Y0.1341
N2405 X1.246 Y0.1342
N2410 X1.4511 Y0.1343
N2415 X2.4253
N2420 X3.2456
N2425 X5.2452
N2430 X7.2449
N2435 X8.219
N2440 X8.2703
N2445 X8.3216 Y0.1338
N2450 X8.3728 Y0.1311
N2455 X8.4236 Y0.1242
N2460 X8.4734 Y0.1119
N2465 X8.5213 Y0.0939
N2470 X8.5668 Y0.0701
N2475 X8.609 Y0.0411
N2480 X8.6476 Y0.0073
N2485 X8.6822 Y-0.0305
N2490 X8.7127 Y-0.0717
N2495 X8.7391 Y-0.1157
N2500 X8.7616 Y-0.1618
N2505 X8.7804 Y-0.2095
N2510 X8.7959 Y-0.2583
N2515 X8.8085 Y-0.308
N2520 X8.8186 Y-0.3583
N2525 X8.8266 Y-0.409
N2530 X8.8328 Y-0.4598
N2535 X8.8376 Y-0.5109
N2540 X8.8413 Y-0.562
N2545 X8.844 Y-0.6132
N2550 G2 X8.8496 Y-0.8182 I-6.3336 J-0.2749
N2555 X8.8514 Y-1.0746 I-22.8495 J-0.2928
N2560 G1 X8.8517 Y-1.1771
N2565 X8.8518 Y-1.2797
N2570 X8.8517 Y-1.3309
N2575 X8.8502 Y-1.3822
N2580 X8.8454 Y-1.4332
N2585 X8.8357 Y-1.4836
N2590 X8.8202 Y-1.5325
N2595 X8.799 Y-1.5791
N2600 X8.7723 Y-1.6229
N2605 X8.7406 Y-1.6632
N2610 X8.7045 Y-1.6997
N2615 X8.6647 Y-1.732
N2620 X8.6219 Y-1.7602
N2625 X8.5767 Y-1.7844
N2630 X8.5297 Y-1.8048
N2635 X8.4813 Y-1.8217
N2640 X8.4319 Y-1.8356
N2645 X8.3819 Y-1.8468
N2650 X8.3314 Y-1.8556
N2655 X8.2806 Y-1.8626
N2660 X8.2296 Y-1.868
N2665 X8.1785 Y-1.8721
N2670 X8.1273 Y-1.8753
N2675 X8.0761 Y-1.8776
N2680 X8.0249 Y-1.8794
N2685 X7.9736 Y-1.8807
N2690 G2 X7.666 Y-1.8837 I-0.3171 J16.7149
N2695 G1 X7.6147 Y-1.8839
N2700 X7.5122 Y-1.8841
N2705 X7.3584 Y-1.8842
N2710 X6.9995
N2715 X5.974
N2720 X3.9744 Y-1.8841
N2725 X1.9748
N2730 X0.5392 Y-1.884
N2735 X0.4879 Y-1.8839
N2740 X0.4366 Y-1.8829
N2745 X0.3855 Y-1.8794
N2750 X0.3348 Y-1.8716
N2755 X0.2853 Y-1.8584
N2760 X0.2375 Y-1.8398
N2765 X0.1923 Y-1.8156
N2770 X0.1502 Y-1.7864
N2775 X0.1117 Y-1.7525
N2780 X0.077 Y-1.7147
N2785 X0.0464 Y-1.6736
N2790 X0.0199 Y-1.6297
N2795 X-0.0029 Y-1.5838
N2800 X-0.022 Y-1.5362
N2805 X-0.0378 Y-1.4874
N2810 X-0.0508 Y-1.4378
N2815 X-0.0612 Y-1.3876
N2820 X-0.0695 Y-1.337
N2825 X-0.0761 Y-1.2862
N2830 X-0.0812 Y-1.2351
N2835 X-0.0851 Y-1.184
N2840 X-0.0881 Y-1.1328
N2845 G2 X-0.0942 Y-0.9279 I5.8702 J0.2792
N2850 X-0.0965 Y-0.5177 I26.5745 J0.35
N2855 G1 X-0.0958 Y-0.4664
N2860 X-0.093 Y-0.4152
N2865 X-0.0862 Y-0.3644
N2870 X-0.0744 Y-0.3145
N2875 X-0.0572 Y-0.2662
N2880 X-0.0345 Y-0.2202
N2885 X-0.0067 Y-0.1772
N2890 X0.0259 Y-0.1376
N2895 X0.0626 Y-0.1018
N2900 X0.1028 Y-0.0699
N2905 X0.1458 Y-0.042
N2910 X0.1911 Y-0.018
N2915 X0.2382 Y0.0023
N2920 X0.2865 Y0.0193
N2925 X0.3359 Y0.0332
N2930 X0.3859 Y0.0446
N2935 X0.4364 Y0.0536
N2940 X0.4871 Y0.0608
N2945 X0.5381 Y0.0664
N2950 X0.5892 Y0.0708
N2955 X0.6403 Y0.0742
N2960 G2 X0.8453 Y0.0812 I0.284 J-5.2936
N2965 X1.1529 Y0.0838 I0.3293 J-20.3955
N2970 G1 X1.2554 Y0.084
N2975 X1.4093 Y0.0842
N2980 X1.7169 Y0.0843
N2985 X2.3834
N2990 X4.383
N2995 X6.3826
N3000 X8.1259
N3005 X8.1772
N3010 X8.2284 Y0.0839
N3015 X8.2797 Y0.0822
N3020 X8.3307 Y0.0773
N3025 X8.3811 Y0.0678
N3030 X8.4302 Y0.053
N3035 X8.4773 Y0.0328
N3040 X8.5217 Y0.0072
N3045 X8.5629 Y-0.0234
N3050 X8.6004 Y-0.0583
N3055 X8.634 Y-0.097
N3060 X8.6636 Y-0.1389
N3065 X8.6893 Y-0.1833
N3070 X8.7113 Y-0.2296
N3075 X8.7297 Y-0.2774
N3080 X8.745 Y-0.3264
N3085 X8.7575 Y-0.3761
N3090 X8.7675 Y-0.4264
N3095 X8.7755 Y-0.477
N3100 X8.7817 Y-0.5279
N3105 X8.7866 Y-0.579
N3110 X8.7904 Y-0.6301
N3115 X8.7933 Y-0.6813
N3120 G2 X8.7993 Y-0.8863 I-6.1435 J-0.2821
N3125 X8.8014 Y-1.2452 I-22.4996 J-0.3133
N3130 G1 X8.8003 Y-1.2964
N3135 X8.7966 Y-1.3476
N3140 X8.7887 Y-1.3982
N3145 X8.7756 Y-1.4478
N3150 X8.757 Y-1.4956
N3155 X8.733 Y-1.5409
N3160 X8.7039 Y-1.5831
N3165 X8.6703 Y-1.6218
N3170 X8.6326 Y-1.6566
N3175 X8.5917 Y-1.6874
N3180 X8.548 Y-1.7143
N3185 X8.5022 Y-1.7374
N3190 X8.4548 Y-1.7568
N3195 X8.4061 Y-1.773
N3200 X8.3566 Y-1.7863
N3205 X8.3065 Y-1.7971
N3210 X8.2559 Y-1.8056
N3215 X8.2051 Y-1.8124
N3220 X8.1541 Y-1.8177
N3225 X8.103 Y-1.8217
N3230 X8.0518 Y-1.8249
N3235 G2 X7.8468 Y-1.8314 I-0.2829 J5.6672
N3240 X7.5392 Y-1.8338 I-0.3281 J21.9965
N3245 G1 X7.4367 Y-1.834
N3250 X7.2828 Y-1.8342
N3255 X6.9752
N3260 X6.6163
N3265 X4.6167
N3270 X2.6171 Y-1.8341
N3275 X0.6175 Y-1.834
N3280 X0.5662 Y-1.8338
N3285 X0.5149 Y-1.8329
N3290 X0.4638 Y-1.8298
N3295 X0.4129 Y-1.8231
N3300 X0.363 Y-1.8115
N3305 X0.3145 Y-1.7947
N3310 X0.2683 Y-1.7726
N3315 X0.2249 Y-1.7453
N3320 X0.1848 Y-1.7133
N3325 X0.1484 Y-1.6772
N3330 X0.1159 Y-1.6376
N3335 X0.0873 Y-1.595
N3340 X0.0625 Y-1.5501
N3345 X0.0413 Y-1.5034
N3350 X0.0236 Y-1.4553
N3355 X0.0088 Y-1.4062
N3360 X-0.0032 Y-1.3564
N3365 X-0.013 Y-1.3061
N3370 X-0.0207 Y-1.2554
N3375 X-0.0269 Y-1.2045
N3380 X-0.0316 Y-1.1534
N3385 X-0.0353 Y-1.1023
N3390 X-0.0382 Y-1.0511
N3395 G2 X-0.0442 Y-0.8461 I6.2498 J0.2848
N3400 X-0.0461 Y-0.5898 I16.4293 J0.2509
N3405 G1 X-0.0454 Y-0.5385
N3410 X-0.0426 Y-0.4873
N3415 X-0.0364 Y-0.4364
N3420 X-0.0256 Y-0.3863
N3425 X-0.0096 Y-0.3376
N3430 X0.0117 Y-0.2909
N3435 X0.0382 Y-0.247
N3440 X0.0694 Y-0.2063
N3445 X0.1047 Y-0.1692
N3450 X0.1437 Y-0.1359
N3455 X0.1857 Y-0.1065
N3460 X0.2302 Y-0.0809
N3465 X0.2765 Y-0.059
N3470 X0.3243 Y-0.0405
N3475 X0.3733 Y-0.0251
N3480 X0.4229 Y-0.0125
N3485 X0.4732 Y-0.0022
N3490 X0.5238 Y0.006
N3495 X0.5746 Y0.0125
N3500 X0.6257 Y0.0177
N3505 X0.6768 Y0.0216
N3510 X0.7279 Y0.0247
N3515 G2 X0.9329 Y0.0313 I0.2888 J-5.8429
N3520 X1.2405 Y0.0338 I0.3344 J-21.7397
N3525 G1 X1.3431 Y0.034
N3530 X1.4969 Y0.0342
N3535 X1.8045 Y0.0343
N3540 X1.9583
N3545 X3.958
N3550 X5.9576
N3555 X7.9572
N3560 X8.0597
N3565 X8.111 Y0.0342
N3570 X8.1623 Y0.0337
N3575 X8.2135 Y0.0317
N3580 X8.2645 Y0.0267
N3585 X8.3149 Y0.0174
N3590 X8.3642 Y0.0031
N3595 X8.4116 Y-0.0165
N3600 X8.4564 Y-0.0413
N3605 X8.4982 Y-0.071
N3610 X8.5366 Y-0.105
N3615 X8.5711 Y-0.1429
N3620 X8.6018 Y-0.184
N3625 X8.6286 Y-0.2277
N3630 X8.6517 Y-0.2735
N3635 X8.6713 Y-0.3208
N3640 X8.6877 Y-0.3694
N3645 X8.7012 Y-0.4189
N3650 X8.7122 Y-0.469
N3655 X8.7211 Y-0.5195
N3660 X8.7281 Y-0.5702
N3665 X8.7337 Y-0.6212
N3670 X8.738 Y-0.6723
N3675 X8.7414 Y-0.7235
N3680 G2 X8.7485 Y-0.9284 I-5.3659 J-0.2896
N3685 X8.7508 Y-1.1848 I-11.9683 J-0.2321
N3690 G1 X8.7492 Y-1.236
N3695 X8.7451 Y-1.2871
N3700 X8.7368 Y-1.3377
N3705 X8.7235 Y-1.3872
N3710 X8.705 Y-1.435
N3715 X8.6812 Y-1.4804
N3720 X8.6524 Y-1.5229
N3725 X8.6192 Y-1.5619
N3730 X8.582 Y-1.5973
N3735 X8.5415 Y-1.6287
N3740 X8.4983 Y-1.6563
N3745 X8.4528 Y-1.68
N3750 X8.4057 Y-1.7003
N3755 X8.3573 Y-1.7172
N3760 X8.308 Y-1.7312
N3765 X8.2581 Y-1.7427
N3770 X8.2076 Y-1.7519
N3775 X8.1569 Y-1.7593
N3780 X8.1059 Y-1.7651
N3785 X8.0549 Y-1.7697
N3790 X8.0037 Y-1.7732
N3795 G2 X7.7988 Y-1.7807 I-0.2895 J5.0933
N3800 X7.4912 Y-1.7836 I-0.324 J18.022
N3805 G1 X7.4399 Y-1.7838
N3810 X7.3374 Y-1.784
N3815 X7.1835 Y-1.7842
N3820 X6.8759
N3825 X6.8246
N3830 X4.825
N3835 X2.8254 Y-1.7841
N3840 X0.8258 Y-1.784
N3845 X0.7233
N3850 X0.672
N3855 X0.6207 Y-1.7836
N3860 X0.5695 Y-1.7821
N3865 X0.5183 Y-1.7783
N3870 X0.4676 Y-1.7707
N3875 X0.4178 Y-1.7585
N3880 X0.3696 Y-1.7412
N3885 X0.3235 Y-1.7186
N3890 X0.2802 Y-1.6911
N3895 X0.2402 Y-1.6591
N3900 X0.2037 Y-1.6231
N3905 X0.1711 Y-1.5836
N3910 X0.1422 Y-1.5412
N3915 X0.1172 Y-1.4965
N3920 X0.0957 Y-1.4499
N3925 X0.0775 Y-1.4019
N3930 X0.0624 Y-1.353
N3935 X0.0499 Y-1.3032
N3940 X0.0398 Y-1.253
N3945 X0.0317 Y-1.2023
N3950 X0.0252 Y-1.1515
N3955 X0.0201 Y-1.1005
N3960 X0.0161 Y-1.0494
N3965 X0.013 Y-0.9982
N3970 G2 X0.0063 Y-0.7932 I5.807 J0.2907
N3975 G1 X0.0055 Y-0.7419
N3980 X0.005 Y-0.6907
N3985 X0.0049 Y-0.6394
N3990 X0.0061 Y-0.5881
N3995 X0.0097 Y-0.537
N4000 X0.017 Y-0.4862
N4005 X0.0288 Y-0.4364
N4010 X0.0458 Y-0.388
N4015 X0.0679 Y-0.3417
N4020 X0.095 Y-0.2982
N4025 X0.1266 Y-0.2578
N4030 X0.1622 Y-0.221
N4035 X0.2014 Y-0.1879
N4040 X0.2435 Y-0.1587
N4045 X0.288 Y-0.1332
N4050 X0.3344 Y-0.1113
N4055 X0.3822 Y-0.0928
N4060 X0.4311 Y-0.0773
N4065 X0.4807 Y-0.0645
N4070 X0.5309 Y-0.0541
N4075 X0.5815 Y-0.0456
N4080 X0.6323 Y-0.0389
N4085 X0.6833 Y-0.0336
N4090 X0.7344 Y-0.0294
N4095 X0.7856 Y-0.0262
N4100 G2 X0.9906 Y-0.0191 I0.2943 J-5.5921
N4105 X1.2982 Y-0.0163 I0.3394 J-20.0261
N4110 G1 X1.4007 Y-0.016
N4115 X1.5545 Y-0.0158
N4120 X1.8109 Y-0.0157
N4125 X1.9647
N4130 X3.9643
N4135 X5.9639
N4140 X7.9635
N4145 X8.0148
N4150 X8.0661 Y-0.016
N4155 X8.1173 Y-0.0172
N4160 X8.1685 Y-0.0202
N4165 X8.2194 Y-0.0267
N4170 X8.2695 Y-0.0375
N4175 X8.3183 Y-0.0534
N4180 X8.3651 Y-0.0743
N4185 X8.4093 Y-0.1002
N4190 X8.4505 Y-0.1308
N4195 X8.4881 Y-0.1656
N4200 X8.5221 Y-0.204
N4205 X8.5523 Y-0.2454
N4210 X8.5786 Y-0.2894
N4215 X8.6014 Y-0.3354
N4220 X8.6207 Y-0.3829
N4225 X8.6369 Y-0.4315
N4230 X8.6503 Y-0.481
N4235 X8.6612 Y-0.5311
N4240 X8.6701 Y-0.5816
N4245 X8.6772 Y-0.6324
N4250 X8.6828 Y-0.6833
N4255 X8.6873 Y-0.7344
N4260 X8.6907 Y-0.7856
N4265 G2 X8.6982 Y-0.9905 I-5.257 J-0.2946
N4270 G1 X8.6991 Y-1.0418
N4275 X8.6995 Y-1.093
N4280 X8.699 Y-1.1443
N4285 X8.6966 Y-1.1955
N4290 X8.6907 Y-1.2465
N4295 X8.6806 Y-1.2967
N4300 X8.6654 Y-1.3457
N4305 X8.6451 Y-1.3928
N4310 X8.6197 Y-1.4373
N4315 X8.5896 Y-1.4788
N4320 X8.5553 Y-1.5169
N4325 X8.5172 Y-1.5512
N4330 X8.476 Y-1.5818
N4335 X8.4323 Y-1.6086
N4340 X8.3865 Y-1.6317
N4345 X8.3392 Y-1.6513
N4350 X8.2906 Y-1.6678
N4355 X8.2412 Y-1.6815
N4360 X8.1912 Y-1.6927
N4365 X8.1407 Y-1.7017
N4370 X8.0899 Y-1.709
N4375 X8.039 Y-1.7147
N4380 X7.9879 Y-1.7193
N4385 X7.9368 Y-1.7228
N4390 G2 X7.7318 Y-1.7305 I-0.2953 J5.1448
N4395 X7.4242 Y-1.7336 I-0.3291 J17.5131
N4400 G1 X7.373 Y-1.7338
N4405 X7.2704 Y-1.734
N4410 X7.1166 Y-1.7341
N4415 X6.809 Y-1.7342
N4420 X6.6039
N4425 X4.6043
N4430 X2.6047 Y-1.7341
N4435 X0.8101 Y-1.734
N4440 X0.7589
N4445 X0.7076 Y-1.7337
N4450 X0.6563 Y-1.7327
N4455 X0.6051 Y-1.7301
N4460 X0.5542 Y-1.7244
N4465 X0.5038 Y-1.7146
N4470 X0.4547 Y-1.7001
N4475 X0.4073 Y-1.6805
N4480 X0.3622 Y-1.656
N4485 X0.3201 Y-1.6268
N4490 X0.2814 Y-1.5932
N4495 X0.2462 Y-1.5559
N4500 X0.2148 Y-1.5154
N4505 X0.1871 Y-1.4722
N4510 X0.1631 Y-1.427
N4515 X0.1425 Y-1.38
N4520 X0.1251 Y-1.3318
N4525 X0.1106 Y-1.2826
N4530 X0.0987 Y-1.2327
N4535 X0.089 Y-1.1824
N4540 X0.0812 Y-1.1317
N4545 X0.0749 Y-1.0808
N4550 X0.07 Y-1.0298
N4555 X0.0661 Y-0.9786
N4560 G2 X0.0569 Y-0.7225 I4.6178 J0.2943
N4565 G1 X0.0571 Y-0.6712
N4570 X0.0594 Y-0.62
N4575 X0.0648 Y-0.569
N4580 X0.0744 Y-0.5186
N4585 X0.0888 Y-0.4694
N4590 X0.1082 Y-0.422
N4595 X0.1326 Y-0.3769
N4600 X0.1618 Y-0.3347
N4605 X0.1952 Y-0.2958
N4610 X0.2325 Y-0.2606
N4615 X0.2729 Y-0.229
N4620 X0.316 Y-0.2012
N4625 X0.3612 Y-0.1771
N4630 X0.4081 Y-0.1564
N4635 X0.4563 Y-0.1389
N4640 X0.5054 Y-0.1242
N4645 X0.5553 Y-0.1122
N4650 X0.6056 Y-0.1024
N4655 X0.6562 Y-0.0944
N4660 X0.7071 Y-0.0881
N4665 X0.7581 Y-0.083
N4670 X0.8093 Y-0.0791
N4675 X0.8604 Y-0.0759
N4680 G2 X1.0654 Y-0.0691 I0.2986 J-5.9103
N4685 X1.373 Y-0.0663 I0.3437 J-20.586
N4690 G1 X1.4756 Y-0.066
N4695 X1.5781 Y-0.0659
N4700 X1.7832 Y-0.0658
N4705 X2.3472 Y-0.0657
N4710 X2.3985
N4715 X4.3981
N4720 X6.3977
N4725 X7.8846
N4730 X7.9358 Y-0.0658
N4735 X7.9871 Y-0.066
N4740 X8.0384 Y-0.0669
N4745 X8.0896 Y-0.0693
N4750 X8.1406 Y-0.0746
N4755 X8.191 Y-0.0837
N4760 X8.2404 Y-0.0976
N4765 X8.2881 Y-0.1163
N4770 X8.3336 Y-0.14
N4775 X8.3762 Y-0.1685
N4780 X8.4156 Y-0.2013
N4785 X8.4515 Y-0.238
N4790 X8.4836 Y-0.2779
N4795 X8.512 Y-0.3206
N4800 X8.5367 Y-0.3655
N4805 X8.5579 Y-0.4122
N4810 X8.576 Y-0.4602
N4815 X8.5911 Y-0.5092
N4820 X8.6035 Y-0.5589
N4825 X8.6137 Y-0.6092
N4830 X8.6219 Y-0.6598
N4835 X8.6285 Y-0.7106
N4840 X8.6338 Y-0.7616
N4845 X8.6379 Y-0.8128
N4850 G2 X8.6468 Y-1.0176 I-3.9435 J-0.2733
N4855 G1 X8.6471 Y-1.0689
N4860 X8.6455 Y-1.1201
N4865 X8.6409 Y-1.1712
N4870 X8.6323 Y-1.2218
N4875 X8.6189 Y-1.2712
N4880 X8.6005 Y-1.3191
N4885 X8.5771 Y-1.3647
N4890 X8.5488 Y-1.4075
N4895 X8.5161 Y-1.447
N4900 X8.4796 Y-1.483
N4905 X8.4398 Y-1.5153
N4910 X8.3971 Y-1.5438
N4915 X8.3523 Y-1.5686
N4920 X8.3057 Y-1.5899
N4925 X8.2577 Y-1.608
N4930 X8.2087 Y-1.6232
N4935 X8.159 Y-1.6357
N4940 X8.1088 Y-1.646
N4945 X8.0582 Y-1.6542
N4950 X8.0073 Y-1.6609
N4955 X7.9563 Y-1.6661
N4960 X7.9052 Y-1.6703
N4965 X7.854 Y-1.6735
N4970 G2 X7.6491 Y-1.6806 I-0.299 J5.656
N4975 X7.2902 Y-1.6838 I-0.3722 J22.0671
N4980 G1 X7.1877 Y-1.684
N4985 X7.0338 Y-1.6841
N4990 X6.7262 Y-1.6842
N4995 X5.9571
N5000 X3.9575 Y-1.6841
N5005 X1.9579
N5010 X0.8812 Y-1.684
N5015 X0.8299
N5020 X0.7787 Y-1.6837
N5025 X0.7274 Y-1.6828
N5030 X0.6762 Y-1.6804
N5035 X0.6252 Y-1.6754
N5040 X0.5746 Y-1.6666
N5045 X0.5251 Y-1.6533
N5050 X0.4771 Y-1.6352
N5055 X0.4314 Y-1.6121
N5060 X0.3883 Y-1.5843
N5065 X0.3484 Y-1.5521
N5070 X0.3119 Y-1.5161
N5075 X0.2791 Y-1.4767
N5080 X0.25 Y-1.4345
N5085 X0.2245 Y-1.39
N5090 X0.2026 Y-1.3436
N5095 X0.1839 Y-1.2959
N5100 X0.1681 Y-1.2471
N5105 X0.155 Y-1.1975
N5110 X0.1443 Y-1.1474
N5115 X0.1355 Y-1.0969
N5120 X0.1285 Y-1.0461
N5125 X0.1229 Y-0.9951
N5130 X0.1185 Y-0.9441
N5135 X0.115 Y-0.8929
N5140 X0.1123 Y-0.8417
N5145 X0.1106 Y-0.7905
N5150 X0.11 Y-0.7392
N5155 X0.1115 Y-0.6879
N5160 X0.116 Y-0.6369
N5165 X0.1246 Y-0.5863
N5170 X0.1378 Y-0.5368
N5175 X0.1559 Y-0.4888
N5180 X0.1791 Y-0.4431
N5185 X0.207 Y-0.4001
N5190 X0.2393 Y-0.3602
N5195 X0.2754 Y-0.3239
N5200 X0.3149 Y-0.2912
N5205 X0.3572 Y-0.2622
N5210 X0.4018 Y-0.2368
N5215 X0.4481 Y-0.215
N5220 X0.4959 Y-0.1963
N5225 X0.5447 Y-0.1807
N5230 X0.5943 Y-0.1676
N5235 X0.6444 Y-0.1569
N5240 X0.695 Y-0.1482
N5245 X0.7458 Y-0.1412
N5250 X0.7967 Y-0.1356
N5255 X0.8478 Y-0.1311
N5260 X0.899 Y-0.1276
N5265 G2 X1.1039 Y-0.1198 I0.3043 J-5.3075
N5270 G1 X1.1551 Y-0.1188
N5275 X1.2064 Y-0.1181
N5280 X1.2577 Y-0.1175
N5285 G2 X1.4628 Y-0.1163 I0.2921 J-31.9346
N5290 G1 X1.5653 Y-0.116
N5295 X1.7191 Y-0.1158
N5300 X1.9755 Y-0.1157
N5305 X3.2573
N5310 X5.2569
N5315 X7.2565
N5320 X7.8205
N5325 X7.8718 Y-0.1158
N5330 X7.923 Y-0.1161
N5335 X7.9743 Y-0.117
N5340 X8.0255 Y-0.1194
N5345 X8.0765 Y-0.1245
N5350 X8.1271 Y-0.1332
N5355 X8.1766 Y-0.1464
N5360 X8.2246 Y-0.1644
N5365 X8.2705 Y-0.1874
N5370 X8.3136 Y-0.215
N5375 X8.3537 Y-0.247
N5380 X8.3903 Y-0.2829
N5385 X8.4233 Y-0.3221
N5390 X8.4526 Y-0.3642
N5395 X8.4783 Y-0.4086
N5400 X8.5005 Y-0.4548
N5405 X8.5194 Y-0.5025
N5410 X8.5354 Y-0.5512
N5415 X8.5487 Y-0.6007
N5420 X8.5596 Y-0.6508
N5425 X8.5685 Y-0.7013
N5430 X8.5757 Y-0.7521
N5435 X8.5815 Y-0.803
N5440 X8.586 Y-0.8541
N5445 X8.5895 Y-0.9052
N5450 X8.592 Y-0.9564
N5455 X8.5931 Y-1.0077
N5460 X8.5921 Y-1.059
N5465 X8.5881 Y-1.1101
N5470 X8.58 Y-1.1607
N5475 X8.5673 Y-1.2104
N5480 X8.5495 Y-1.2585
N5485 X8.5267 Y-1.3044
N5490 X8.4991 Y-1.3476
N5495 X8.4671 Y-1.3876
N5500 X8.4312 Y-1.4242
N5505 X8.3919 Y-1.4571
N5510 X8.3497 Y-1.4863
N5515 X8.3053 Y-1.5119
N5520 X8.259 Y-1.534
N5525 X8.2113 Y-1.5528
N5530 X8.1625 Y-1.5686
N5535 X8.113 Y-1.5817
N5540 X8.0628 Y-1.5926
N5545 X8.0123 Y-1.6014
N5550 X7.9616 Y-1.6085
N5555 X7.9106 Y-1.6142
N5560 X7.8595 Y-1.6187
N5565 X7.8084 Y-1.6222
N5570 G2 X7.6034 Y-1.6301 I-0.3037 J5.2357
N5575 X7.2958 Y-1.6334 I-0.3379 J16.9482
N5580 G1 X7.2446 Y-1.6337
N5585 X7.142 Y-1.6339
N5590 X6.9882 Y-1.6341
N5595 X6.8857 Y-1.6342
N5600 X6.4755
N5605 X4.8861
N5610 X2.8864 Y-1.6341
N5615 X0.9894 Y-1.634
N5620 X0.9381
N5625 X0.8868 Y-1.6339
N5630 X0.8356 Y-1.6336
N5635 X0.7843 Y-1.6325
N5640 X0.7331 Y-1.6299
N5645 X0.6821 Y-1.6247
N5650 X0.6316 Y-1.6158
N5655 X0.5821 Y-1.6025
N5660 X0.5341 Y-1.5844
N5665 X0.4882 Y-1.5615
N5670 X0.445 Y-1.5339
N5675 X0.4049 Y-1.502
N5680 X0.3681 Y-1.4663
N5685 X0.3349 Y-1.4272
N5690 X0.3054 Y-1.3852
N5695 X0.2795 Y-1.341
N5700 X0.2571 Y-1.2949
N5705 X0.2379 Y-1.2473
N5710 X0.2217 Y-1.1987
N5715 X0.2082 Y-1.1492
N5720 X0.197 Y-1.0992
N5725 X0.1879 Y-1.0487
N5730 X0.1805 Y-0.998
N5735 X0.1746 Y-0.9471
N5740 X0.1701 Y-0.896
N5745 X0.1668 Y-0.8448
N5750 X0.1654 Y-0.7936
N5755 X0.1662 Y-0.7423
N5760 X0.1704 Y-0.6912
N5765 X0.1787 Y-0.6406
N5770 X0.1917 Y-0.591
N5775 X0.2098 Y-0.5431
N5780 X0.2329 Y-0.4973
N5785 X0.2606 Y-0.4542
N5790 X0.2928 Y-0.4142
N5795 X0.3288 Y-0.3777
N5800 X0.3681 Y-0.3448
N5805 X0.4102 Y-0.3156
N5810 X0.4547 Y-0.29
N5815 X0.5009 Y-0.2679
N5820 X0.5486 Y-0.249
N5825 X0.5973 Y-0.2331
N5830 X0.6469 Y-0.2198
N5835 X0.6969 Y-0.2088
N5840 X0.7474 Y-0.1999
N5845 X0.7982 Y-0.1926
N5850 X0.8491 Y-0.1868
N5855 X0.9002 Y-0.1821
N5860 X0.9513 Y-0.1785
N5865 G2 X1.1562 Y-0.1702 I0.3079 J-5.0948
N5870 X1.4638 Y-0.1666 I0.3422 J-16.1149
N5875 G1 X1.5151 Y-0.1664
N5880 X1.6176 Y-0.1661
N5885 X1.7202 Y-0.1659
N5890 X1.874 Y-0.1658
N5895 X2.2329 Y-0.1657
N5900 X2.5405
N5905 X4.5401
N5910 X6.5398
N5915 X7.719
N5920 X7.7703
N5925 X7.8216 Y-0.1658
N5930 X7.8728 Y-0.1663
N5935 X7.9241 Y-0.1675
N5940 X7.9753 Y-0.1705
N5945 X8.0262 Y-0.1761
N5950 X8.0766 Y-0.1855
N5955 X8.126 Y-0.1992
N5960 X8.1738 Y-0.2178
N5965 X8.2195 Y-0.2412
N5970 X8.2624 Y-0.2691
N5975 X8.3023 Y-0.3014
N5980 X8.3388 Y-0.3374
N5985 X8.3716 Y-0.3767
N5990 X8.4009 Y-0.4189
N5995 X8.4265 Y-0.4633
N6000 X8.4487 Y-0.5095
N6005 X8.4677 Y-0.5571
N6010 X8.4837 Y-0.6058
N6015 X8.4971 Y-0.6553
N6020 X8.5082 Y-0.7054
N6025 X8.5172 Y-0.7558
N6030 X8.5245 Y-0.8066
N6035 X8.5302 Y-0.8575
N6040 X8.5343 Y-0.9086
N6045 X8.5364 Y-0.9599
N6050 X8.536 Y-1.0111
N6055 X8.532 Y-1.0623
N6060 X8.5237 Y-1.1129
N6065 X8.5105 Y-1.1624
N6070 X8.4923 Y-1.2103
N6075 X8.469 Y-1.256
N6080 X8.441 Y-1.2989
N6085 X8.4086 Y-1.3387
N6090 X8.3724 Y-1.375
N6095 X8.3329 Y-1.4077
N6100 X8.2906 Y-1.4366
N6105 X8.246 Y-1.4619
N6110 X8.1996 Y-1.4838
N6115 X8.1518 Y-1.5024
N6120 X8.103 Y-1.5181
N6125 X8.0535 Y-1.5312
N6130 X8.0033 Y-1.542
N6135 X7.9528 Y-1.5508
N6140 X7.9021 Y-1.5579
N6145 X7.8511 Y-1.5636
N6150 X7.8 Y-1.5682
N6155 X7.7489 Y-1.5718
N6160 G2 X7.544 Y-1.5799 I-0.3074 J5.1989
N6165 G1 X7.4927 Y-1.5809
N6170 X7.4414 Y-1.5817
N6175 X7.3902 Y-1.5823
N6180 G2 X7.1851 Y-1.5836 I-0.2945 J30.3706
N6185 G1 X7.0825 Y-1.5839
N6190 X6.98 Y-1.584
N6195 X6.7749 Y-1.5842
N6200 X6.3135
N6205 X5.3906
N6210 X3.391 Y-1.5841
N6215 X1.3914
N6220 X1.0324 Y-1.584
N6225 X0.9812
N6230 X0.9299 Y-1.5838
N6235 X0.8786 Y-1.5832
N6240 X0.8274 Y-1.5817
N6245 X0.7762 Y-1.5783
N6250 X0.7253 Y-1.5721
N6255 X0.6751 Y-1.562
N6260 X0.6259 Y-1.5476
N6265 X0.5783 Y-1.5284
N6270 X0.533 Y-1.5044
N6275 X0.4904 Y-1.4759
N6280 X0.4508 Y-1.4433
N6285 X0.4147 Y-1.4069
N6290 X0.3821 Y-1.3673
N6295 X0.3532 Y-1.325
N6300 X0.3278 Y-1.2804
N6305 X0.3058 Y-1.2341
N6310 X0.2871 Y-1.1864
N6315 X0.2712 Y-1.1376
N6320 X0.2579 Y-1.0881
N6325 X0.247 Y-1.038
N6330 X0.2381 Y-0.9875
N6335 X0.2312 Y-0.9367
N6340 X0.2262 Y-0.8857
N6345 X0.2236 Y-0.8345
N6350 X0.2242 Y-0.7832
N6355 X0.2286 Y-0.7321
N6360 X0.2375 Y-0.6816
N6365 X0.2515 Y-0.6323
N6370 X0.2705 Y-0.5847
N6375 X0.2945 Y-0.5394
N6380 X0.3232 Y-0.4969
N6385 X0.3562 Y-0.4576
N6390 X0.3929 Y-0.4219
N6395 X0.4329 Y-0.3898
N6400 X0.4755 Y-0.3613
N6405 X0.5203 Y-0.3364
N6410 X0.5669 Y-0.3149
N6415 X0.6148 Y-0.2967
N6420 X0.6637 Y-0.2812
N6425 X0.7133 Y-0.2684
N6430 X0.7635 Y-0.2578
N6435 X0.814 Y-0.2491
N6440 X0.8648 Y-0.2421
N6445 X0.9158 Y-0.2364
N6450 X0.9669 Y-0.2319
N6455 X1.018 Y-0.2283
N6460 G2 X1.2229 Y-0.2202 I0.3108 J-5.2609
N6465 X1.5305 Y-0.2166 I0.3453 J-16.3763
N6470 G1 X1.5818 Y-0.2164
N6475 X1.6843 Y-0.2161
N6480 X1.7869 Y-0.2159
N6485 X1.9407 Y-0.2158
N6490 X2.2483 Y-0.2157
N6495 X4.2479
N6500 X6.2475
N6505 X7.6319
N6510 X7.6832
N6515 X7.7344 Y-0.2158
N6520 X7.7857 Y-0.2161
N6525 X7.837 Y-0.2169
N6530 X7.8882 Y-0.2188
N6535 X7.9393 Y-0.2228
N6540 X7.9901 Y-0.2299
N6545 X8.0402 Y-0.241
N6550 X8.089 Y-0.2566
N6555 X8.1361 Y-0.2769
N6560 X8.1808 Y-0.3019
N6565 X8.2228 Y-0.3314
N6570 X8.2616 Y-0.3649
N6575 X8.297 Y-0.402
N6580 X8.3288 Y-0.4422
N6585 X8.3569 Y-0.4851
N6590 X8.3816 Y-0.53
N6595 X8.4029 Y-0.5767
N6600 X8.421 Y-0.6246
N6605 X8.4363 Y-0.6736
N6610 X8.4491 Y-0.7232
N6615 X8.4595 Y-0.7734
N6620 X8.4676 Y-0.8241
N6625 X8.4735 Y-0.875
N6630 X8.4766 Y-0.9262
N6635 X8.4761 Y-0.9774
N6640 X8.4715 Y-1.0285
N6645 X8.462 Y-1.0789
N6650 X8.4473 Y-1.128
N6655 X8.4275 Y-1.1753
N6660 X8.4026 Y-1.2201
N6665 X8.373 Y-1.262
N6670 X8.3393 Y-1.3006
N6675 X8.3018 Y-1.3356
N6680 X8.2613 Y-1.367
N6685 X8.2181 Y-1.3947
N6690 X8.1729 Y-1.4188
N6695 X8.126 Y-1.4396
N6700 X8.0778 Y-1.4572
N6705 X8.0288 Y-1.472
N6710 X7.979 Y-1.4843
N6715 X7.9287 Y-1.4944
N6720 X7.8781 Y-1.5027
N6725 X7.8273 Y-1.5094
N6730 X7.7763 Y-1.5147
N6735 X7.7252 Y-1.519
N6740 X7.674 Y-1.5224
N6745 G2 X7.4691 Y-1.53 I-0.3098 J5.5672
N6750 X7.1615 Y-1.5334 I-0.3443 J17.4131
N6755 G1 X7.1102 Y-1.5336
N6760 X7.0077 Y-1.5339
N6765 X6.8539 Y-1.5341
N6770 X6.6488 Y-1.5342
N6775 X5.9822
N6780 X5.4695
N6785 X3.4699 Y-1.5341
N6790 X1.4703
N6795 X1.1114 Y-1.534
N6800 X1.0601
N6805 X1.0089 Y-1.5339
N6810 X0.9576 Y-1.5334
N6815 X0.9063 Y-1.5323
N6820 X0.8551 Y-1.5298
N6825 X0.8041 Y-1.5248
N6830 X0.7535 Y-1.5165
N6835 X0.7037 Y-1.5041
N6840 X0.6554 Y-1.4871
N6845 X0.6089 Y-1.4655
N6850 X0.5648 Y-1.4393
N6855 X0.5236 Y-1.4087
N6860 X0.4857 Y-1.3742
N6865 X0.4513 Y-1.3363
N6870 X0.4204 Y-1.2953
N6875 X0.3931 Y-1.2519
N6880 X0.3692 Y-1.2066
N6885 X0.3486 Y-1.1596
N6890 X0.3311 Y-1.1114
N6895 X0.3165 Y-1.0623
N6900 X0.3045 Y-1.0124
N6905 X0.2951 Y-0.962
N6910 X0.2887 Y-0.9111
N6915 X0.2856 Y-0.86
N6920 X0.2865 Y-0.8087
N6925 X0.2922 Y-0.7577
N6930 X0.303 Y-0.7076
N6935 X0.3191 Y-0.6589
N6940 X0.3404 Y-0.6123
N6945 X0.3667 Y-0.5683
N6950 X0.3975 Y-0.5273
N6955 X0.4324 Y-0.4898
N6960 X0.4709 Y-0.4559
N6965 X0.5123 Y-0.4256
N6970 X0.5561 Y-0.399
N6975 X0.6018 Y-0.3758
N6980 X0.6491 Y-0.356
N6985 X0.6975 Y-0.3392
N6990 X0.7468 Y-0.325
N6995 X0.7968 Y-0.3133
N7000 X0.8471 Y-0.3037
N7005 X0.8978 Y-0.2958
N7010 X0.9487 Y-0.2895
N7015 X0.9997 Y-0.2844
N7020 X1.0508 Y-0.2804
N7025 G2 X1.2557 Y-0.2711 I0.3155 J-4.6918
N7030 X1.5633 Y-0.2669 I0.3495 J-14.235
N7035 G1 X1.6145 Y-0.2665
N7040 X1.6658 Y-0.2663
N7045 X1.7683 Y-0.2661
N7050 X1.9222 Y-0.2659
N7055 X2.1272 Y-0.2658
N7060 X2.3836 Y-0.2657
N7065 X4.3832
N7070 X6.3828
N7075 X7.5621
N7080 G2 X7.7672 Y-0.2667 I0.0399 J-12.8787
N7085 G1 X7.8184 Y-0.2683
N7090 X7.8696 Y-0.2718
N7095 X7.9204 Y-0.2781
N7100 X7.9707 Y-0.288
N7105 X8.02 Y-0.3023
N7110 X8.0677 Y-0.3212
N7115 X8.1132 Y-0.3447
N7120 X8.1562 Y-0.3727
N7125 X8.196 Y-0.4049
N7130 X8.2326 Y-0.4409
N7135 X8.2657 Y-0.4801
N7140 X8.2951 Y-0.522
N7145 X8.3211 Y-0.5663
N7150 X8.3436 Y-0.6123
N7155 X8.3629 Y-0.6598
N7160 X8.3792 Y-0.7084
N7165 X8.3925 Y-0.758
N7170 X8.4027 Y-0.8082
N7175 X8.4095 Y-0.859
N7180 X8.4125 Y-0.9102
N7185 X8.4108 Y-0.9614
N7190 X8.4039 Y-1.0123
N7195 X8.3917 Y-1.062
N7200 X8.3739 Y-1.1101
N7205 X8.3508 Y-1.1559
N7210 X8.3229 Y-1.1989
N7215 X8.2904 Y-1.2386
N7220 X8.2541 Y-1.2748
N7225 X8.2145 Y-1.3073
N7230 X8.1721 Y-1.3362
N7235 X8.1274 Y-1.3613
N7240 X8.081 Y-1.3831
N7245 X8.0332 Y-1.4016
N7250 X7.9844 Y-1.4173
N7255 X7.9348 Y-1.4303
N7260 X7.8847 Y-1.4411
N7265 X7.8342 Y-1.45
N7270 X7.7834 Y-1.4571
N7275 X7.7324 Y-1.4629
N7280 X7.6814 Y-1.4675
N7285 X7.6302 Y-1.4712
N7290 G2 X7.4253 Y-1.4795 I-0.313 J5.1791
N7295 X7.1177 Y-1.4832 I-0.3478 J15.9309
N7300 G1 X7.0664 Y-1.4835
N7305 X7.0152 Y-1.4837
N7310 X6.9126 Y-1.4839
N7315 X6.7588 Y-1.4841
N7320 X6.5025 Y-1.4842
N7325 X5.2719
N7330 X5.1181
N7335 X3.1185 Y-1.4841
N7340 X1.1702 Y-1.484
N7345 X1.1189
N7350 X1.0676 Y-1.4838
N7355 X1.0164 Y-1.4834
N7360 X0.9651 Y-1.4822
N7365 X0.9139 Y-1.4797
N7370 X0.8628 Y-1.4748
N7375 X0.8122 Y-1.4667
N7380 X0.7624 Y-1.4546
N7385 X0.7139 Y-1.4381
N7390 X0.6672 Y-1.417
N7395 X0.6228 Y-1.3912
N7400 X0.5813 Y-1.3611
N7405 X0.543 Y-1.3271
N7410 X0.508 Y-1.2895
N7415 X0.4766 Y-1.249
N7420 X0.4488 Y-1.206
N7425 X0.4244 Y-1.1608
N7430 X0.4035 Y-1.114
N7435 X0.3859 Y-1.0659
N7440 X0.3717 Y-1.0166
N7445 X0.361 Y-0.9665
N7450 X0.3546 Y-0.9156
N7455 X0.3528 Y-0.8644
N7460 X0.3563 Y-0.8132
N7465 X0.3653 Y-0.7627
N7470 X0.3801 Y-0.7136
N7475 X0.4004 Y-0.6665
N7480 X0.4258 Y-0.622
N7485 X0.4561 Y-0.5806
N7490 X0.4905 Y-0.5426
N7495 X0.5286 Y-0.5083
N7500 X0.5697 Y-0.4777
N7505 X0.6134 Y-0.4508
N7510 X0.659 Y-0.4274
N7515 X0.7062 Y-0.4074
N7520 X0.7546 Y-0.3904
N7525 X0.8038 Y-0.3761
N7530 X0.8537 Y-0.3643
N7535 X0.904 Y-0.3545
N7540 X0.9547 Y-0.3466
N7545 X1.0055 Y-0.3401
N7550 X1.0566 Y-0.3349
N7555 X1.1077 Y-0.3308
N7560 X1.1588 Y-0.3275
N7565 G2 X1.3638 Y-0.32 I0.3139 J-5.7835
N7570 X1.7226 Y-0.3164 I0.3885 J-20.5683
N7575 G1 X1.8252 Y-0.3161
N7580 X1.9277 Y-0.3159
N7585 X2.0815 Y-0.3158
N7590 X2.3892 Y-0.3157
N7595 X2.9532
N7600 X4.9528
N7605 X6.9524
N7610 X7.5164
N7615 X7.5677
N7620 X7.6189 Y-0.3159
N7625 X7.6702 Y-0.3162
N7630 X7.7215 Y-0.3171
N7635 X7.7727 Y-0.3192
N7640 X7.8238 Y-0.3231
N7645 X7.8746 Y-0.3301
N7650 X7.9247 Y-0.3408
N7655 X7.9738 Y-0.3558
N7660 X8.0212 Y-0.3754
N7665 X8.0663 Y-0.3996
N7670 X8.1089 Y-0.4283
N7675 X8.1483 Y-0.461
N7680 X8.1845 Y-0.4974
N7685 X8.2171 Y-0.5369
N7690 X8.2462 Y-0.5791
N7695 X8.2717 Y-0.6236
N7700 X8.2936 Y-0.67
N7705 X8.3119 Y-0.7179
N7710 X8.3263 Y-0.7671
N7715 X8.3364 Y-0.8173
N7720 X8.3416 Y-0.8684
N7725 X8.3413 Y-0.9196
N7730 X8.3352 Y-0.9705
N7735 X8.3232 Y-1.0204
N7740 X8.3054 Y-1.0684
N7745 X8.282 Y-1.1141
N7750 X8.2536 Y-1.1567
N7755 X8.2206 Y-1.196
N7760 X8.1837 Y-1.2317
N7765 X8.1436 Y-1.2636
N7770 X8.1007 Y-1.2917
N7775 X8.0557 Y-1.3162
N7780 X8.009 Y-1.3373
N7785 X7.961 Y-1.3553
N7790 X7.9119 Y-1.3703
N7795 X7.8622 Y-1.3828
N7800 X7.812 Y-1.3931
N7805 X7.7614 Y-1.4015
N7810 X7.7106 Y-1.4084
N7815 X7.6596 Y-1.4138
N7820 X7.6085 Y-1.4182
N7825 X7.5574 Y-1.4217
N7830 G2 X7.3525 Y-1.4296 I-0.3141 J5.4589
N7835 X7.0449 Y-1.4332 I-0.3496 J16.7145
N7840 G1 X6.9936 Y-1.4335
N7845 X6.891 Y-1.4338
N7850 X6.7885 Y-1.434
N7855 X6.6347 Y-1.4341
N7860 X6.3271 Y-1.4342
N7865 X4.3274
N7870 X2.3278 Y-1.4341
N7875 X1.2511 Y-1.434
N7880 G2 X1.046 Y-1.4328 I-0.0354 J11.0031
N7885 G1 X0.9948 Y-1.4309
N7890 X0.9437 Y-1.4273
N7895 X0.8928 Y-1.4209
N7900 X0.8425 Y-1.411
N7905 X0.7932 Y-1.3968
N7910 X0.7455 Y-1.378
N7915 X0.6998 Y-1.3548
N7920 X0.6567 Y-1.3271
N7925 X0.6165 Y-1.2952
N7930 X0.5796 Y-1.2596
N7935 X0.5462 Y-1.2207
N7940 X0.5164 Y-1.1789
N7945 X0.4904 Y-1.1348
N7950 X0.4683 Y-1.0885
N7955 X0.4505 Y-1.0404
N7960 X0.4372 Y-0.9909
N7965 X0.4293 Y-0.9403
N7970 X0.4271 Y-0.889
N7975 X0.4311 Y-0.8379
N7980 X0.4414 Y-0.7877
N7985 X0.4578 Y-0.7391
N7990 X0.4799 Y-0.6929
N7995 X0.5073 Y-0.6495
N8000 X0.5395 Y-0.6096
N8005 X0.5757 Y-0.5733
N8010 X0.6153 Y-0.5408
N8015 X0.6578 Y-0.5121
N8020 X0.7026 Y-0.4871
N8025 X0.7491 Y-0.4655
N8030 X0.797 Y-0.4472
N8035 X0.8459 Y-0.4318
N8040 X0.8955 Y-0.4189
N8045 X0.9457 Y-0.4083
N8050 X0.9962 Y-0.3996
N8055 X1.047 Y-0.3926
N8060 X1.098 Y-0.3869
N8065 X1.149 Y-0.3824
N8070 X1.2002 Y-0.3788
N8075 G2 X1.4051 Y-0.3706 I0.3161 J-5.3023
N8080 X1.764 Y-0.3666 I0.3777 J-17.7527
N8085 G1 X1.8152 Y-0.3663
N8090 X1.9178 Y-0.3661
N8095 X1.9691 Y-0.366
N8100 X2.1229 Y-0.3658
N8105 X2.4305 Y-0.3657
N8110 X3.9687
N8115 X5.9683
N8120 X7.4552
N8125 G2 X7.6602 Y-0.367 I0.035 J-10.5545
N8130 G1 X7.7115 Y-0.369
N8135 X7.7626 Y-0.3728
N8140 X7.8135 Y-0.3794
N8145 X7.8637 Y-0.3896
N8150 X7.9129 Y-0.404
N8155 X7.9606 Y-0.4229
N8160 X8.0062 Y-0.4463
N8165 X8.0492 Y-0.4743
N8170 X8.0892 Y-0.5063
N8175 X8.1259 Y-0.5421
N8180 X8.159 Y-0.5812
N8185 X8.1884 Y-0.6233
N8190 X8.2137 Y-0.6679
N8195 X8.2344 Y-0.7148
N8200 X8.25 Y-0.7636
N8205 X8.26 Y-0.8139
N8210 X8.2636 Y-0.865
N8215 X8.2606 Y-0.9162
N8220 X8.2511 Y-0.9666
N8225 X8.2352 Y-1.0153
N8230 X8.2132 Y-1.0617
N8235 X8.1858 Y-1.105
N8240 X8.1536 Y-1.1449
N8245 X8.1172 Y-1.181
N8250 X8.0774 Y-1.2133
N8255 X8.0348 Y-1.2418
N8260 X7.9899 Y-1.2665
N8265 X7.9432 Y-1.2877
N8270 X7.8951 Y-1.3057
N8275 X7.8461 Y-1.3207
N8280 X7.7964 Y-1.3332
N8285 X7.7462 Y-1.3434
N8290 X7.6956 Y-1.3518
N8295 X7.6447 Y-1.3586
N8300 X7.5938 Y-1.364
N8305 X7.5427 Y-1.3683
N8310 X7.4915 Y-1.3718
N8315 G2 X7.2866 Y-1.3796 I-0.3145 J5.5206
N8320 X7.0815 Y-1.3826 I-0.2993 J13.6625
N8325 G1 X7.0303 Y-1.383
N8330 X6.979 Y-1.3833
N8335 X6.9277 Y-1.3835
N8340 X6.8252 Y-1.3838
N8345 X6.7226 Y-1.384
N8350 X6.5688 Y-1.3841
N8355 X6.2612 Y-1.3842
N8360 X5.0819
N8365 X3.0823 Y-1.3841
N8370 X1.3391 Y-1.384
N8375 G2 X1.134 Y-1.3833 I-0.0355 J17.6697
N8380 G1 X1.0827 Y-1.3821
N8385 X1.0315 Y-1.3796
N8390 X0.9804 Y-1.3751
N8395 X0.9297 Y-1.3675
N8400 X0.8797 Y-1.3562
N8405 X0.8309 Y-1.3406
N8410 X0.7838 Y-1.3204
N8415 X0.7388 Y-1.2957
N8420 X0.6966 Y-1.2666
N8425 X0.6575 Y-1.2335
N8430 X0.6219 Y-1.1966
N8435 X0.5902 Y-1.1563
N8440 X0.5629 Y-1.1129
N8445 X0.5406 Y-1.0667
N8450 X0.5241 Y-1.0182
N8455 X0.514 Y-0.9679
N8460 X0.5108 Y-0.9167
N8465 X0.5147 Y-0.8656
N8470 X0.5254 Y-0.8155
N8475 X0.5427 Y-0.7672
N8480 X0.5662 Y-0.7216
N8485 X0.595 Y-0.6792
N8490 X0.6286 Y-0.6405
N8495 X0.6662 Y-0.6056
N8500 X0.7071 Y-0.5747
N8505 X0.7507 Y-0.5477
N8510 X0.7963 Y-0.5244
N8515 X0.8436 Y-0.5045
N8520 X0.8921 Y-0.4877
N8525 X0.9414 Y-0.4738
N8530 X0.9913 Y-0.4622
N8535 X1.0417 Y-0.4528
N8540 X1.0924 Y-0.4451
N8545 X1.1433 Y-0.4389
N8550 X1.1944 Y-0.434
N8555 X1.2455 Y-0.4301
N8560 G2 X1.4504 Y-0.4211 I0.3163 J-4.8621
N8565 X1.758 Y-0.4169 I0.3536 J-14.7778
N8570 G1 X1.8092 Y-0.4166
N8575 X1.8605 Y-0.4164
N8580 X1.9631 Y-0.4161
N8585 X2.1169 Y-0.4159
N8590 X2.322 Y-0.4158
N8595 X2.8859 Y-0.4157
N8600 X3.4499
N8605 X5.4495
N8610 X7.3979
N8615 X7.4492 Y-0.4158
N8620 X7.5004 Y-0.4159
N8625 X7.5517 Y-0.4163
N8630 X7.603 Y-0.4171
N8635 X7.6542 Y-0.4191
N8640 X7.7053 Y-0.4228
N8645 X7.7562 Y-0.4292
N8650 X7.8065 Y-0.4392
N8655 X7.8558 Y-0.4533
N8660 X7.9036 Y-0.4718
N8665 X7.9494 Y-0.4949
N8670 X7.9925 Y-0.5226
N8675 X8.0327 Y-0.5545
N8680 X8.0693 Y-0.5904
N8685 X8.1017 Y-0.6301
N8690 X8.1291 Y-0.6734
N8695 X8.1506 Y-0.72
N8700 X8.1655 Y-0.769
N8705 X8.1731 Y-0.8197
N8710 X8.1732 Y-0.871
N8715 X8.1659 Y-0.9218
N8720 X8.1515 Y-0.971
N8725 X8.1305 Y-1.0178
N8730 X8.1037 Y-1.0614
N8735 X8.0716 Y-1.1015
N8740 X8.0353 Y-1.1376
N8745 X7.9953 Y-1.1697
N8750 X7.9524 Y-1.1978
N8755 X7.9072 Y-1.222
N8760 X7.8603 Y-1.2427
N8765 X7.812 Y-1.2601
N8770 X7.7629 Y-1.2746
N8775 X7.713 Y-1.2865
N8780 X7.6627 Y-1.2963
N8785 X7.612 Y-1.3042
N8790 X7.5611 Y-1.3105
N8795 X7.5101 Y-1.3156
N8800 X7.459 Y-1.3196
N8805 X7.4078 Y-1.3228
N8810 X7.3566 Y-1.3253
N8815 G2 X7.1003 Y-1.3317 I-0.3348 J8.3081
N8820 X6.844 Y-1.3336 I-0.322 J26.6308
N8825 G1 X6.7414 Y-1.3338
N8830 X6.6389 Y-1.334
N8835 X6.4851 Y-1.3341
N8840 X6.1774 Y-1.3342
N8845 X5.3571
N8850 X3.3575 Y-1.3341
N8855 X1.4092
N8860 X1.3579 Y-1.334
N8865 G2 X1.1528 Y-1.3325 I-0.0301 J9.463
N8870 G1 X1.1016 Y-1.3305
N8875 X1.0504 Y-1.3266
N8880 X0.9996 Y-1.32
N8885 X0.9493 Y-1.3099
N8890 X0.9001 Y-1.2957
N8895 X0.8523 Y-1.277
N8900 X0.8066 Y-1.2537
N8905 X0.7637 Y-1.2258
N8910 X0.724 Y-1.1933
N8915 X0.6885 Y-1.1562
N8920 X0.6583 Y-1.1148
N8925 X0.6344 Y-1.0695
N8930 X0.6177 Y-1.021
N8935 X0.6089 Y-0.9705
N8940 X0.608 Y-0.9192
N8945 X0.615 Y-0.8684
N8950 X0.6294 Y-0.8192
N8955 X0.6507 Y-0.7726
N8960 X0.678 Y-0.7292
N8965 X0.7106 Y-0.6896
N8970 X0.7475 Y-0.654
N8975 X0.788 Y-0.6226
N8980 X0.8314 Y-0.5953
N8985 X0.877 Y-0.5718
N8990 X0.9242 Y-0.5519
N8995 X0.9727 Y-0.5352
N9000 X1.0221 Y-0.5214
N9005 X1.0721 Y-0.5101
N9010 X1.1225 Y-0.5009
N9015 X1.1733 Y-0.4935
N9020 X1.2242 Y-0.4876
N9025 X1.2753 Y-0.4829
N9030 X1.3264 Y-0.4792
N9035 X1.3776 Y-0.4762
N9040 X1.4288 Y-0.4739
N9045 G2 X1.6851 Y-0.4681 I0.3344 J-9.0216
N9050 X1.9414 Y-0.4663 I0.3233 J-29.0737
N9055 G1 X2.044 Y-0.4661
N9060 X2.1978 Y-0.4659
N9065 X2.4029 Y-0.4658
N9070 X3.0182 Y-0.4657
N9075 X3.4283
N9080 X5.4279
N9085 X7.325
N9090 X7.3763 Y-0.4658
N9095 X7.4276 Y-0.4659
N9100 X7.4788 Y-0.4662
N9105 X7.5301 Y-0.4668
N9110 X7.5813 Y-0.4684
N9115 X7.6325 Y-0.4714
N9120 X7.6835 Y-0.4768
N9125 X7.7341 Y-0.4853
N9130 X7.7838 Y-0.4978
N9135 X7.8322 Y-0.5147
N9140 X7.8787 Y-0.5363
N9145 X7.9226 Y-0.5627
N9150 X7.963 Y-0.5943
N9155 X7.9986 Y-0.6313
N9160 X8.028 Y-0.6732
N9165 X8.05 Y-0.7196
N9170 X8.0639 Y-0.7689
N9175 X8.0692 Y-0.8199
N9180 X8.0661 Y-0.8711
N9185 X8.0549 Y-0.9211
N9190 X8.0363 Y-0.9689
N9195 X8.0111 Y-1.0135
N9200 X7.9802 Y-1.0544
N9205 X7.9445 Y-1.0913
N9210 X7.9049 Y-1.1238
N9215 X7.8621 Y-1.1521
N9220 X7.817 Y-1.1764
N9225 X7.77 Y-1.1969
N9230 X7.7217 Y-1.214
N9235 X7.6724 Y-1.2282
N9240 X7.6224 Y-1.2397
N9245 X7.572 Y-1.2491
N9250 X7.5213 Y-1.2566
N9255 X7.4704 Y-1.2625
N9260 X7.4193 Y-1.2673
N9265 X7.3682 Y-1.271
N9270 G2 X7.1633 Y-1.2794 I-0.3104 J5.0753
N9275 G1 X7.112 Y-1.2805
N9280 G2 X6.7531 Y-1.2836 I-0.391 J24.2451
N9285 G1 X6.6506 Y-1.2839
N9290 X6.4968 Y-1.2841
N9295 X6.2404 Y-1.2842
N9300 X5.3688
N9305 X5.1124
N9310 X3.1128 Y-1.2841
N9315 X1.4721
N9320 X1.3696 Y-1.284
N9325 X1.3183 Y-1.2838
N9330 X1.267 Y-1.2834
N9335 X1.2158 Y-1.2826
N9340 X1.1645 Y-1.2808
N9345 X1.1134 Y-1.2772
N9350 X1.0625 Y-1.2712
N9355 X1.0121 Y-1.2617
N9360 X0.9626 Y-1.2482
N9365 X0.9146 Y-1.2301
N9370 X0.869 Y-1.2068
N9375 X0.8269 Y-1.1775
N9380 X0.7902 Y-1.1417
N9385 X0.7604 Y-1.1
N9390 X0.7388 Y-1.0535
N9395 X0.7261 Y-1.0038
N9400 X0.7226 Y-0.9526
N9405 X0.7279 Y-0.9016
N9410 X0.7415 Y-0.8522
N9415 X0.7625 Y-0.8054
N9420 X0.79 Y-0.7622
N9425 X0.8231 Y-0.723
N9430 X0.8607 Y-0.6882
N9435 X0.902 Y-0.6577
N9440 X0.9461 Y-0.6316
N9445 X0.9923 Y-0.6094
N9450 X1.0401 Y-0.5908
N9455 X1.089 Y-0.5756
N9460 X1.1388 Y-0.5632
N9465 X1.1891 Y-0.5531
N9470 X1.2397 Y-0.5451
N9475 X1.2906 Y-0.5387
N9480 X1.3416 Y-0.5337
N9485 X1.3927 Y-0.5297
N9490 X1.4439 Y-0.5266
N9495 G2 X1.6489 Y-0.5197 I0.307 J-6.0485
N9500 X1.9565 Y-0.5166 I0.3491 J-19.4824
N9505 G1 X2.0077 Y-0.5163
N9510 X2.1103 Y-0.5161
N9515 X2.2641 Y-0.5159
N9520 X2.4692 Y-0.5158
N9525 X3.0332 Y-0.5157
N9530 X3.9561
N9535 X5.9557
N9540 X7.2375
N9545 G2 X7.4426 Y-0.5164 I0.0335 J-20.9087
N9550 G1 X7.4938 Y-0.5174
N9555 X7.5451 Y-0.5194
N9560 X7.5962 Y-0.5231
N9565 X7.6471 Y-0.5295
N9570 X7.6974 Y-0.5395
N9575 X7.7466 Y-0.5537
N9580 X7.794 Y-0.5733
N9585 X7.8378 Y-0.6
N9590 X7.8758 Y-0.6344
N9595 X7.9061 Y-0.6758
N9600 X7.9274 Y-0.7224
N9605 X7.939 Y-0.7723
N9610 X7.941 Y-0.8236
N9615 X7.9337 Y-0.8743
N9620 X7.918 Y-0.9231
N9625 X7.8948 Y-0.9689
N9630 X7.8652 Y-1.0107
N9635 X7.8303 Y-1.0482
N9640 X7.791 Y-1.0812
N9645 X7.7483 Y-1.1096
N9650 X7.7031 Y-1.1338
N9655 X7.6559 Y-1.1539
N9660 X7.6074 Y-1.1705
N9665 X7.558 Y-1.184
N9670 X7.5078 Y-1.1949
N9675 X7.4573 Y-1.2035
N9680 X7.4065 Y-1.2103
N9685 X7.3555 Y-1.2157
N9690 X7.3044 Y-1.2199
N9695 X7.2532 Y-1.2231
N9700 G2 X7.0483 Y-1.2303 I-0.302 J5.7152
N9705 X6.6894 Y-1.2336 I-0.3848 J22.1319
N9710 G1 X6.5868 Y-1.2339
N9715 X6.433 Y-1.2341
N9720 X6.2792
N9725 X5.8178 Y-1.2342
N9730 X4.2796
N9735 X2.28 Y-1.2341
N9740 X1.5109 Y-1.234
N9745 G2 X1.3058 Y-1.2332 I-0.0296 J17.6735
N9750 G1 X1.2546 Y-1.232
N9755 X1.2034 Y-1.2297
N9760 X1.1522 Y-1.2256
N9765 X1.1015 Y-1.2185
N9770 X1.0513 Y-1.2077
N9775 X1.0029 Y-1.1908
N9780 X0.9588 Y-1.1647
N9785 X0.9217 Y-1.1293
N9790 X0.8935 Y-1.0865
N9795 X0.8754 Y-1.0385
N9800 X0.8678 Y-0.9878
N9805 X0.8701 Y-0.9366
N9810 X0.8818 Y-0.8867
N9815 X0.9018 Y-0.8395
N9820 X0.9289 Y-0.796
N9825 X0.9621 Y-0.7569
N9830 X1.0001 Y-0.7224
N9835 X1.0419 Y-0.6927
N9840 X1.0865 Y-0.6675
N9845 X1.1333 Y-0.6466
N9850 X1.1817 Y-0.6294
N9855 X1.231 Y-0.6156
N9860 X1.2811 Y-0.6045
N9865 X1.3316 Y-0.5958
N9870 X1.3824 Y-0.5889
N9875 X1.4334 Y-0.5836
N9880 X1.4845 Y-0.5794
N9885 X1.5357 Y-0.5763
N9890 G2 X1.7407 Y-0.5694 I0.2966 J-5.8038
N9895 X2.0995 Y-0.5663 I0.3829 J-23.404
N9900 G1 X2.2021 Y-0.566
N9905 X2.3559 Y-0.5659
N9910 X2.6123 Y-0.5657
N9915 X3.125
N9920 X5.1246
N9925 X7.1242
N9930 X7.2267
N9935 G2 X7.4318 Y-0.5672 I0.028 J-10.4673
N9940 G1 X7.4831 Y-0.569
N9945 X7.5342 Y-0.5725
N9950 X7.5851 Y-0.5786
N9955 X7.6102 Y-0.5839
N9960 X7.6345 Y-0.5922
N9965 X7.6576 Y-0.6032
N9970 X7.6793 Y-0.6169
N9975 X7.6992 Y-0.633
N9980 X7.717 Y-0.6514
N9985 X7.7326 Y-0.6718
N9990 X7.7457 Y-0.6939
N9995 X7.756 Y-0.7173
N10000 X7.7635 Y-0.7418
N10005 X7.7681 Y-0.7671
N10010 X7.7696 Y-0.7927
N10015 X7.7666 Y-0.8438
N10020 X7.7523 Y-0.8931
N10025 X7.7295 Y-0.939
N10030 X7.6998 Y-0.9808
N10035 X7.6643 Y-1.0178
N10040 X7.6244 Y-1.0499
N10045 X7.5809 Y-1.0772
N10050 X7.5349 Y-1.0998
N10055 X7.4871 Y-1.1184
N10060 X7.4381 Y-1.1332
N10065 X7.3882 Y-1.145
N10070 X7.3377 Y-1.1542
N10075 X7.2869 Y-1.1614
N10080 X7.236 Y-1.1668
N10085 X7.1849 Y-1.171
N10090 X7.1337 Y-1.1742
N10095 G2 X6.9287 Y-1.1809 I-0.2876 J5.6946
N10100 X6.7237 Y-1.1831 I-0.2812 J16.4176
N10105 G1 X6.6724 Y-1.1834
N10110 X6.6211 Y-1.1836
N10115 X6.5186 Y-1.1838
N10120 X6.3647 Y-1.184
N10125 X6.1597 Y-1.1842
N10130 X5.5957
N10135 X4.724
N10140 X2.7244 Y-1.1841
N10145 X2.6732
N10150 G3 X2.4157 Y-1.1803 I-0.2753 J-9.9964
N10155 G1 X2.3644 Y-1.18
N10160 X2.3132 Y-1.1799
N10165 X2.2106 Y-1.1797
N10170 X2.0568 Y-1.1796
N10175 X1.5441 Y-1.1795
N10180 G2 X1.339 Y-1.1782 I-0.027 J11.4003
N10185 G1 X1.2878 Y-1.1765
N10190 X1.2366 Y-1.1734
N10195 X1.2116 Y-1.1676
N10200 X1.1875 Y-1.1589
N10205 X1.1646 Y-1.1475
N10210 X1.1432 Y-1.1333
N10215 X1.1236 Y-1.1168
N10220 X1.1061 Y-1.0981
N10225 X1.0909 Y-1.0774
N10230 X1.0783 Y-1.0551
N10235 X1.0684 Y-1.0314
N10240 X1.0614 Y-1.0068
N10245 X1.0573 Y-0.9815
N10250 X1.0562 Y-0.9559
N10255 X1.0582 Y-0.9303
N10260 X1.0632 Y-0.9052
N10265 X1.0711 Y-0.8808
N10270 X1.0819 Y-0.8575
N10275 X1.0953 Y-0.8357
N10280 X1.1271 Y-0.7954
N10285 X1.166 Y-0.7621
N10290 X1.2078 Y-0.7324
N10295 X1.2527 Y-0.7075
N10300 X1.2997 Y-0.6872
N10305 X1.3483 Y-0.6707
N10310 X1.3979 Y-0.6577
N10315 X1.4482 Y-0.6476
N10320 X1.4988 Y-0.6398
N10325 X1.5498 Y-0.6339
N10330 X1.6008 Y-0.6294
N10335 X1.652 Y-0.626
N10340 G2 X1.857 Y-0.6191 I0.2811 J-5.2661
N10345 X2.1646 Y-0.6163 I0.3412 J-21.2111
N10350 G1 X2.2671 Y-0.6161
N10355 X2.4209 Y-0.6159
N10360 X2.6773 Y-0.6157
N10365 X3.0875
N10370 X5.0871
N10375 X7.0867
N10380 X7.138
N10385 X7.1687 Y-0.6166
N10390 X7.1923 Y-0.6172
N10395 X7.2235 Y-0.6179
N10400 X7.326 Y-0.6198
N10405 X7.3516 Y-0.6205
N10410 X7.3772 Y-0.6213
N10415 X7.4026 Y-0.6251
N10420 X7.4273 Y-0.6319
N10425 X7.451 Y-0.6416
N10430 X7.4735 Y-0.654
N10435 X7.4943 Y-0.669
N10440 X7.5132 Y-0.6864
N10445 X7.5299 Y-0.7058
N10450 X7.5442 Y-0.7271
N10455 X7.5559 Y-0.7499
N10460 X7.5648 Y-0.7739
N10465 X7.5708 Y-0.7989
N10470 X7.5738 Y-0.8243
N10475 Y-0.8499
N10480 X7.5707 Y-0.8754
N10485 X7.5647 Y-0.9003
N10490 X7.5558 Y-0.9244
N10495 X7.5441 Y-0.9472
N10500 X7.5298 Y-0.9684
N10505 X7.5131 Y-0.9879
N10510 X7.4942 Y-1.0052
N10515 X7.4525 Y-1.0351
N10520 X7.4053 Y-1.0551
N10525 X7.3567 Y-1.0714
N10530 X7.3071 Y-1.0845
N10535 X7.2569 Y-1.095
N10540 X7.2063 Y-1.1031
N10545 X7.1554 Y-1.1095
N10550 X7.1044 Y-1.1144
N10555 X7.0533 Y-1.1181
N10560 X7.0021 Y-1.1209
N10565 G2 X6.7971 Y-1.1268 I-0.2855 J6.3474
N10570 X6.4895 Y-1.1292 I-0.3417 J24.5867
N10575 G1 X6.3869 Y-1.1294
N10580 X6.3356 Y-1.1295
N10585 X6.2844
N10590 G2 X6.0793 Y-1.1333 I-0.2317 J7.1141
N10595 G1 X6.0281 Y-1.1336
N10600 X5.9768 Y-1.1338
N10605 X5.9255 Y-1.1339
N10610 X5.823 Y-1.1341
N10615 X5.6179 Y-1.1342
N10620 X4.3361
N10625 X2.7979 Y-1.1341
N10630 X2.7467 Y-1.1338
N10635 X2.6954 Y-1.1333
N10640 X2.5928 Y-1.132
N10645 G3 X2.3365 Y-1.1302 I-0.3548 J-31.1852
N10650 G1 X2.2852 Y-1.13
N10655 X2.1827 Y-1.1298
N10660 X2.0289 Y-1.1297
N10665 X1.6187 Y-1.1295
N10670 X1.5674
N10675 X1.5193 Y-1.1293
N10680 G3 X1.4907 Y-1.1395 I0.0015 J-0.05
N10685 G1 X1.4862 Y-1.1428 Z1.0053
N10690 X1.4818 Y-1.1462 Z1.0063
N10695 X1.4775 Y-1.1494 Z1.0078
N10700 X1.4734 Y-1.1526 Z1.01
N10705 X1.4695 Y-1.1555 Z1.0127
N10710 X1.4658 Y-1.1583 Z1.0159
N10715 X1.4625 Y-1.1608 Z1.0196
N10720 X1.4595 Y-1.1631 Z1.0238
N10725 X1.4569 Y-1.165 Z1.0284
N10730 X1.4548 Y-1.1667 Z1.0333
N10735 X1.453 Y-1.168 Z1.0385
N10740 X1.4518 Y-1.1689 Z1.0439
N10745 X1.4511 Y-1.1695 Z1.0494
N10750 X1.4508 Y-1.1697 Z1.055
N10755 G0 Z1.482
N10760 G1 X7.1485 Y-1.19 F500.
N10765 G0 Z1.105
N10770 G1 Z1.055 F120.
N10775 X7.1486 Y-1.1897 Z1.0494
N10780 X7.1487 Y-1.1887 Z1.0439
N10785 X7.1489 Y-1.1872 Z1.0385
N10790 X7.1492 Y-1.1851 Z1.0333
N10795 X7.1495 Y-1.1824 Z1.0284
N10800 X7.1499 Y-1.1792 Z1.0238
N10805 X7.1504 Y-1.1755 Z1.0196
N10810 X7.1509 Y-1.1713 Z1.0159
N10815 X7.1515 Y-1.1668 Z1.0127
N10820 X7.1521 Y-1.1619 Z1.01
N10825 X7.1528 Y-1.1568 Z1.0078
N10830 X7.1535 Y-1.1514 Z1.0063
N10835 X7.1542 Y-1.1459 Z1.0053
N10840 X7.1549 Y-1.1404 Z1.005
N10845 G3 X7.1554 Y-1.1095 I-0.1424 J0.0181
N10850 G1 X7.1547 Y-1.1031
N10855 G3 X7.1083 Y-1.091 I-0.0868 J-0.2364
N10860 X7.0309 Y-1.0815 I-0.1228 J-0.6869
N10865 X6.9037 Y-1.076 I-0.1551 J-2.1038
N10870 X6.713 Y-1.0744 I-0.1653 J-8.3739
N10875 G1 X6.6617
N10880 X6.4053 Y-1.0748
N10885 G3 X6.2003 Y-1.0773 I0.222 J-26.8799
N10890 G2 X5.8926 Y-1.0793 I-0.3726 J34.1454
N10895 G1 X5.7901 Y-1.0795
N10900 X5.6363 Y-1.0796
N10905 X5.2774 Y-1.0797
N10910 X5.1748
N10915 X3.1752 Y-1.0796
N10920 X2.9189
N10925 G2 X2.7138 Y-1.0786 I0.0028 J21.3981
N10930 G1 X2.56 Y-1.0772
N10935 X2.4318 Y-1.0763
N10940 X2.3036 Y-1.0757
N10945 X2.2011 Y-1.0755
N10950 X2.0985 Y-1.0753
N10955 X1.9447 Y-1.0752
N10960 X1.7653 Y-1.0751
N10965 G3 X1.7366 Y-1.0853 I0.0017 J-0.05
N10970 G1 X1.7322 Y-1.0887 Z1.0053
N10975 X1.7278 Y-1.0921 Z1.0063
N10980 X1.7235 Y-1.0954 Z1.0078
N10985 X1.7194 Y-1.0985 Z1.01
N10990 X1.7155 Y-1.1015 Z1.0127
N10995 X1.7118 Y-1.1043 Z1.0159
N11000 X1.7085 Y-1.1068 Z1.0196
N11005 X1.7056 Y-1.1091 Z1.0238
N11010 X1.703 Y-1.1111 Z1.0284
N11015 X1.7008 Y-1.1127 Z1.0333
N11020 X1.6991 Y-1.114 Z1.0385
N11025 X1.6979 Y-1.115 Z1.0439
N11030 X1.6971 Y-1.1155 Z1.0494
N11035 X1.6969 Y-1.1157 Z1.055
N11040 G0 Z1.882

(Face3)
N11045 G1 X7.7258 Y0.379 F500.
N11050 G0 Z1.882
N11055 Z1.3
N11060 G1 Z1.05 F13.333
N11065 X7.7261 Y0.3788 Z1.0444 F30.
N11070 X7.7268 Y0.3783 Z1.0389
N11075 X7.7281 Y0.3773 Z1.0335
N11080 X7.7298 Y0.3761 Z1.0283
N11085 X7.732 Y0.3745 Z1.0234
N11090 X7.7346 Y0.3726 Z1.0188
N11095 X7.7376 Y0.3704 Z1.0146
N11100 X7.741 Y0.3679 Z1.0109
N11105 X7.7447 Y0.3652 Z1.0077
N11110 X7.7487 Y0.3623 Z1.005
N11115 X7.7529 Y0.3593 Z1.0028
N11120 X7.7572 Y0.3561 Z1.0013
N11125 X7.7617 Y0.3528 Z1.0003
N11130 X7.7662 Y0.3495 Z1.
N11135 X9.0164 Y-0.5621
N11140 X9.024 Y-0.5677
N11145 G2 X8.8217 Y-0.8452 I-0.1012 J-0.1387
N11150 G1 X7.1833 Y0.3495
N11155 X6.8028 Y0.627
N11160 G3 X6.6005 Y0.3495 I-0.1012 J-0.1387
N11165 G1 X8.6106 Y-1.1163
N11170 G2 X8.4082 Y-1.3938 I-0.1012 J-0.1387
N11175 G1 X8.2065 Y-1.2467
N11180 X6.0176 Y0.3495
N11185 X5.637 Y0.627
N11190 G3 X5.4347 Y0.3495 I-0.1012 J-0.1387
N11195 G1 X7.7225 Y-1.3188
N11200 G2 X7.5202 Y-1.5963 I-0.1012 J-0.1387
N11205 G1 X7.2385 Y-1.3909
N11210 X4.8518 Y0.3495
N11215 X4.4713 Y0.627
N11220 G3 X4.2689 Y0.3495 I-0.1012 J-0.1387
N11225 G1 X5.6055 Y-0.6251
N11230 X5.6226 Y-0.6376
N11235 X6.7545 Y-1.463
N11240 G2 X6.5522 Y-1.7405 I-0.1012 J-0.1387
N11245 G1 X6.2706 Y-1.5351
N11250 X5.1386 Y-0.7097
N11255 X5.0227 Y-0.6251
N11260 X3.6861 Y0.3495
N11265 X3.3055 Y0.627
N11270 G3 X3.1032 Y0.3495 I-0.1012 J-0.1387
N11275 G1 X4.4398 Y-0.6251
N11280 X4.6546 Y-0.7818
N11285 X5.7866 Y-1.6072
N11290 G2 X5.5842 Y-1.8847 I-0.1012 J-0.1387
N11295 G1 X5.3026 Y-1.6793
N11300 X4.1706 Y-0.8539
N11305 X3.8569 Y-0.6251
N11310 X2.5203 Y0.3495
N11315 X2.1398 Y0.627
N11320 G3 X1.9374 Y0.3495 I-0.1012 J-0.1387
N11325 G1 X4.8186 Y-1.7514
N11330 G2 X4.6162 Y-2.0289 I-0.1012 J-0.1387
N11335 G1 X4.3346 Y-1.8235
N11340 X1.3546 Y0.3495
N11345 X0.974 Y0.627
N11350 G3 X0.7717 Y0.3495 I-0.1012 J-0.1387
N11355 G1 X2.1822 Y-0.679
N11360 X2.6038 Y-0.9864
N11365 X3.8506 Y-1.8956
N11370 G2 X3.6482 Y-2.1731 I-0.1012 J-0.1387
N11375 G1 X3.3666 Y-1.9677
N11380 X0.2095 Y0.3344
N11385 G3 X0.0072 Y0.0569 I-0.1012 J-0.1387
N11390 G1 X2.8826 Y-2.0399
N11395 X2.8871 Y-2.0432 Z1.0003
N11400 X2.8916 Y-2.0464 Z1.0013
N11405 X2.8959 Y-2.0496 Z1.0028
N11410 X2.9001 Y-2.0526 Z1.005
N11415 X2.9041 Y-2.0555 Z1.0077
N11420 X2.9078 Y-2.0582 Z1.0109
N11425 X2.9112 Y-2.0607 Z1.0146
N11430 X2.9142 Y-2.0629 Z1.0188
N11435 X2.9168 Y-2.0648 Z1.0234
N11440 X2.919 Y-2.0664 Z1.0283
N11445 X2.9207 Y-2.0677 Z1.0335
N11450 X2.922 Y-2.0686 Z1.0389
N11455 X2.9228 Y-2.0691 Z1.0444
N11460 X2.923 Y-2.0693 Z1.05
N11465 G0 Z1.882

N11470 M5
N11475 M9
N11480 G53 G0 Z0.
N11485 X4.3526
N11490 G53 G0 Y0.
N11495 M30

%
