%
O01003
(Using high feed G1 F500. instead of G0.)
(T1 D=0.5 CR=0. - ZMIN=-0.096 - flat end mill)
(T2 D=0.1875 CR=0. TAPER=118deg - ZMIN=0.0862 - center drill)
(T3 D=0.257 CR=0. TAPER=118deg - ZMIN=-0.2022 - drill)
(T5 D=0.375 CR=0. - ZMIN=-0.02 - flat end mill)
(T6 D=0.5 CR=0.03 - ZMIN=0.0787 - bullnose end mill)
N10 G90 G17
N15 G20
N20 G53 G0 Z0.

(2D Contour12)
N25 T1 M6
N30 S10000 M3
N35 G54
N40 G17 G90
N45 M8
N50 G1 X0.3256 Y-1.409 F500.
N55 G0 G43 Z2.485 H1
N60 T5
N65 G0 Z1.95
N70 G1 Z1.7894 F13.333
N75 Z-0.046
N80 G19 G3 Y-1.359 Z-0.096 J0.05 K0. F30.
N85 G1 Y-1.309
N90 G17 G3 X0.2756 Y-1.259 I-0.05 J0.
N95 G2 X-0.259 Y-0.7244 I0. J0.5346
N100 G1 Y-0.2756
N105 G2 X0.2756 Y0.259 I0.5346 J0.
N110 G3 X0.3256 Y0.309 I0. J0.05
N115 G1 Y0.359
N120 G19 G3 Y0.409 Z-0.046 J0. K0.05
N125 G0 Z2.085
N130 Y-1.404
N135 Z1.95
N140 G1 Z1.7894 F13.333
N145 Z-0.046
N150 G3 Y-1.354 Z-0.096 J0.05 K0. F30.
N155 G1 Y-1.304
N160 G17 G3 X0.2756 Y-1.254 I-0.05 J0.
N165 G2 X-0.254 Y-0.7244 I0. J0.5296
N170 G1 Y-0.2756
N175 G2 X0.2756 Y0.254 I0.5296 J0.
N180 G3 X0.3256 Y0.304 I0. J0.05
N185 G1 Y0.354
N190 G19 G3 Y0.404 Z-0.046 J0. K0.05
N195 G0 Z2.485
N200 M9
N205 M5
N210 G53 G0 Z0.

(Adaptive6)
N215 M1
N220 T5 M6
N225 S10000 M3
N230 G54
N235 G17 G90
N240 M8
N245 G1 X0.2693 Y-0.6085 F500.
N250 G0 G43 Z2.485 H5
N255 T6
N260 G1 Z2.085 F500.
N265 Z0.825
N270 Z0.7875 F96.
N275 X0.2696 Z0.783
N280 X0.2704 Y-0.6088 Z0.7785
N285 X0.2717 Y-0.6091 Z0.7742
N290 X0.2735 Y-0.6095 Z0.7701
N295 X0.2757 Y-0.6101 Z0.7662
N300 X0.2785 Y-0.6108 Z0.7626
N305 X0.2816 Y-0.6116 Z0.7594
N310 X0.285 Y-0.6125 Z0.7566
N315 X0.2888 Y-0.6135 Z0.7543
N320 X0.2928 Y-0.6145 Z0.7524
N325 X0.297 Y-0.6156 Z0.7511
N330 X0.3013 Y-0.6167 Z0.7503
N335 X0.3056 Y-0.6178 Z0.75
N340 G3 X0.5098 Y-0.6471 I0.2376 J0.9274
N345 G1 X0.5131
N350 X0.5145
N355 X0.5167 Y-0.6415
N360 X0.5186 Y-0.6358
N365 X0.5203 Y-0.63
N370 X0.522 Y-0.6233
N375 X0.5239 Y-0.615
N380 X0.526 Y-0.6047
N385 X0.5282 Y-0.5919
N390 X0.5305 Y-0.5753
N395 X0.533 Y-0.5533
N400 X0.5356 Y-0.5218
N405 X0.5381 Y-0.4769
N410 X0.539 Y-0.4443
N415 X0.5381 Y-0.4286
N420 X0.5343 Y-0.4132
N425 X0.528 Y-0.3988
N430 X0.5192 Y-0.3857
N435 X0.5082 Y-0.3744
N440 X0.4953 Y-0.3652
N445 X0.4811 Y-0.3584
N450 X0.4659 Y-0.3543
N455 X0.4502 Y-0.3529
N460 G3 X0.414 Y-0.3916 Z0.758 I0.0013 J-0.0375
N465 G1 X0.4144 Y-0.3962
N470 X0.4154 Y-0.4007
N475 X0.4751 Y-0.6087
N480 X0.4783 Y-0.62 Z0.7564
N485 G3 X0.5131 Y-0.6471 Z0.75 I0.036 J0.0103
N490 G1 X0.5195
N495 X0.5209
N500 X0.5242 Y-0.6421
N505 X0.5272 Y-0.6369
N510 X0.5299 Y-0.6315
N515 X0.5325 Y-0.6261
N520 X0.5348 Y-0.6206
N525 X0.5372 Y-0.6143
N530 X0.5395 Y-0.6078
N535 X0.5421 Y-0.5999
N540 X0.5448 Y-0.5905
N545 X0.5474 Y-0.5806
N550 X0.5502 Y-0.5682
N555 X0.5532 Y-0.5532
N560 X0.556 Y-0.5368
N565 X0.5585 Y-0.5194
N570 X0.5599 Y-0.5066
N575 X0.5609 Y-0.495
N580 X0.5613 Y-0.4868
N585 X0.5615 Y-0.48
N590 Y-0.4722
N595 X0.5612 Y-0.4653
N600 X0.5609 Y-0.4594
N605 X0.5603 Y-0.4534
N610 X0.5596 Y-0.4474
N615 X0.5594 Y-0.446
N620 X0.5553 Y-0.4292
N625 X0.5486 Y-0.4132
N630 X0.5396 Y-0.3984
N635 X0.5283 Y-0.3852
N640 X0.5151 Y-0.3739
N645 X0.5003 Y-0.3649
N650 X0.4843 Y-0.3583
N655 X0.4674 Y-0.3542
N660 X0.4502 Y-0.3529
N665 G3 X0.414 Y-0.3916 Z0.758 I0.0013 J-0.0375
N670 X0.4157 Y-0.4016 I0.0375 J0.0013
N675 G1 X0.4812 Y-0.6088
N680 X0.4851 Y-0.621 Z0.7563
N685 G3 X0.5195 Y-0.6471 Z0.75 I0.0358 J0.0113
N690 G1 X0.5275
N695 X0.5289
N700 X0.5329 Y-0.6426
N705 X0.5366 Y-0.6379
N710 X0.5401 Y-0.633
N715 X0.5433 Y-0.628
N720 X0.5464 Y-0.6228
N725 X0.5492 Y-0.6175
N730 X0.552 Y-0.612
N735 X0.5547 Y-0.6062
N740 X0.5577 Y-0.5993
N745 X0.5605 Y-0.5922
N750 X0.5635 Y-0.584
N755 X0.5664 Y-0.5753
N760 X0.5692 Y-0.5662
N765 X0.5717 Y-0.557
N770 X0.5739 Y-0.5479
N775 X0.5758 Y-0.5389
N780 X0.5774 Y-0.5301
N785 X0.5787 Y-0.5216
N790 X0.5797 Y-0.5134
N795 X0.5804 Y-0.5056
N800 X0.5808 Y-0.4992
N805 X0.581 Y-0.493
N810 X0.5811 Y-0.4858
N815 X0.581 Y-0.4795
N820 X0.5807 Y-0.4735
N825 X0.5802 Y-0.4675
N830 X0.5795 Y-0.4615
N835 X0.5786 Y-0.4556
N840 X0.5775 Y-0.4497
N845 X0.5762 Y-0.4439
N850 X0.5753 Y-0.4405
N855 X0.5697 Y-0.4243
N860 X0.5618 Y-0.409
N865 X0.5518 Y-0.3951
N870 X0.5399 Y-0.3828
N875 X0.5263 Y-0.3723
N880 X0.5113 Y-0.3639
N885 X0.4953 Y-0.3578
N890 X0.4785 Y-0.3541
N895 X0.4614 Y-0.3529
N900 G3 X0.4252 Y-0.3916 Z0.758 I0.0013 J-0.0375
N905 G1 X0.4257 Y-0.3964
N910 X0.4268 Y-0.4011
N915 X0.4893 Y-0.6088
N920 X0.4929 Y-0.6205 Z0.7563
N925 G3 X0.5275 Y-0.6471 Z0.75 I0.0359 J0.0108
N930 G1 X0.5363
N935 X0.5377
N940 X0.5423 Y-0.6432
N945 X0.5466 Y-0.639
N950 X0.5506 Y-0.6345
N955 X0.5544 Y-0.6299
N960 X0.558 Y-0.6251
N965 X0.5614 Y-0.6201
N970 X0.5647 Y-0.6151
N975 X0.5677 Y-0.6099
N980 X0.5707 Y-0.6047
N985 X0.5735 Y-0.5991
N990 X0.5763 Y-0.5934
N995 X0.5791 Y-0.5872
N1000 X0.5817 Y-0.5808
N1005 X0.5843 Y-0.5741
N1010 X0.5867 Y-0.5672
N1015 X0.5888 Y-0.5603
N1020 X0.5908 Y-0.5534
N1025 X0.5926 Y-0.5463
N1030 X0.5942 Y-0.5393
N1035 X0.5955 Y-0.5323
N1040 X0.5967 Y-0.5255
N1045 X0.5976 Y-0.5188
N1050 X0.5983 Y-0.5121
N1055 X0.5988 Y-0.5055
N1060 X0.5991 Y-0.4991
N1065 X0.5992 Y-0.4931
N1070 Y-0.4871
N1075 X0.5989 Y-0.4811
N1080 X0.5985 Y-0.4747
N1085 X0.5979 Y-0.4688
N1090 X0.5971 Y-0.4628
N1095 X0.5961 Y-0.4569
N1100 X0.5949 Y-0.451
N1105 X0.5935 Y-0.4452
N1110 X0.5918 Y-0.4394
N1115 X0.59 Y-0.4337
N1120 X0.5822 Y-0.4166
N1125 X0.5719 Y-0.4009
N1130 X0.5593 Y-0.387
N1135 X0.5448 Y-0.3751
N1140 X0.5286 Y-0.3655
N1145 X0.5112 Y-0.3585
N1150 X0.4929 Y-0.3543
N1155 X0.4742 Y-0.3529
N1160 G3 X0.438 Y-0.3916 Z0.758 I0.0013 J-0.0375
N1165 G1 X0.4385 Y-0.3961
N1170 X0.4394 Y-0.4006
N1175 X0.4984 Y-0.6087
N1180 X0.5016 Y-0.6199 Z0.7564
N1185 G3 X0.5363 Y-0.6471 Z0.75 I0.0361 J0.0102
N1190 G1 X0.5468
N1195 X0.548
N1200 X0.5529 Y-0.6436
N1205 X0.5576 Y-0.6399
N1210 X0.562 Y-0.6358
N1215 X0.5662 Y-0.6315
N1220 X0.5702 Y-0.6271
N1225 X0.574 Y-0.6224
N1230 X0.5777 Y-0.6177
N1235 X0.5811 Y-0.6128
N1240 X0.5844 Y-0.6077
N1245 X0.5875 Y-0.6026
N1250 X0.5904 Y-0.5974
N1255 X0.5932 Y-0.5921
N1260 X0.5959 Y-0.5867
N1265 X0.5984 Y-0.5811
N1270 X0.6007 Y-0.5754
N1275 X0.603 Y-0.5695
N1280 X0.6051 Y-0.5635
N1285 X0.6071 Y-0.5573
N1290 X0.6089 Y-0.5511
N1295 X0.6105 Y-0.5449
N1300 X0.6119 Y-0.5386
N1305 X0.6131 Y-0.5324
N1310 X0.6142 Y-0.5261
N1315 X0.615 Y-0.5198
N1320 X0.6157 Y-0.5137
N1325 X0.6162 Y-0.5077
N1330 X0.6165 Y-0.5016
N1335 X0.6166 Y-0.4956
N1340 Y-0.4896
N1345 X0.6164 Y-0.4836
N1350 X0.616 Y-0.4776
N1355 X0.6154 Y-0.4717
N1360 X0.6146 Y-0.4657
N1365 X0.6136 Y-0.4598
N1370 X0.6124 Y-0.4539
N1375 X0.611 Y-0.4481
N1380 X0.6094 Y-0.4423
N1385 X0.6075 Y-0.4366
N1390 X0.6055 Y-0.431
N1395 X0.6032 Y-0.4254
N1400 X0.5947 Y-0.4099
N1405 X0.584 Y-0.3957
N1410 X0.5714 Y-0.3832
N1415 X0.5572 Y-0.3726
N1420 X0.5416 Y-0.3641
N1425 X0.525 Y-0.3579
N1430 X0.5076 Y-0.3541
N1435 X0.4899 Y-0.3529
N1440 G3 X0.4538 Y-0.3916 Z0.758 I0.0013 J-0.0375
N1445 G1 X0.4541 Y-0.3957
N1450 X0.455 Y-0.3997
N1455 X0.5091 Y-0.6086
N1460 X0.5118 Y-0.6191 Z0.7565
N1465 G3 X0.5468 Y-0.6471 Z0.75 I0.0363 J0.0094
N1470 G1 X0.5581
N1475 X0.5597
N1480 X0.5649 Y-0.644
N1485 X0.5698 Y-0.6405
N1490 X0.5745 Y-0.6368
N1495 X0.579 Y-0.6328
N1500 X0.5832 Y-0.6286
N1505 X0.5873 Y-0.6242
N1510 X0.5912 Y-0.6197
N1515 X0.5949 Y-0.6149
N1520 X0.5985 Y-0.6101
N1525 X0.6018 Y-0.6051
N1530 X0.605 Y-0.6
N1535 X0.608 Y-0.5948
N1540 X0.6108 Y-0.5895
N1545 X0.6135 Y-0.5842
N1550 X0.616 Y-0.5787
N1555 X0.6183 Y-0.5732
N1560 X0.6205 Y-0.5676
N1565 X0.6225 Y-0.5619
N1570 X0.6243 Y-0.5562
N1575 X0.626 Y-0.5504
N1580 X0.6276 Y-0.5445
N1585 X0.629 Y-0.5385
N1590 X0.6302 Y-0.5325
N1595 X0.6312 Y-0.5265
N1600 X0.632 Y-0.5205
N1605 X0.6327 Y-0.5146
N1610 X0.6332 Y-0.5086
N1615 X0.6335 Y-0.5026
N1620 X0.6337 Y-0.4966
N1625 X0.6336 Y-0.4906
N1630 X0.6334 Y-0.4846
N1635 X0.633 Y-0.4786
N1640 X0.6324 Y-0.4727
N1645 X0.6317 Y-0.4667
N1650 X0.6307 Y-0.4608
N1655 X0.6295 Y-0.4549
N1660 X0.6281 Y-0.4491
N1665 X0.6265 Y-0.4433
N1670 X0.6246 Y-0.4376
N1675 X0.6226 Y-0.4319
N1680 X0.6203 Y-0.4264
N1685 X0.6179 Y-0.4209
N1690 X0.6152 Y-0.4156
N1695 X0.605 Y-0.4001
N1700 X0.5926 Y-0.3864
N1705 X0.5783 Y-0.3747
N1710 X0.5624 Y-0.3653
N1715 X0.5452 Y-0.3584
N1720 X0.5272 Y-0.3543
N1725 X0.5088 Y-0.3529
N1730 G3 X0.4726 Y-0.3916 Z0.758 I0.0013 J-0.0375
N1735 G1 X0.4729 Y-0.3951
N1740 X0.4735 Y-0.3985
N1745 X0.5207 Y-0.6086
N1750 X0.5228 Y-0.6179 Z0.7567
N1755 G3 X0.5581 Y-0.6471 Z0.75 I0.0366 J0.0082
N1760 G1 X0.5693
N1765 X0.5731 Y-0.647
N1770 X0.5783 Y-0.6441
N1775 X0.5834 Y-0.6409
N1780 X0.5883 Y-0.6373
N1785 X0.5929 Y-0.6335
N1790 X0.5973 Y-0.6295
N1795 X0.6016 Y-0.6253
N1800 X0.6057 Y-0.6208
N1805 X0.6095 Y-0.6163
N1810 X0.6132 Y-0.6115
N1815 X0.6167 Y-0.6067
N1820 X0.62 Y-0.6017
N1825 X0.6232 Y-0.5966
N1830 X0.6262 Y-0.5913
N1835 X0.629 Y-0.586
N1840 X0.6316 Y-0.5806
N1845 X0.634 Y-0.5752
N1850 X0.6363 Y-0.5696
N1855 X0.6384 Y-0.564
N1860 X0.6404 Y-0.5583
N1865 X0.6422 Y-0.5526
N1870 X0.6438 Y-0.5468
N1875 X0.6452 Y-0.541
N1880 X0.6465 Y-0.5351
N1885 X0.6476 Y-0.5292
N1890 X0.6485 Y-0.5233
N1895 X0.6493 Y-0.5173
N1900 X0.6498 Y-0.5114
N1905 X0.6502 Y-0.5054
N1910 X0.6505 Y-0.4994
N1915 Y-0.4934
N1920 X0.6504 Y-0.4874
N1925 X0.65 Y-0.4814
N1930 X0.6495 Y-0.4754
N1935 X0.6488 Y-0.4695
N1940 X0.6479 Y-0.4635
N1945 X0.6469 Y-0.4576
N1950 X0.6456 Y-0.4518
N1955 X0.6441 Y-0.446
N1960 X0.6424 Y-0.4402
N1965 X0.6405 Y-0.4345
N1970 X0.6384 Y-0.4289
N1975 X0.636 Y-0.4234
N1980 X0.6334 Y-0.418
N1985 X0.6307 Y-0.4126
N1990 X0.6208 Y-0.3979
N1995 X0.6087 Y-0.3848
N2000 X0.5949 Y-0.3736
N2005 X0.5795 Y-0.3647
N2010 X0.563 Y-0.3582
N2015 X0.5457 Y-0.3542
N2020 X0.5279 Y-0.3529
N2025 G3 X0.4918 Y-0.3916 Z0.758 I0.0013 J-0.0375
N2030 G1 X0.492 Y-0.3945
N2035 X0.4924 Y-0.3973
N2040 X0.5322 Y-0.6085
N2045 X0.5338 Y-0.6166 Z0.7569
N2050 G3 X0.5693 Y-0.6471 Z0.75 I0.0368 J0.007
N2055 G1 X0.5816
N2060 X0.5876 Y-0.6468
N2065 X0.5929 Y-0.6441
N2070 X0.5981 Y-0.641
N2075 X0.603 Y-0.6376
N2080 X0.6077 Y-0.6339
N2085 X0.6123 Y-0.63
N2090 X0.6166 Y-0.6258
N2095 X0.6208 Y-0.6215
N2100 X0.6248 Y-0.617
N2105 X0.6285 Y-0.6124
N2110 X0.6321 Y-0.6076
N2115 X0.6356 Y-0.6026
N2120 X0.6388 Y-0.5976
N2125 X0.6419 Y-0.5924
N2130 X0.6447 Y-0.5872
N2135 X0.6474 Y-0.5818
N2140 X0.65 Y-0.5764
N2145 X0.6523 Y-0.5708
N2150 X0.6545 Y-0.5653
N2155 X0.6565 Y-0.5596
N2160 X0.6584 Y-0.5539
N2165 X0.66 Y-0.5481
N2170 X0.6615 Y-0.5423
N2175 X0.6629 Y-0.5365
N2180 X0.664 Y-0.5306
N2185 X0.665 Y-0.5247
N2190 X0.6658 Y-0.5187
N2195 X0.6664 Y-0.5127
N2200 X0.6669 Y-0.5068
N2205 X0.6672 Y-0.5008
N2210 X0.6673 Y-0.4948
N2215 X0.6672 Y-0.4888
N2220 X0.6669 Y-0.4828
N2225 X0.6665 Y-0.4768
N2230 X0.6658 Y-0.4708
N2235 X0.665 Y-0.4649
N2240 X0.664 Y-0.459
N2245 X0.6628 Y-0.4531
N2250 X0.6614 Y-0.4473
N2255 X0.6598 Y-0.4415
N2260 X0.6579 Y-0.4358
N2265 X0.6559 Y-0.4301
N2270 X0.6536 Y-0.4246
N2275 X0.6512 Y-0.4191
N2280 X0.6485 Y-0.4137
N2285 X0.6388 Y-0.3987
N2290 X0.6269 Y-0.3854
N2295 X0.6131 Y-0.3741
N2300 X0.5977 Y-0.365
N2305 X0.5811 Y-0.3583
N2310 X0.5637 Y-0.3542
N2315 X0.5459 Y-0.3529
N2320 G3 X0.5098 Y-0.3916 Z0.758 I0.0013 J-0.0375
N2325 G1 X0.5102 Y-0.3964
N2330 X0.5447 Y-0.6085
N2335 X0.5459 Y-0.6157 Z0.757
N2340 G3 X0.5816 Y-0.6471 Z0.75 I0.037 J0.006
N2345 G1 X0.5951
N2350 X0.601 Y-0.6468
N2355 X0.6065 Y-0.6444
N2360 X0.6118 Y-0.6415
N2365 X0.6169 Y-0.6383
N2370 X0.6217 Y-0.6348
N2375 X0.6264 Y-0.6311
N2380 X0.6309 Y-0.6271
N2385 X0.6352 Y-0.6229
N2390 X0.6393 Y-0.6185
N2395 X0.6432 Y-0.6139
N2400 X0.6469 Y-0.6092
N2405 X0.6504 Y-0.6044
N2410 X0.6538 Y-0.5994
N2415 X0.657 Y-0.5943
N2420 X0.6599 Y-0.5891
N2425 X0.6628 Y-0.5838
N2430 X0.6654 Y-0.5784
N2435 X0.6679 Y-0.5729
N2440 X0.6701 Y-0.5674
N2445 X0.6722 Y-0.5618
N2450 X0.6742 Y-0.5561
N2455 X0.6759 Y-0.5504
N2460 X0.6775 Y-0.5446
N2465 X0.6789 Y-0.5387
N2470 X0.6802 Y-0.5329
N2475 X0.6813 Y-0.527
N2480 X0.6821 Y-0.521
N2485 X0.6829 Y-0.5151
N2490 X0.6834 Y-0.5091
N2495 X0.6838 Y-0.5031
N2500 X0.684 Y-0.4971
N2505 Y-0.4911
N2510 X0.6838 Y-0.4851
N2515 X0.6835 Y-0.4791
N2520 X0.6829 Y-0.4732
N2525 X0.6822 Y-0.4672
N2530 X0.6813 Y-0.4613
N2535 X0.6802 Y-0.4554
N2540 X0.6789 Y-0.4495
N2545 X0.6774 Y-0.4437
N2550 X0.6756 Y-0.438
N2555 X0.6737 Y-0.4323
N2560 X0.6716 Y-0.4267
N2565 X0.6692 Y-0.4212
N2570 X0.6685 Y-0.4197
N2575 X0.6591 Y-0.4034
N2580 X0.6471 Y-0.3888
N2585 X0.633 Y-0.3763
N2590 X0.6171 Y-0.3662
N2595 X0.5997 Y-0.3589
N2600 X0.5814 Y-0.3544
N2605 X0.5626 Y-0.3529
N2610 G3 X0.5265 Y-0.3916 Z0.758 I0.0013 J-0.0375
N2615 G1 X0.5268 Y-0.3958
N2620 X0.5583 Y-0.6084
N2625 X0.5593 Y-0.6152 Z0.7571
N2630 G3 X0.5951 Y-0.6471 Z0.75 I0.0371 J0.0055
N2635 G1 X0.6095
N2640 X0.6155 Y-0.6468
N2645 X0.621 Y-0.6446
N2650 X0.6264 Y-0.6418
N2655 X0.6315 Y-0.6388
N2660 X0.6365 Y-0.6354
N2665 X0.6412 Y-0.6317
N2670 X0.6458 Y-0.6278
N2675 X0.6502 Y-0.6237
N2680 X0.6543 Y-0.6194
N2685 X0.6583 Y-0.6149
N2690 X0.6621 Y-0.6103
N2695 X0.6657 Y-0.6055
N2700 X0.6692 Y-0.6006
N2705 X0.6724 Y-0.5955
N2710 X0.6755 Y-0.5904
N2715 X0.6784 Y-0.5851
N2720 X0.6811 Y-0.5797
N2725 X0.6836 Y-0.5743
N2730 X0.686 Y-0.5688
N2735 X0.6882 Y-0.5632
N2740 X0.6902 Y-0.5575
N2745 X0.692 Y-0.5518
N2750 X0.6936 Y-0.5461
N2755 X0.6951 Y-0.5402
N2760 X0.6964 Y-0.5344
N2765 X0.6976 Y-0.5285
N2770 X0.6985 Y-0.5226
N2775 X0.6993 Y-0.5166
N2780 X0.6999 Y-0.5107
N2785 X0.7004 Y-0.5047
N2790 X0.7006 Y-0.4987
N2795 X0.7007 Y-0.4927
N2800 X0.7006 Y-0.4867
N2805 X0.7003 Y-0.4807
N2810 X0.6999 Y-0.4747
N2815 X0.6992 Y-0.4687
N2820 X0.6984 Y-0.4628
N2825 X0.6974 Y-0.4569
N2830 X0.6961 Y-0.451
N2835 X0.6946 Y-0.4452
N2840 X0.693 Y-0.4394
N2845 X0.6911 Y-0.4337
N2850 X0.689 Y-0.4281
N2855 X0.6867 Y-0.4226
N2860 X0.6842 Y-0.4171
N2865 X0.6746 Y-0.4014
N2870 X0.6626 Y-0.3873
N2875 X0.6486 Y-0.3753
N2880 X0.6329 Y-0.3657
N2885 X0.6158 Y-0.3586
N2890 X0.5979 Y-0.3543
N2895 X0.5795 Y-0.3529
N2900 G3 X0.5433 Y-0.3916 Z0.758 I0.0013 J-0.0375
N2905 G1 X0.5437 Y-0.3954
N2910 X0.5728 Y-0.6084
N2915 X0.5736 Y-0.6147 Z0.7571
N2920 G3 X0.6095 Y-0.6471 Z0.75 I0.0372 J0.0051
N2925 G1 X0.6223
N2930 X0.6283 Y-0.6468
N2935 X0.634 Y-0.6449
N2940 X0.6395 Y-0.6425
N2945 X0.6448 Y-0.6397
N2950 X0.6499 Y-0.6366
N2955 X0.6548 Y-0.6331
N2960 X0.6595 Y-0.6294
N2965 X0.664 Y-0.6254
N2970 X0.6683 Y-0.6213
N2975 X0.6724 Y-0.6169
N2980 X0.6764 Y-0.6124
N2985 X0.6801 Y-0.6077
N2990 X0.6837 Y-0.6028
N2995 X0.687 Y-0.5979
N3000 X0.6902 Y-0.5928
N3005 X0.6932 Y-0.5876
N3010 X0.6961 Y-0.5823
N3015 X0.6987 Y-0.5769
N3020 X0.7012 Y-0.5715
N3025 X0.7035 Y-0.5659
N3030 X0.7056 Y-0.5603
N3035 X0.7076 Y-0.5546
N3040 X0.7093 Y-0.5489
N3045 X0.7109 Y-0.5431
N3050 X0.7123 Y-0.5373
N3055 X0.7136 Y-0.5314
N3060 X0.7147 Y-0.5255
N3065 X0.7156 Y-0.5196
N3070 X0.7163 Y-0.5136
N3075 X0.7168 Y-0.5077
N3080 X0.7172 Y-0.5017
N3085 X0.7174 Y-0.4957
N3090 Y-0.4897
N3095 X0.7172 Y-0.4837
N3100 X0.7169 Y-0.4777
N3105 X0.7163 Y-0.4717
N3110 X0.7156 Y-0.4657
N3115 X0.7147 Y-0.4598
N3120 X0.7136 Y-0.4539
N3125 X0.7122 Y-0.4481
N3130 X0.7107 Y-0.4423
N3135 X0.7089 Y-0.4365
N3140 X0.707 Y-0.4309
N3145 X0.7048 Y-0.4253
N3150 X0.7021 Y-0.4192
N3155 X0.6926 Y-0.403
N3160 X0.6806 Y-0.3885
N3165 X0.6665 Y-0.3761
N3170 X0.6506 Y-0.3661
N3175 X0.6333 Y-0.3588
N3180 X0.6151 Y-0.3544
N3185 X0.5964 Y-0.3529
N3190 G3 X0.5602 Y-0.3916 Z0.758 I0.0013 J-0.0375
N3195 G1 X0.5604 Y-0.3947
N3200 X0.5857 Y-0.6084
N3205 X0.5864 Y-0.6141 Z0.7572
N3210 G3 X0.6223 Y-0.6471 Z0.75 I0.0372 J0.0044
N3215 G1 X0.6359
N3220 X0.6419 Y-0.6468
N3225 X0.6477 Y-0.6452
N3230 X0.6533 Y-0.643
N3235 X0.6587 Y-0.6404
N3240 X0.6639 Y-0.6374
N3245 X0.6689 Y-0.6341
N3250 X0.6737 Y-0.6305
N3255 X0.6783 Y-0.6267
N3260 X0.6827 Y-0.6226
N3265 X0.6869 Y-0.6184
N3270 X0.691 Y-0.6139
N3275 X0.6948 Y-0.6093
N3280 X0.6985 Y-0.6046
N3285 X0.7019 Y-0.5997
N3290 X0.7052 Y-0.5947
N3295 X0.7083 Y-0.5895
N3300 X0.7113 Y-0.5843
N3305 X0.714 Y-0.579
N3310 X0.7166 Y-0.5736
N3315 X0.719 Y-0.568
N3320 X0.7212 Y-0.5625
N3325 X0.7232 Y-0.5568
N3330 X0.7251 Y-0.5511
N3335 X0.7268 Y-0.5454
N3340 X0.7283 Y-0.5396
N3345 X0.7296 Y-0.5337
N3350 X0.7308 Y-0.5278
N3355 X0.7318 Y-0.5219
N3360 X0.7326 Y-0.516
N3365 X0.7333 Y-0.51
N3370 X0.7337 Y-0.504
N3375 X0.734 Y-0.498
N3380 X0.7341 Y-0.492
N3385 X0.734 Y-0.486
N3390 X0.7338 Y-0.48
N3395 X0.7333 Y-0.4741
N3400 X0.7327 Y-0.4681
N3405 X0.7318 Y-0.4621
N3410 X0.7308 Y-0.4562
N3415 X0.7295 Y-0.4504
N3420 X0.7281 Y-0.4446
N3425 X0.7264 Y-0.4388
N3430 X0.7245 Y-0.4331
N3435 X0.7224 Y-0.4275
N3440 X0.7201 Y-0.4219
N3445 X0.7176 Y-0.4165
N3450 X0.708 Y-0.4009
N3455 X0.6961 Y-0.387
N3460 X0.6821 Y-0.3751
N3465 X0.6665 Y-0.3656
N3470 X0.6496 Y-0.3586
N3475 X0.6318 Y-0.3543
N3480 X0.6135 Y-0.3529
N3485 G3 X0.5773 Y-0.3916 Z0.758 I0.0013 J-0.0375
N3490 G1 X0.5775 Y-0.3941
N3495 X0.5994 Y-0.6084
N3500 X0.5999 Y-0.6135 Z0.7573
N3505 G3 X0.6359 Y-0.6471 Z0.75 I0.0373 J0.0038
N3510 G1 X0.651
N3515 X0.657 Y-0.6468
N3520 X0.6628 Y-0.6453
N3525 X0.6684 Y-0.6432
N3530 X0.6739 Y-0.6406
N3535 X0.6791 Y-0.6377
N3540 X0.6842 Y-0.6345
N3545 X0.689 Y-0.6309
N3550 X0.6937 Y-0.6272
N3555 X0.6981 Y-0.6232
N3560 X0.7024 Y-0.6189
N3565 X0.7065 Y-0.6146
N3570 X0.7104 Y-0.61
N3575 X0.7141 Y-0.6053
N3580 X0.7176 Y-0.6004
N3585 X0.721 Y-0.5954
N3590 X0.7241 Y-0.5903
N3595 X0.7271 Y-0.5851
N3600 X0.7299 Y-0.5798
N3605 X0.7325 Y-0.5744
N3610 X0.735 Y-0.5689
N3615 X0.7372 Y-0.5634
N3620 X0.7393 Y-0.5578
N3625 X0.7412 Y-0.5521
N3630 X0.743 Y-0.5463
N3635 X0.7446 Y-0.5405
N3640 X0.7459 Y-0.5347
N3645 X0.7472 Y-0.5288
N3650 X0.7482 Y-0.5229
N3655 X0.7491 Y-0.517
N3660 X0.7498 Y-0.511
N3665 X0.7503 Y-0.5051
N3670 X0.7506 Y-0.4991
N3675 X0.7507 Y-0.4931
N3680 Y-0.4871
N3685 X0.7505 Y-0.4811
N3690 X0.7501 Y-0.4751
N3695 X0.7495 Y-0.4691
N3700 X0.7487 Y-0.4632
N3705 X0.7477 Y-0.4572
N3710 X0.7465 Y-0.4514
N3715 X0.7451 Y-0.4455
N3720 X0.7435 Y-0.4398
N3725 X0.7416 Y-0.434
N3730 X0.7396 Y-0.4284
N3735 X0.7373 Y-0.4228
N3740 X0.7348 Y-0.4174
N3745 X0.7253 Y-0.4016
N3750 X0.7134 Y-0.3875
N3755 X0.6994 Y-0.3754
N3760 X0.6837 Y-0.3658
N3765 X0.6667 Y-0.3586
N3770 X0.6488 Y-0.3543
N3775 X0.6304 Y-0.3529
N3780 G3 X0.5942 Y-0.3916 Z0.758 I0.0013 J-0.0375
N3785 G1 X0.5943 Y-0.3938
N3790 X0.6146 Y-0.6084
N3795 X0.615 Y-0.6132 Z0.7573
N3800 G3 X0.651 Y-0.6471 Z0.75 I0.0373 J0.0035
N3805 G1 X0.6582
N3810 X0.6639 Y-0.6464
N3815 X0.6716 Y-0.6451
N3820 X0.6774 Y-0.6438
N3825 X0.6832 Y-0.6421
N3830 X0.6888 Y-0.6399
N3835 X0.6941 Y-0.6372
N3840 X0.6993 Y-0.6341
N3845 X0.7042 Y-0.6307
N3850 X0.709 Y-0.627
N3855 X0.7135 Y-0.6231
N3860 X0.7179 Y-0.619
N3865 X0.722 Y-0.6147
N3870 X0.726 Y-0.6102
N3875 X0.7298 Y-0.6055
N3880 X0.7334 Y-0.6007
N3885 X0.7368 Y-0.5958
N3890 X0.74 Y-0.5907
N3895 X0.743 Y-0.5855
N3900 X0.7459 Y-0.5802
N3905 X0.7485 Y-0.5749
N3910 X0.751 Y-0.5694
N3915 X0.7533 Y-0.5639
N3920 X0.7555 Y-0.5583
N3925 X0.7574 Y-0.5526
N3930 X0.7592 Y-0.5469
N3935 X0.7608 Y-0.5411
N3940 X0.7623 Y-0.5353
N3945 X0.7635 Y-0.5294
N3950 X0.7646 Y-0.5235
N3955 X0.7655 Y-0.5176
N3960 X0.7662 Y-0.5116
N3965 X0.7668 Y-0.5056
N3970 X0.7671 Y-0.4996
N3975 X0.7673 Y-0.4936
N3980 Y-0.4876
N3985 X0.7671 Y-0.4816
N3990 X0.7668 Y-0.4757
N3995 X0.7662 Y-0.4697
N4000 X0.7654 Y-0.4637
N4005 X0.7645 Y-0.4578
N4010 X0.7633 Y-0.4519
N4015 X0.7619 Y-0.4461
N4020 X0.7603 Y-0.4403
N4025 X0.7586 Y-0.4346
N4030 X0.7565 Y-0.4289
N4035 X0.7543 Y-0.4234
N4040 X0.7459 Y-0.4078
N4045 X0.7353 Y-0.3937
N4050 X0.7228 Y-0.3813
N4055 X0.7087 Y-0.3708
N4060 X0.6931 Y-0.3625
N4065 X0.6765 Y-0.3565
N4070 X0.6592 Y-0.353
N4075 G3 X0.639 Y-0.3724 Z0.7543 I-0.0017 J-0.0185
N4080 G1 X0.6402 Y-0.3995 Z0.758
N4085 X0.6494 Y-0.5994
N4090 X0.6507 Y-0.6275 Z0.7542
N4095 G3 X0.6716 Y-0.6451 Z0.75 I0.0185 J0.0008
N4100 G1 X0.6751 Y-0.6445
N4105 X0.6864 Y-0.6431
N4110 X0.6882 Y-0.643
N4115 X0.6942 Y-0.6423
N4120 X0.7 Y-0.6406
N4125 X0.7055 Y-0.6384
N4130 X0.7109 Y-0.6357
N4135 X0.7161 Y-0.6327
N4140 X0.721 Y-0.6293
N4145 X0.7258 Y-0.6256
N4150 X0.7303 Y-0.6217
N4155 X0.7347 Y-0.6176
N4160 X0.7388 Y-0.6133
N4165 X0.7428 Y-0.6088
N4170 X0.7466 Y-0.6041
N4175 X0.7502 Y-0.5993
N4180 X0.7536 Y-0.5944
N4185 X0.7568 Y-0.5893
N4190 X0.7598 Y-0.5841
N4195 X0.7627 Y-0.5788
N4200 X0.7653 Y-0.5735
N4205 X0.7678 Y-0.568
N4210 X0.7701 Y-0.5625
N4215 X0.7722 Y-0.5569
N4220 X0.7742 Y-0.5512
N4225 X0.776 Y-0.5454
N4230 X0.7776 Y-0.5397
N4235 X0.779 Y-0.5338
N4240 X0.7802 Y-0.528
N4245 X0.7813 Y-0.5221
N4250 X0.7821 Y-0.5161
N4255 X0.7829 Y-0.5102
N4260 X0.7834 Y-0.5042
N4265 X0.7837 Y-0.4982
N4270 X0.7839 Y-0.4922
N4275 Y-0.4862
N4280 X0.7836 Y-0.4802
N4285 X0.7832 Y-0.4742
N4290 X0.7826 Y-0.4682
N4295 X0.7818 Y-0.4623
N4300 X0.7808 Y-0.4564
N4305 X0.7796 Y-0.4505
N4310 X0.7782 Y-0.4447
N4315 X0.7765 Y-0.4389
N4320 X0.7746 Y-0.4332
N4325 X0.7667 Y-0.4162
N4330 X0.7562 Y-0.4005
N4335 X0.7434 Y-0.3867
N4340 X0.7286 Y-0.3751
N4345 X0.7122 Y-0.3659
N4350 X0.6945 Y-0.3593
N4355 X0.6761 Y-0.3556
N4360 G3 X0.6355 Y-0.3897 Z0.758 I-0.0033 J-0.0374
N4365 G1 X0.6353 Y-0.3925
N4370 X0.6354 Y-0.3954
N4375 X0.6494 Y-0.6069
N4380 X0.6495 Y-0.608 Z0.7578
N4385 G3 X0.6882 Y-0.643 Z0.75 I0.0374 J0.0025
N4390 G1 X0.6976 Y-0.6424
N4395 X0.701 Y-0.6423
N4400 X0.707 Y-0.642
N4405 X0.7129 Y-0.6407
N4410 X0.7186 Y-0.6388
N4415 X0.7241 Y-0.6364
N4420 X0.7294 Y-0.6336
N4425 X0.7345 Y-0.6304
N4430 X0.7393 Y-0.6269
N4435 X0.744 Y-0.6232
N4440 X0.7485 Y-0.6192
N4445 X0.7528 Y-0.615
N4450 X0.7569 Y-0.6106
N4455 X0.7608 Y-0.6061
N4460 X0.7645 Y-0.6013
N4465 X0.768 Y-0.5965
N4470 X0.7714 Y-0.5915
N4475 X0.7745 Y-0.5864
N4480 X0.7775 Y-0.5812
N4485 X0.7803 Y-0.5759
N4490 X0.7829 Y-0.5705
N4495 X0.7853 Y-0.565
N4500 X0.7875 Y-0.5594
N4505 X0.7896 Y-0.5538
N4510 X0.7915 Y-0.5481
N4515 X0.7932 Y-0.5423
N4520 X0.7947 Y-0.5365
N4525 X0.796 Y-0.5307
N4530 X0.7972 Y-0.5248
N4535 X0.7982 Y-0.5189
N4540 X0.799 Y-0.5129
N4545 X0.7996 Y-0.5069
N4550 X0.8001 Y-0.501
N4555 X0.8003 Y-0.495
N4560 X0.8004 Y-0.489
N4565 X0.8003 Y-0.483
N4570 X0.7999 Y-0.477
N4575 X0.7994 Y-0.471
N4580 X0.7987 Y-0.465
N4585 X0.7977 Y-0.4591
N4590 X0.7965 Y-0.4532
N4595 X0.7952 Y-0.4474
N4600 X0.7935 Y-0.4416
N4605 X0.7917 Y-0.4359
N4610 X0.7896 Y-0.4303
N4615 X0.7811 Y-0.4135
N4620 X0.77 Y-0.3982
N4625 X0.7566 Y-0.3849
N4630 X0.7413 Y-0.3739
N4635 X0.7245 Y-0.3654
N4640 X0.7065 Y-0.3597
N4645 X0.6879 Y-0.357
N4650 G3 X0.6491 Y-0.3932 Z0.758 I-0.0012 J-0.0375
N4655 G1 X0.6492 Y-0.3972
N4660 X0.6644 Y-0.6039
N4665 X0.6647 Y-0.6076 Z0.7575
N4670 G3 X0.701 Y-0.6423 Z0.75 I0.0374 J0.0027
N4675 G1 X0.715 Y-0.6422
N4680 X0.721 Y-0.6419
N4685 X0.7269 Y-0.6409
N4690 X0.7327 Y-0.6391
N4695 X0.7382 Y-0.6369
N4700 X0.7436 Y-0.6342
N4705 X0.7488 Y-0.6311
N4710 X0.7537 Y-0.6278
N4715 X0.7585 Y-0.6241
N4720 X0.7631 Y-0.6202
N4725 X0.7674 Y-0.6161
N4730 X0.7716 Y-0.6118
N4735 X0.7756 Y-0.6073
N4740 X0.7794 Y-0.6027
N4745 X0.783 Y-0.5979
N4750 X0.7864 Y-0.593
N4755 X0.7897 Y-0.5879
N4760 X0.7927 Y-0.5827
N4765 X0.7956 Y-0.5775
N4770 X0.7983 Y-0.5721
N4775 X0.8008 Y-0.5666
N4780 X0.8031 Y-0.5611
N4785 X0.8052 Y-0.5555
N4790 X0.8072 Y-0.5498
N4795 X0.809 Y-0.5441
N4800 X0.8106 Y-0.5383
N4805 X0.812 Y-0.5325
N4810 X0.8132 Y-0.5266
N4815 X0.8143 Y-0.5207
N4820 X0.8151 Y-0.5148
N4825 X0.8158 Y-0.5088
N4830 X0.8163 Y-0.5028
N4835 X0.8166 Y-0.4968
N4840 X0.8167 Y-0.4908
N4845 Y-0.4848
N4850 X0.8164 Y-0.4788
N4855 X0.8159 Y-0.4729
N4860 X0.8152 Y-0.4669
N4865 X0.8143 Y-0.461
N4870 X0.8132 Y-0.4551
N4875 X0.8118 Y-0.4492
N4880 X0.8103 Y-0.4434
N4885 X0.8085 Y-0.4377
N4890 X0.8064 Y-0.4321
N4895 X0.8042 Y-0.4265
N4900 X0.7963 Y-0.4119
N4905 X0.7863 Y-0.3985
N4910 X0.7746 Y-0.3866
N4915 X0.7613 Y-0.3766
N4920 X0.7468 Y-0.3685
N4925 X0.7312 Y-0.3626
N4930 X0.7149 Y-0.3589
N4935 X0.6983 Y-0.3576
N4940 G3 X0.6619 Y-0.3961 Z0.758 I0.001 J-0.0375
N4945 G1 X0.662 Y-0.3981
N4950 X0.6784 Y-0.6038
N4955 X0.6787 Y-0.6077 Z0.7575
N4960 G3 X0.715 Y-0.6422 Z0.75 I0.0374 J0.003
N4965 G1 X0.7303
N4970 X0.7363 Y-0.6418
N4975 X0.7422 Y-0.6408
N4980 X0.748 Y-0.6391
N4985 X0.7536 Y-0.6369
N4990 X0.759 Y-0.6343
N4995 X0.7642 Y-0.6313
N5000 X0.7692 Y-0.628
N5005 X0.774 Y-0.6244
N5010 X0.7786 Y-0.6205
N5015 X0.783 Y-0.6165
N5020 X0.7872 Y-0.6122
N5025 X0.7912 Y-0.6078
N5030 X0.7951 Y-0.6031
N5035 X0.7987 Y-0.5984
N5040 X0.8022 Y-0.5935
N5045 X0.8054 Y-0.5884
N5050 X0.8085 Y-0.5833
N5055 X0.8114 Y-0.578
N5060 X0.8141 Y-0.5727
N5065 X0.8167 Y-0.5673
N5070 X0.819 Y-0.5617
N5075 X0.8212 Y-0.5562
N5080 X0.8232 Y-0.5505
N5085 X0.825 Y-0.5448
N5090 X0.8267 Y-0.539
N5095 X0.8281 Y-0.5332
N5100 X0.8294 Y-0.5273
N5105 X0.8304 Y-0.5214
N5110 X0.8313 Y-0.5155
N5115 X0.8321 Y-0.5095
N5120 X0.8326 Y-0.5035
N5125 X0.8329 Y-0.4976
N5130 X0.833 Y-0.4916
N5135 Y-0.4856
N5140 X0.8327 Y-0.4796
N5145 X0.8322 Y-0.4736
N5150 X0.8316 Y-0.4676
N5155 X0.8307 Y-0.4617
N5160 X0.8296 Y-0.4558
N5165 X0.8283 Y-0.4499
N5170 X0.8267 Y-0.4441
N5175 X0.8249 Y-0.4384
N5180 X0.8229 Y-0.4328
N5185 X0.8207 Y-0.4272
N5190 X0.8183 Y-0.4217
N5195 X0.8088 Y-0.4061
N5200 X0.797 Y-0.3922
N5205 X0.7833 Y-0.3803
N5210 X0.7678 Y-0.3707
N5215 X0.751 Y-0.3637
N5220 X0.7333 Y-0.3593
N5225 X0.7152 Y-0.3578
N5230 X0.6983 Y-0.3576
N5235 G3 X0.6619 Y-0.3961 Z0.758 I0.001 J-0.0375
N5240 G1 X0.6623 Y-0.4008
N5245 X0.6933 Y-0.6036
N5250 X0.6944 Y-0.6103 Z0.7571
N5255 G3 X0.7303 Y-0.6422 Z0.75 I0.0371 J0.0057
N5260 G1 X0.746 Y-0.6421
N5265 X0.752 Y-0.6418
N5270 X0.7579 Y-0.6409
N5275 X0.7637 Y-0.6392
N5280 X0.7693 Y-0.637
N5285 X0.7747 Y-0.6344
N5290 X0.7799 Y-0.6314
N5295 X0.7849 Y-0.6281
N5300 X0.7897 Y-0.6246
N5305 X0.7943 Y-0.6207
N5310 X0.7988 Y-0.6167
N5315 X0.803 Y-0.6124
N5320 X0.8071 Y-0.608
N5325 X0.8109 Y-0.6034
N5330 X0.8146 Y-0.5987
N5335 X0.8181 Y-0.5938
N5340 X0.8214 Y-0.5888
N5345 X0.8245 Y-0.5837
N5350 X0.8274 Y-0.5784
N5355 X0.8302 Y-0.5731
N5360 X0.8327 Y-0.5677
N5365 X0.8351 Y-0.5621
N5370 X0.8373 Y-0.5566
N5375 X0.8393 Y-0.5509
N5380 X0.8411 Y-0.5452
N5385 X0.8428 Y-0.5394
N5390 X0.8442 Y-0.5336
N5395 X0.8455 Y-0.5277
N5400 X0.8466 Y-0.5218
N5405 X0.8475 Y-0.5159
N5410 X0.8483 Y-0.51
N5415 X0.8488 Y-0.504
N5420 X0.8491 Y-0.498
N5425 X0.8493 Y-0.492
N5430 X0.8492 Y-0.486
N5435 X0.849 Y-0.48
N5440 X0.8485 Y-0.474
N5445 X0.8479 Y-0.468
N5450 X0.847 Y-0.4621
N5455 X0.846 Y-0.4562
N5460 X0.8446 Y-0.4504
N5465 X0.8431 Y-0.4446
N5470 X0.8414 Y-0.4388
N5475 X0.8394 Y-0.4331
N5480 X0.8372 Y-0.4276
N5485 X0.8366 Y-0.4262
N5490 X0.8288 Y-0.4116
N5495 X0.8189 Y-0.3982
N5500 X0.8073 Y-0.3864
N5505 X0.7941 Y-0.3764
N5510 X0.7796 Y-0.3684
N5515 X0.7641 Y-0.3626
N5520 X0.7479 Y-0.359
N5525 X0.7314 Y-0.3579
N5530 X0.7152 Y-0.3578
N5535 G3 X0.6787 Y-0.3963 Z0.758 I0.001 J-0.0375
N5540 G1 X0.6791 Y-0.4008
N5545 X0.7092 Y-0.6034
N5550 X0.7102 Y-0.6102 Z0.7571
N5555 G3 X0.746 Y-0.6421 Z0.75 I0.0371 J0.0055
N5560 G1 X0.7616
N5565 X0.7676 Y-0.6418
N5570 X0.7735 Y-0.6409
N5575 X0.7793 Y-0.6393
N5580 X0.7849 Y-0.6372
N5585 X0.7903 Y-0.6346
N5590 X0.7955 Y-0.6316
N5595 X0.8006 Y-0.6284
N5600 X0.8054 Y-0.6248
N5605 X0.81 Y-0.621
N5610 X0.8145 Y-0.617
N5615 X0.8188 Y-0.6128
N5620 X0.8228 Y-0.6084
N5625 X0.8267 Y-0.6038
N5630 X0.8304 Y-0.5991
N5635 X0.8339 Y-0.5942
N5640 X0.8373 Y-0.5892
N5645 X0.8404 Y-0.5841
N5650 X0.8433 Y-0.5789
N5655 X0.8461 Y-0.5736
N5660 X0.8487 Y-0.5682
N5665 X0.8511 Y-0.5627
N5670 X0.8533 Y-0.5571
N5675 X0.8553 Y-0.5514
N5680 X0.8572 Y-0.5457
N5685 X0.8589 Y-0.54
N5690 X0.8603 Y-0.5342
N5695 X0.8616 Y-0.5283
N5700 X0.8628 Y-0.5224
N5705 X0.8637 Y-0.5165
N5710 X0.8644 Y-0.5105
N5715 X0.865 Y-0.5046
N5720 X0.8653 Y-0.4986
N5725 X0.8655 Y-0.4926
N5730 Y-0.4866
N5735 X0.8653 Y-0.4806
N5740 X0.8648 Y-0.4746
N5745 X0.8642 Y-0.4686
N5750 X0.8634 Y-0.4627
N5755 X0.8623 Y-0.4568
N5760 X0.861 Y-0.4509
N5765 X0.8595 Y-0.4451
N5770 X0.8578 Y-0.4393
N5775 X0.8558 Y-0.4337
N5780 X0.8537 Y-0.4281
N5785 X0.8513 Y-0.4226
N5790 X0.8419 Y-0.4068
N5795 X0.8301 Y-0.3926
N5800 X0.8162 Y-0.3805
N5805 X0.8005 Y-0.3708
N5810 X0.7835 Y-0.3637
N5815 X0.7656 Y-0.3593
N5820 X0.7473 Y-0.3579
N5825 X0.7314
N5830 G3 X0.6952 Y-0.3966 Z0.758 I0.0013 J-0.0375
N5835 G1 X0.6955 Y-0.4007
N5840 X0.7248 Y-0.6034
N5845 X0.7258 Y-0.61 Z0.7571
N5850 G3 X0.7616 Y-0.6421 Z0.75 I0.0371 J0.0054
N5855 G1 X0.7782
N5860 X0.7842 Y-0.6418
N5865 X0.7901 Y-0.6408
N5870 X0.7959 Y-0.6391
N5875 X0.8015 Y-0.637
N5880 X0.8069 Y-0.6343
N5885 X0.8121 Y-0.6314
N5890 X0.8171 Y-0.6281
N5895 X0.8219 Y-0.6245
N5900 X0.8266 Y-0.6207
N5905 X0.831 Y-0.6167
N5910 X0.8353 Y-0.6125
N5915 X0.8393 Y-0.608
N5920 X0.8432 Y-0.6035
N5925 X0.8469 Y-0.5987
N5930 X0.8504 Y-0.5939
N5935 X0.8537 Y-0.5888
N5940 X0.8568 Y-0.5837
N5945 X0.8598 Y-0.5785
N5950 X0.8625 Y-0.5732
N5955 X0.8651 Y-0.5677
N5960 X0.8675 Y-0.5622
N5965 X0.8697 Y-0.5567
N5970 X0.8717 Y-0.551
N5975 X0.8735 Y-0.5453
N5980 X0.8752 Y-0.5395
N5985 X0.8767 Y-0.5337
N5990 X0.878 Y-0.5279
N5995 X0.8791 Y-0.522
N6000 X0.88 Y-0.516
N6005 X0.8807 Y-0.5101
N6010 X0.8813 Y-0.5041
N6015 X0.8816 Y-0.4981
N6020 X0.8818 Y-0.4921
N6025 X0.8817 Y-0.4861
N6030 X0.8815 Y-0.4801
N6035 X0.881 Y-0.4741
N6040 X0.8804 Y-0.4682
N6045 X0.8796 Y-0.4622
N6050 X0.8785 Y-0.4563
N6055 X0.8772 Y-0.4505
N6060 X0.8757 Y-0.4447
N6065 X0.874 Y-0.4389
N6070 X0.872 Y-0.4332
N6075 X0.8698 Y-0.4277
N6080 X0.8674 Y-0.4222
N6085 X0.8647 Y-0.4168
N6090 X0.8553 Y-0.4023
N6095 X0.8437 Y-0.3894
N6100 X0.8303 Y-0.3784
N6105 X0.8154 Y-0.3696
N6110 X0.7993 Y-0.3631
N6115 X0.7825 Y-0.3592
N6120 X0.7652 Y-0.3579
N6125 X0.7473
N6130 G3 X0.7111 Y-0.3966 Z0.758 I0.0013 J-0.0375
N6135 G1 X0.7115 Y-0.4008
N6140 X0.7414 Y-0.6034
N6145 X0.7424 Y-0.6102 Z0.7571
N6150 G3 X0.7782 Y-0.6421 Z0.75 I0.0371 J0.0055
N6155 G1 X0.7938
N6160 X0.7998 Y-0.6418
N6165 X0.8057 Y-0.6409
N6170 X0.8115 Y-0.6393
N6175 X0.8171 Y-0.6372
N6180 X0.8225 Y-0.6346
N6185 X0.8277 Y-0.6317
N6190 X0.8328 Y-0.6284
N6195 X0.8376 Y-0.6249
N6200 X0.8423 Y-0.6211
N6205 X0.8468 Y-0.6171
N6210 X0.851 Y-0.6129
N6215 X0.8551 Y-0.6085
N6220 X0.859 Y-0.6039
N6225 X0.8627 Y-0.5992
N6230 X0.8662 Y-0.5943
N6235 X0.8696 Y-0.5894
N6240 X0.8727 Y-0.5842
N6245 X0.8757 Y-0.579
N6250 X0.8785 Y-0.5737
N6255 X0.881 Y-0.5683
N6260 X0.8835 Y-0.5628
N6265 X0.8857 Y-0.5572
N6270 X0.8877 Y-0.5516
N6275 X0.8896 Y-0.5459
N6280 X0.8913 Y-0.5401
N6285 X0.8928 Y-0.5343
N6290 X0.8941 Y-0.5285
N6295 X0.8952 Y-0.5226
N6300 X0.8961 Y-0.5166
N6305 X0.8969 Y-0.5107
N6310 X0.8975 Y-0.5047
N6315 X0.8978 Y-0.4987
N6320 X0.898 Y-0.4927
N6325 Y-0.4867
N6330 X0.8978 Y-0.4807
N6335 X0.8974 Y-0.4747
N6340 X0.8967 Y-0.4688
N6345 X0.8959 Y-0.4628
N6350 X0.8949 Y-0.4569
N6355 X0.8937 Y-0.451
N6360 X0.8922 Y-0.4452
N6365 X0.8905 Y-0.4395
N6370 X0.8886 Y-0.4338
N6375 X0.8865 Y-0.4282
N6380 X0.8841 Y-0.4227
N6385 X0.8749 Y-0.4068
N6390 X0.8632 Y-0.3927
N6395 X0.8495 Y-0.3806
N6400 X0.834 Y-0.3708
N6405 X0.8171 Y-0.3637
N6410 X0.7993 Y-0.3593
N6415 X0.781 Y-0.3579
N6420 X0.7652
N6425 G3 X0.729 Y-0.3966 Z0.758 I0.0013 J-0.0375
N6430 G1 X0.7294 Y-0.4004
N6435 X0.7571 Y-0.6034
N6440 X0.7579 Y-0.6097 Z0.7571
N6445 G3 X0.7938 Y-0.6421 Z0.75 I0.0372 J0.0051
N6450 G1 X0.8101
N6455 X0.8161 Y-0.6418
N6460 X0.822 Y-0.6409
N6465 X0.8278 Y-0.6393
N6470 X0.8334 Y-0.6371
N6475 X0.8388 Y-0.6345
N6480 X0.844 Y-0.6316
N6485 X0.8491 Y-0.6283
N6490 X0.8539 Y-0.6248
N6495 X0.8586 Y-0.621
N6500 X0.863 Y-0.617
N6505 X0.8673 Y-0.6128
N6510 X0.8714 Y-0.6084
N6515 X0.8753 Y-0.6038
N6520 X0.879 Y-0.5991
N6525 X0.8825 Y-0.5943
N6530 X0.8858 Y-0.5893
N6535 X0.889 Y-0.5841
N6540 X0.8919 Y-0.5789
N6545 X0.8947 Y-0.5736
N6550 X0.8973 Y-0.5682
N6555 X0.8997 Y-0.5627
N6560 X0.9019 Y-0.5571
N6565 X0.904 Y-0.5515
N6570 X0.9058 Y-0.5458
N6575 X0.9075 Y-0.54
N6580 X0.909 Y-0.5342
N6585 X0.9103 Y-0.5284
N6590 X0.9114 Y-0.5225
N6595 X0.9124 Y-0.5165
N6600 X0.9131 Y-0.5106
N6605 X0.9137 Y-0.5046
N6610 X0.9141 Y-0.4986
N6615 X0.9143 Y-0.4926
N6620 Y-0.4866
N6625 X0.9141 Y-0.4806
N6630 X0.9137 Y-0.4746
N6635 X0.9131 Y-0.4687
N6640 X0.9123 Y-0.4627
N6645 X0.9112 Y-0.4568
N6650 X0.91 Y-0.451
N6655 X0.9085 Y-0.4451
N6660 X0.9068 Y-0.4394
N6665 X0.9049 Y-0.4337
N6670 X0.9027 Y-0.4281
N6675 X0.9003 Y-0.4226
N6680 X0.8977 Y-0.4172
N6685 X0.8884 Y-0.4026
N6690 X0.8769 Y-0.3896
N6695 X0.8636 Y-0.3785
N6700 X0.8487 Y-0.3697
N6705 X0.8326 Y-0.3632
N6710 X0.8157 Y-0.3592
N6715 X0.7985 Y-0.3579
N6720 X0.781
N6725 G3 X0.7449 Y-0.3966 Z0.758 I0.0013 J-0.0375
N6730 G1 X0.7452 Y-0.4005
N6735 X0.7734 Y-0.6034
N6740 X0.7743 Y-0.6098 Z0.7571
N6745 G3 X0.8101 Y-0.6421 Z0.75 I0.0371 J0.0052
N6750 G1 X0.826
N6755 X0.832 Y-0.6418
N6760 X0.838 Y-0.6409
N6765 X0.8437 Y-0.6393
N6770 X0.8494 Y-0.6372
N6775 X0.8548 Y-0.6346
N6780 X0.86 Y-0.6317
N6785 X0.8651 Y-0.6285
N6790 X0.8699 Y-0.6249
N6795 X0.8746 Y-0.6212
N6800 X0.8791 Y-0.6172
N6805 X0.8833 Y-0.613
N6810 X0.8874 Y-0.6086
N6815 X0.8913 Y-0.604
N6820 X0.8951 Y-0.5993
N6825 X0.8986 Y-0.5944
N6830 X0.9019 Y-0.5895
N6835 X0.9051 Y-0.5844
N6840 X0.908 Y-0.5791
N6845 X0.9108 Y-0.5738
N6850 X0.9134 Y-0.5684
N6855 X0.9158 Y-0.5629
N6860 X0.9181 Y-0.5574
N6865 X0.9201 Y-0.5517
N6870 X0.922 Y-0.546
N6875 X0.9237 Y-0.5403
N6880 X0.9252 Y-0.5345
N6885 X0.9265 Y-0.5286
N6890 X0.9277 Y-0.5227
N6895 X0.9286 Y-0.5168
N6900 X0.9294 Y-0.5108
N6905 X0.93 Y-0.5049
N6910 X0.9303 Y-0.4989
N6915 X0.9305 Y-0.4929
N6920 Y-0.4869
N6925 X0.9304 Y-0.4809
N6930 X0.93 Y-0.4749
N6935 X0.9294 Y-0.4689
N6940 X0.9286 Y-0.463
N6945 X0.9276 Y-0.4571
N6950 X0.9264 Y-0.4512
N6955 X0.9249 Y-0.4454
N6960 X0.9232 Y-0.4396
N6965 X0.9214 Y-0.4339
N6970 X0.9193 Y-0.4283
N6975 X0.9169 Y-0.4228
N6980 X0.9077 Y-0.4069
N6985 X0.8961 Y-0.3928
N6990 X0.8824 Y-0.3806
N6995 X0.867 Y-0.3709
N7000 X0.8501 Y-0.3637
N7005 X0.8324 Y-0.3593
N7010 X0.8141 Y-0.3579
N7015 X0.7985
N7020 G3 X0.7623 Y-0.3966 Z0.758 I0.0013 J-0.0375
N7025 G1 X0.7626 Y-0.4002
N7030 X0.7894 Y-0.6034
N7035 X0.7902 Y-0.6096 Z0.7572
N7040 G3 X0.826 Y-0.6421 Z0.75 I0.0372 J0.0049
N7045 G1 X0.8428
N7050 X0.8488 Y-0.6418
N7055 X0.8547 Y-0.6408
N7060 X0.8605 Y-0.6392
N7065 X0.8661 Y-0.637
N7070 X0.8715 Y-0.6344
N7075 X0.8767 Y-0.6314
N7080 X0.8817 Y-0.6282
N7085 X0.8866 Y-0.6246
N7090 X0.8912 Y-0.6208
N7095 X0.8957 Y-0.6168
N7100 X0.8999 Y-0.6126
N7105 X0.904 Y-0.6082
N7110 X0.9079 Y-0.6036
N7115 X0.9116 Y-0.5989
N7120 X0.9151 Y-0.594
N7125 X0.9184 Y-0.589
N7130 X0.9216 Y-0.5839
N7135 X0.9245 Y-0.5787
N7140 X0.9273 Y-0.5734
N7145 X0.9299 Y-0.5679
N7150 X0.9323 Y-0.5624
N7155 X0.9345 Y-0.5569
N7160 X0.9365 Y-0.5512
N7165 X0.9384 Y-0.5455
N7170 X0.9401 Y-0.5398
N7175 X0.9416 Y-0.534
N7180 X0.9429 Y-0.5281
N7185 X0.944 Y-0.5222
N7190 X0.9449 Y-0.5163
N7195 X0.9457 Y-0.5103
N7200 X0.9463 Y-0.5044
N7205 X0.9467 Y-0.4984
N7210 X0.9468 Y-0.4924
N7215 Y-0.4864
N7220 X0.9466 Y-0.4804
N7225 X0.9462 Y-0.4744
N7230 X0.9456 Y-0.4684
N7235 X0.9448 Y-0.4625
N7240 X0.9438 Y-0.4566
N7245 X0.9426 Y-0.4507
N7250 X0.9411 Y-0.4449
N7255 X0.9394 Y-0.4391
N7260 X0.9375 Y-0.4334
N7265 X0.9353 Y-0.4278
N7270 X0.9329 Y-0.4223
N7275 X0.9303 Y-0.4169
N7280 X0.921 Y-0.4024
N7285 X0.9096 Y-0.3895
N7290 X0.8963 Y-0.3785
N7295 X0.8814 Y-0.3696
N7300 X0.8654 Y-0.3631
N7305 X0.8486 Y-0.3592
N7310 X0.8314 Y-0.3579
N7315 X0.8141
N7320 G3 X0.7779 Y-0.3966 Z0.758 I0.0013 J-0.0375
N7325 G1 X0.7783 Y-0.4004
N7330 X0.8061 Y-0.6034
N7335 X0.807 Y-0.6098 Z0.7571
N7340 G3 X0.8428 Y-0.6421 Z0.75 I0.0372 J0.0051
N7345 G1 X0.8585
N7350 X0.8645 Y-0.6418
N7355 X0.8704 Y-0.6409
N7360 X0.8762 Y-0.6393
N7365 X0.8818 Y-0.6372
N7370 X0.8872 Y-0.6346
N7375 X0.8925 Y-0.6317
N7380 X0.8975 Y-0.6284
N7385 X0.9024 Y-0.6249
N7390 X0.907 Y-0.6211
N7395 X0.9115 Y-0.6171
N7400 X0.9158 Y-0.6129
N7405 X0.9199 Y-0.6086
N7410 X0.9238 Y-0.604
N7415 X0.9275 Y-0.5993
N7420 X0.931 Y-0.5944
N7425 X0.9344 Y-0.5895
N7430 X0.9375 Y-0.5844
N7435 X0.9405 Y-0.5791
N7440 X0.9433 Y-0.5738
N7445 X0.9459 Y-0.5684
N7450 X0.9483 Y-0.5629
N7455 X0.9506 Y-0.5574
N7460 X0.9526 Y-0.5517
N7465 X0.9545 Y-0.546
N7470 X0.9562 Y-0.5403
N7475 X0.9577 Y-0.5345
N7480 X0.959 Y-0.5286
N7485 X0.9602 Y-0.5227
N7490 X0.9612 Y-0.5168
N7495 X0.9619 Y-0.5109
N7500 X0.9625 Y-0.5049
N7505 X0.9629 Y-0.4989
N7510 X0.9631 Y-0.4929
N7515 Y-0.4869
N7520 X0.963 Y-0.4809
N7525 X0.9626 Y-0.4749
N7530 X0.962 Y-0.469
N7535 X0.9612 Y-0.463
N7540 X0.9602 Y-0.4571
N7545 X0.959 Y-0.4512
N7550 X0.9576 Y-0.4454
N7555 X0.9559 Y-0.4396
N7560 X0.9541 Y-0.4339
N7565 X0.952 Y-0.4283
N7570 X0.9496 Y-0.4228
N7575 X0.9405 Y-0.4069
N7580 X0.9289 Y-0.3928
N7585 X0.9152 Y-0.3806
N7590 X0.8998 Y-0.3709
N7595 X0.8829 Y-0.3637
N7600 X0.8652 Y-0.3593
N7605 X0.847 Y-0.3579
N7610 X0.8314
N7615 G3 X0.7952 Y-0.3966 Z0.758 I0.0013 J-0.0375
N7620 G1 X0.7955 Y-0.4001
N7625 X0.8218 Y-0.6034
N7630 X0.8226 Y-0.6095 Z0.7572
N7635 G3 X0.8585 Y-0.6421 Z0.75 I0.0372 J0.0048
N7640 G1 X0.8753
N7645 X0.8813 Y-0.6418
N7650 X0.8872 Y-0.6408
N7655 X0.893 Y-0.6391
N7660 X0.8985 Y-0.637
N7665 X0.904 Y-0.6344
N7670 X0.9092 Y-0.6314
N7675 X0.9142 Y-0.6281
N7680 X0.919 Y-0.6246
N7685 X0.9237 Y-0.6208
N7690 X0.9281 Y-0.6168
N7695 X0.9324 Y-0.6125
N7700 X0.9365 Y-0.6081
N7705 X0.9404 Y-0.6036
N7710 X0.9441 Y-0.5988
N7715 X0.9476 Y-0.594
N7720 X0.9509 Y-0.589
N7725 X0.9541 Y-0.5839
N7730 X0.957 Y-0.5787
N7735 X0.9598 Y-0.5733
N7740 X0.9624 Y-0.5679
N7745 X0.9648 Y-0.5624
N7750 X0.967 Y-0.5569
N7755 X0.9691 Y-0.5512
N7760 X0.9709 Y-0.5455
N7765 X0.9726 Y-0.5398
N7770 X0.9741 Y-0.5339
N7775 X0.9754 Y-0.5281
N7780 X0.9766 Y-0.5222
N7785 X0.9775 Y-0.5163
N7790 X0.9783 Y-0.5103
N7795 X0.9788 Y-0.5043
N7800 X0.9792 Y-0.4984
N7805 X0.9794 Y-0.4924
N7810 Y-0.4864
N7815 X0.9792 Y-0.4804
N7820 X0.9789 Y-0.4744
N7825 X0.9783 Y-0.4684
N7830 X0.9775 Y-0.4625
N7835 X0.9765 Y-0.4565
N7840 X0.9752 Y-0.4507
N7845 X0.9737 Y-0.4449
N7850 X0.9721 Y-0.4391
N7855 X0.9702 Y-0.4334
N7860 X0.968 Y-0.4278
N7865 X0.9656 Y-0.4223
N7870 X0.963 Y-0.4169
N7875 X0.9537 Y-0.4024
N7880 X0.9423 Y-0.3895
N7885 X0.929 Y-0.3784
N7890 X0.9142 Y-0.3696
N7895 X0.8982 Y-0.3631
N7900 X0.8814 Y-0.3592
N7905 X0.8642 Y-0.3579
N7910 X0.847
N7915 G3 X0.8108 Y-0.3966 Z0.758 I0.0013 J-0.0375
N7920 G1 X0.8111 Y-0.4004
N7925 X0.8386 Y-0.6034
N7930 X0.8394 Y-0.6097 Z0.7571
N7935 G3 X0.8753 Y-0.6421 Z0.75 I0.0372 J0.005
N7940 G1 X0.8923
N7945 X0.8982 Y-0.6418
N7950 X0.9041 Y-0.6407
N7955 X0.9099 Y-0.639
N7960 X0.9154 Y-0.6367
N7965 X0.9208 Y-0.6341
N7970 X0.926 Y-0.6311
N7975 X0.931 Y-0.6277
N7980 X0.9358 Y-0.6242
N7985 X0.9405 Y-0.6203
N7990 X0.9449 Y-0.6163
N7995 X0.9491 Y-0.6121
N8000 X0.9532 Y-0.6076
N8005 X0.9571 Y-0.603
N8010 X0.9607 Y-0.5983
N8015 X0.9642 Y-0.5934
N8020 X0.9675 Y-0.5884
N8025 X0.9707 Y-0.5833
N8030 X0.9736 Y-0.5781
N8035 X0.9763 Y-0.5727
N8040 X0.9789 Y-0.5673
N8045 X0.9813 Y-0.5618
N8050 X0.9835 Y-0.5562
N8055 X0.9855 Y-0.5506
N8060 X0.9874 Y-0.5449
N8065 X0.9891 Y-0.5391
N8070 X0.9905 Y-0.5333
N8075 X0.9918 Y-0.5274
N8080 X0.993 Y-0.5215
N8085 X0.9939 Y-0.5156
N8090 X0.9946 Y-0.5097
N8095 X0.9952 Y-0.5037
N8100 X0.9956 Y-0.4977
N8105 X0.9957 Y-0.4917
N8110 Y-0.4857
N8115 X0.9955 Y-0.4797
N8120 X0.9951 Y-0.4737
N8125 X0.9945 Y-0.4678
N8130 X0.9937 Y-0.4618
N8135 X0.9926 Y-0.4559
N8140 X0.9914 Y-0.45
N8145 X0.9899 Y-0.4442
N8150 X0.9882 Y-0.4385
N8155 X0.9863 Y-0.4328
N8160 X0.9842 Y-0.4272
N8165 X0.9764 Y-0.4124
N8170 X0.9665 Y-0.3988
N8175 X0.9548 Y-0.3869
N8180 X0.9415 Y-0.3767
N8185 X0.9269 Y-0.3686
N8190 X0.9112 Y-0.3627
N8195 X0.8949 Y-0.3591
N8200 X0.8782 Y-0.3579
N8205 X0.8642
N8210 G3 X0.828 Y-0.3966 Z0.758 I0.0013 J-0.0375
N8215 G1 X0.8283 Y-0.4003
N8220 X0.8556 Y-0.6034
N8225 X0.8564 Y-0.6097 Z0.7571
N8230 G3 X0.8923 Y-0.6421 Z0.75 I0.0372 J0.005
N8235 G1 X0.9078
N8240 X0.9138 Y-0.6418
N8245 X0.9197 Y-0.6408
N8250 X0.9255 Y-0.6391
N8255 X0.931 Y-0.637
N8260 X0.9364 Y-0.6344
N8265 X0.9417 Y-0.6314
N8270 X0.9467 Y-0.6281
N8275 X0.9515 Y-0.6246
N8280 X0.9562 Y-0.6208
N8285 X0.9606 Y-0.6168
N8290 X0.9649 Y-0.6126
N8295 X0.969 Y-0.6081
N8300 X0.9729 Y-0.6036
N8305 X0.9766 Y-0.5989
N8310 X0.9801 Y-0.594
N8315 X0.9834 Y-0.589
N8320 X0.9866 Y-0.5839
N8325 X0.9895 Y-0.5787
N8330 X0.9923 Y-0.5734
N8335 X0.9949 Y-0.5679
N8340 X0.9973 Y-0.5625
N8345 X0.9995 Y-0.5569
N8350 X1.0016 Y-0.5513
N8355 X1.0035 Y-0.5455
N8360 X1.0052 Y-0.5398
N8365 X1.0067 Y-0.534
N8370 X1.008 Y-0.5281
N8375 X1.0091 Y-0.5222
N8380 X1.0101 Y-0.5163
N8385 X1.0109 Y-0.5104
N8390 X1.0114 Y-0.5044
N8395 X1.0118 Y-0.4984
N8400 X1.012 Y-0.4924
N8405 Y-0.4864
N8410 X1.0119 Y-0.4804
N8415 X1.0115 Y-0.4744
N8420 X1.0109 Y-0.4685
N8425 X1.0101 Y-0.4625
N8430 X1.0091 Y-0.4566
N8435 X1.0078 Y-0.4507
N8440 X1.0063 Y-0.4449
N8445 X1.0046 Y-0.4392
N8450 X1.0027 Y-0.4335
N8455 X1.0005 Y-0.4279
N8460 X0.9981 Y-0.4224
N8465 X0.9887 Y-0.4066
N8470 X0.977 Y-0.3925
N8475 X0.9631 Y-0.3805
N8480 X0.9475 Y-0.3708
N8485 X0.9306 Y-0.3637
N8490 X0.9127 Y-0.3593
N8495 X0.8944 Y-0.3579
N8500 X0.8782
N8505 G3 X0.842 Y-0.3966 Z0.758 I0.0013 J-0.0375
N8510 G1 X0.8423 Y-0.4006
N8515 X0.871 Y-0.6034
N8520 X0.872 Y-0.6099 Z0.7571
N8525 G3 X0.9078 Y-0.6421 Z0.75 I0.0371 J0.0053
N8530 G1 X0.9244
N8535 X0.9304 Y-0.6418
N8540 X0.9363 Y-0.6408
N8545 X0.9421 Y-0.639
N8550 X0.9477 Y-0.6368
N8555 X0.953 Y-0.6342
N8560 X0.9583 Y-0.6312
N8565 X0.9633 Y-0.6279
N8570 X0.9681 Y-0.6244
N8575 X0.9727 Y-0.6205
N8580 X0.9772 Y-0.6165
N8585 X0.9814 Y-0.6123
N8590 X0.9855 Y-0.6079
N8595 X0.9894 Y-0.6033
N8600 X0.9931 Y-0.5986
N8605 X0.9966 Y-0.5937
N8610 X0.9999 Y-0.5887
N8615 X1.003 Y-0.5836
N8620 X1.006 Y-0.5784
N8625 X1.0087 Y-0.573
N8630 X1.0113 Y-0.5676
N8635 X1.0137 Y-0.5621
N8640 X1.016 Y-0.5565
N8645 X1.018 Y-0.5509
N8650 X1.0199 Y-0.5452
N8655 X1.0215 Y-0.5394
N8660 X1.023 Y-0.5336
N8665 X1.0243 Y-0.5278
N8670 X1.0255 Y-0.5219
N8675 X1.0264 Y-0.516
N8680 X1.0272 Y-0.51
N8685 X1.0278 Y-0.504
N8690 X1.0281 Y-0.498
N8695 X1.0283 Y-0.492
N8700 Y-0.486
N8705 X1.0281 Y-0.4801
N8710 X1.0277 Y-0.4741
N8715 X1.0271 Y-0.4681
N8720 X1.0263 Y-0.4622
N8725 X1.0252 Y-0.4562
N8730 X1.024 Y-0.4504
N8735 X1.0224 Y-0.4446
N8740 X1.0207 Y-0.4388
N8745 X1.0188 Y-0.4331
N8750 X1.0166 Y-0.4276
N8755 X1.016 Y-0.4261
N8760 X1.0082 Y-0.4115
N8765 X0.9985 Y-0.3982
N8770 X0.9869 Y-0.3864
N8775 X0.9738 Y-0.3764
N8780 X0.9593 Y-0.3684
N8785 X0.9439 Y-0.3626
N8790 X0.9278 Y-0.359
N8795 X0.9113 Y-0.3579
N8800 X0.8944
N8805 G3 X0.8583 Y-0.3966 Z0.758 I0.0013 J-0.0375
N8810 G1 X0.8586 Y-0.4007
N8815 X0.8877 Y-0.6034
N8820 X0.8886 Y-0.61 Z0.7571
N8825 G3 X0.9244 Y-0.6421 Z0.75 I0.0371 J0.0053
N8830 G1 X0.94
N8835 X0.946 Y-0.6418
N8840 X0.9519 Y-0.6409
N8845 X0.9577 Y-0.6392
N8850 X0.9633 Y-0.6371
N8855 X0.9687 Y-0.6345
N8860 X0.9739 Y-0.6315
N8865 X0.979 Y-0.6283
N8870 X0.9838 Y-0.6248
N8875 X0.9885 Y-0.621
N8880 X0.9929 Y-0.617
N8885 X0.9972 Y-0.6128
N8890 X1.0013 Y-0.6084
N8895 X1.0052 Y-0.6038
N8900 X1.0089 Y-0.5991
N8905 X1.0125 Y-0.5942
N8910 X1.0158 Y-0.5893
N8915 X1.019 Y-0.5842
N8920 X1.0219 Y-0.5789
N8925 X1.0247 Y-0.5736
N8930 X1.0273 Y-0.5682
N8935 X1.0298 Y-0.5627
N8940 X1.032 Y-0.5572
N8945 X1.0341 Y-0.5515
N8950 X1.0359 Y-0.5459
N8955 X1.0376 Y-0.5401
N8960 X1.0392 Y-0.5343
N8965 X1.0405 Y-0.5284
N8970 X1.0416 Y-0.5226
N8975 X1.0426 Y-0.5166
N8980 X1.0434 Y-0.5107
N8985 X1.044 Y-0.5047
N8990 X1.0444 Y-0.4987
N8995 X1.0446 Y-0.4927
N9000 Y-0.4867
N9005 X1.0444 Y-0.4807
N9010 X1.044 Y-0.4747
N9015 X1.0434 Y-0.4688
N9020 X1.0426 Y-0.4628
N9025 X1.0416 Y-0.4569
N9030 X1.0403 Y-0.4511
N9035 X1.0389 Y-0.4452
N9040 X1.0372 Y-0.4395
N9045 X1.0352 Y-0.4338
N9050 X1.0331 Y-0.4282
N9055 X1.0307 Y-0.4227
N9060 X1.0214 Y-0.4068
N9065 X1.0096 Y-0.3927
N9070 X0.9958 Y-0.3806
N9075 X0.9802 Y-0.3708
N9080 X0.9632 Y-0.3637
N9085 X0.9454 Y-0.3593
N9090 X0.927 Y-0.3579
N9095 X0.9113
N9100 G3 X0.8751 Y-0.3966 Z0.758 I0.0013 J-0.0375
N9105 G1 X0.8755 Y-0.4004
N9110 X0.9033 Y-0.6034
N9115 X0.9042 Y-0.6098 Z0.7571
N9120 G3 X0.94 Y-0.6421 Z0.75 I0.0372 J0.0051
N9125 G1 X0.9563
N9130 X0.9623 Y-0.6418
N9135 X0.9682 Y-0.6409
N9140 X0.974 Y-0.6392
N9145 X0.9796 Y-0.637
N9150 X0.985 Y-0.6345
N9155 X0.9902 Y-0.6315
N9160 X0.9953 Y-0.6283
N9165 X1.0001 Y-0.6247
N9170 X1.0048 Y-0.6209
N9175 X1.0092 Y-0.6169
N9180 X1.0135 Y-0.6127
N9185 X1.0176 Y-0.6083
N9190 X1.0215 Y-0.6038
N9195 X1.0252 Y-0.5991
N9200 X1.0287 Y-0.5942
N9205 X1.0321 Y-0.5892
N9210 X1.0352 Y-0.5841
N9215 X1.0382 Y-0.5789
N9220 X1.041 Y-0.5736
N9225 X1.0436 Y-0.5682
N9230 X1.046 Y-0.5627
N9235 X1.0483 Y-0.5571
N9240 X1.0504 Y-0.5515
N9245 X1.0522 Y-0.5458
N9250 X1.0539 Y-0.5401
N9255 X1.0554 Y-0.5343
N9260 X1.0568 Y-0.5284
N9265 X1.0579 Y-0.5225
N9270 X1.0589 Y-0.5166
N9275 X1.0597 Y-0.5106
N9280 X1.0602 Y-0.5047
N9285 X1.0606 Y-0.4987
N9290 X1.0608 Y-0.4927
N9295 Y-0.4867
N9300 X1.0606 Y-0.4807
N9305 X1.0602 Y-0.4747
N9310 X1.0596 Y-0.4687
N9315 X1.0588 Y-0.4628
N9320 X1.0578 Y-0.4569
N9325 X1.0566 Y-0.451
N9330 X1.0551 Y-0.4452
N9335 X1.0534 Y-0.4394
N9340 X1.0515 Y-0.4337
N9345 X1.0493 Y-0.4282
N9350 X1.0469 Y-0.4227
N9355 X1.0443 Y-0.4172
N9360 X1.0349 Y-0.4026
N9365 X1.0234 Y-0.3896
N9370 X1.01 Y-0.3786
N9375 X0.9951 Y-0.3697
N9380 X0.979 Y-0.3632
N9385 X0.9621 Y-0.3592
N9390 X0.9448 Y-0.3579
N9395 X0.927
N9400 G3 X0.8909 Y-0.3966 Z0.758 I0.0013 J-0.0375
N9405 G1 X0.8912 Y-0.4005
N9410 X0.9196 Y-0.6034
N9415 X0.9205 Y-0.6099 Z0.7571
N9420 G3 X0.9563 Y-0.6421 Z0.75 I0.0371 J0.0052
N9425 G1 X0.9723
N9430 X0.9783 Y-0.6418
N9435 X0.9842 Y-0.6409
N9440 X0.99 Y-0.6393
N9445 X0.9956 Y-0.6371
N9450 X1.001 Y-0.6346
N9455 X1.0062 Y-0.6317
N9460 X1.0113 Y-0.6284
N9465 X1.0161 Y-0.6249
N9470 X1.0208 Y-0.6211
N9475 X1.0253 Y-0.6171
N9480 X1.0296 Y-0.6129
N9485 X1.0337 Y-0.6086
N9490 X1.0376 Y-0.604
N9495 X1.0413 Y-0.5993
N9500 X1.0448 Y-0.5945
N9505 X1.0482 Y-0.5895
N9510 X1.0514 Y-0.5844
N9515 X1.0543 Y-0.5792
N9520 X1.0571 Y-0.5739
N9525 X1.0598 Y-0.5685
N9530 X1.0622 Y-0.563
N9535 X1.0645 Y-0.5574
N9540 X1.0665 Y-0.5518
N9545 X1.0684 Y-0.5461
N9550 X1.0701 Y-0.5403
N9555 X1.0716 Y-0.5345
N9560 X1.073 Y-0.5287
N9565 X1.0741 Y-0.5228
N9570 X1.0751 Y-0.5169
N9575 X1.0759 Y-0.5109
N9580 X1.0765 Y-0.505
N9585 X1.0769 Y-0.499
N9590 X1.0771 Y-0.493
N9595 Y-0.487
N9600 X1.0769 Y-0.481
N9605 X1.0765 Y-0.475
N9610 X1.0759 Y-0.469
N9615 X1.0751 Y-0.4631
N9620 X1.0741 Y-0.4572
N9625 X1.0729 Y-0.4513
N9630 X1.0715 Y-0.4455
N9635 X1.0698 Y-0.4397
N9640 X1.0679 Y-0.434
N9645 X1.0658 Y-0.4284
N9650 X1.0634 Y-0.4229
N9655 X1.0543 Y-0.407
N9660 X1.0427 Y-0.3928
N9665 X1.0289 Y-0.3807
N9670 X1.0134 Y-0.3709
N9675 X0.9966 Y-0.3637
N9680 X0.9788 Y-0.3593
N9685 X0.9605 Y-0.3579
N9690 X0.9448
N9695 G3 X0.9086 Y-0.3966 Z0.758 I0.0013 J-0.0375
N9700 G1 X0.9089 Y-0.4002
N9705 X0.9356 Y-0.6034
N9710 X0.9364 Y-0.6095 Z0.7572
N9715 G3 X0.9723 Y-0.6421 Z0.75 I0.0372 J0.0049
N9720 G1 X0.989
N9725 X0.995 Y-0.6418
N9730 X1.0009 Y-0.6408
N9735 X1.0067 Y-0.6391
N9740 X1.0123 Y-0.637
N9745 X1.0177 Y-0.6344
N9750 X1.0229 Y-0.6314
N9755 X1.028 Y-0.6282
N9760 X1.0328 Y-0.6246
N9765 X1.0374 Y-0.6208
N9770 X1.0419 Y-0.6168
N9775 X1.0462 Y-0.6126
N9780 X1.0503 Y-0.6082
N9785 X1.0542 Y-0.6036
N9790 X1.0579 Y-0.5989
N9795 X1.0614 Y-0.5941
N9800 X1.0647 Y-0.5891
N9805 X1.0679 Y-0.584
N9810 X1.0708 Y-0.5788
N9815 X1.0736 Y-0.5734
N9820 X1.0762 Y-0.568
N9825 X1.0786 Y-0.5625
N9830 X1.0809 Y-0.557
N9835 X1.0829 Y-0.5513
N9840 X1.0848 Y-0.5456
N9845 X1.0865 Y-0.5399
N9850 X1.088 Y-0.5341
N9855 X1.0893 Y-0.5282
N9860 X1.0905 Y-0.5223
N9865 X1.0914 Y-0.5164
N9870 X1.0922 Y-0.5105
N9875 X1.0928 Y-0.5045
N9880 X1.0931 Y-0.4985
N9885 X1.0933 Y-0.4925
N9890 Y-0.4865
N9895 X1.0931 Y-0.4805
N9900 X1.0928 Y-0.4745
N9905 X1.0922 Y-0.4685
N9910 X1.0914 Y-0.4626
N9915 X1.0904 Y-0.4567
N9920 X1.0891 Y-0.4508
N9925 X1.0876 Y-0.445
N9930 X1.086 Y-0.4392
N9935 X1.084 Y-0.4336
N9940 X1.0819 Y-0.428
N9945 X1.0795 Y-0.4224
N9950 X1.0769 Y-0.417
N9955 X1.0676 Y-0.4025
N9960 X1.0561 Y-0.3895
N9965 X1.0428 Y-0.3785
N9970 X1.0279 Y-0.3696
N9975 X1.0119 Y-0.3631
N9980 X0.9951 Y-0.3592
N9985 X0.9778 Y-0.3579
N9990 X0.9605
N9995 G3 X0.9243 Y-0.3966 Z0.758 I0.0013 J-0.0375
N10000 G1 X0.9247 Y-0.4004
N10005 X0.9523 Y-0.6034
N10010 X0.9532 Y-0.6097 Z0.7571
N10015 G3 X0.989 Y-0.6421 Z0.75 I0.0372 J0.0051
N10020 G1 X1.0047
N10025 X1.0107 Y-0.6418
N10030 X1.0166 Y-0.6409
N10035 X1.0224 Y-0.6393
N10040 X1.028 Y-0.6372
N10045 X1.0334 Y-0.6346
N10050 X1.0387 Y-0.6317
N10055 X1.0437 Y-0.6285
N10060 X1.0486 Y-0.625
N10065 X1.0533 Y-0.6212
N10070 X1.0578 Y-0.6172
N10075 X1.062 Y-0.613
N10080 X1.0661 Y-0.6086
N10085 X1.0701 Y-0.6041
N10090 X1.0738 Y-0.5994
N10095 X1.0773 Y-0.5945
N10100 X1.0807 Y-0.5896
N10105 X1.0838 Y-0.5845
N10110 X1.0868 Y-0.5793
N10115 X1.0896 Y-0.574
N10120 X1.0923 Y-0.5686
N10125 X1.0947 Y-0.5631
N10130 X1.0969 Y-0.5575
N10135 X1.099 Y-0.5519
N10140 X1.1009 Y-0.5462
N10145 X1.1026 Y-0.5404
N10150 X1.1041 Y-0.5346
N10155 X1.1055 Y-0.5288
N10160 X1.1066 Y-0.5229
N10165 X1.1076 Y-0.517
N10170 X1.1084 Y-0.511
N10175 X1.109 Y-0.5051
N10180 X1.1094 Y-0.4991
N10185 X1.1096 Y-0.4931
N10190 Y-0.4871
N10195 X1.1095 Y-0.4811
N10200 X1.1091 Y-0.4751
N10205 X1.1085 Y-0.4691
N10210 X1.1077 Y-0.4632
N10215 X1.1068 Y-0.4572
N10220 X1.1056 Y-0.4514
N10225 X1.1041 Y-0.4455
N10230 X1.1025 Y-0.4398
N10235 X1.1006 Y-0.4341
N10240 X1.0985 Y-0.4284
N10245 X1.0962 Y-0.4229
N10250 X1.087 Y-0.4071
N10255 X1.0754 Y-0.3929
N10260 X1.0617 Y-0.3807
N10265 X1.0463 Y-0.3709
N10270 X1.0294 Y-0.3637
N10275 X1.0116 Y-0.3593
N10280 X0.9934 Y-0.3579
N10285 X0.9778
N10290 G3 X0.9417 Y-0.3966 Z0.758 I0.0013 J-0.0375
N10295 G1 X0.942 Y-0.4001
N10300 X0.968 Y-0.6034
N10305 X0.9688 Y-0.6094 Z0.7572
N10310 G3 X1.0047 Y-0.6421 Z0.75 I0.0372 J0.0048
N10315 G1 X1.0215
N10320 X1.0275 Y-0.6418
N10325 X1.0334 Y-0.6408
N10330 X1.0392 Y-0.6392
N10335 X1.0448 Y-0.637
N10340 X1.0502 Y-0.6344
N10345 X1.0554 Y-0.6314
N10350 X1.0605 Y-0.6282
N10355 X1.0653 Y-0.6246
N10360 X1.0699 Y-0.6209
N10365 X1.0744 Y-0.6168
N10370 X1.0787 Y-0.6126
N10375 X1.0828 Y-0.6082
N10380 X1.0867 Y-0.6037
N10385 X1.0904 Y-0.599
N10390 X1.0939 Y-0.5941
N10395 X1.0972 Y-0.5891
N10400 X1.1004 Y-0.584
N10405 X1.1034 Y-0.5788
N10410 X1.1061 Y-0.5735
N10415 X1.1087 Y-0.5681
N10420 X1.1112 Y-0.5626
N10425 X1.1134 Y-0.557
N10430 X1.1155 Y-0.5514
N10435 X1.1173 Y-0.5457
N10440 X1.119 Y-0.5399
N10445 X1.1205 Y-0.5341
N10450 X1.1219 Y-0.5283
N10455 X1.123 Y-0.5224
N10460 X1.124 Y-0.5164
N10465 X1.1247 Y-0.5105
N10470 X1.1253 Y-0.5045
N10475 X1.1257 Y-0.4985
N10480 X1.1259 Y-0.4925
N10485 Y-0.4865
N10490 X1.1257 Y-0.4805
N10495 X1.1254 Y-0.4746
N10500 X1.1248 Y-0.4686
N10505 X1.124 Y-0.4626
N10510 X1.123 Y-0.4567
N10515 X1.1217 Y-0.4509
N10520 X1.1203 Y-0.445
N10525 X1.1186 Y-0.4393
N10530 X1.1167 Y-0.4336
N10535 X1.1145 Y-0.428
N10540 X1.1122 Y-0.4225
N10545 X1.1096 Y-0.4171
N10550 X1.1003 Y-0.4025
N10555 X1.0888 Y-0.3895
N10560 X1.0755 Y-0.3785
N10565 X1.0607 Y-0.3696
N10570 X1.0447 Y-0.3631
N10575 X1.0279 Y-0.3592
N10580 X1.0106 Y-0.3579
N10585 X0.9934
N10590 G3 X0.9572 Y-0.3966 Z0.758 I0.0013 J-0.0375
N10595 G1 X0.9575 Y-0.4003
N10600 X0.9848 Y-0.6034
N10605 X0.9857 Y-0.6097 Z0.7571
N10610 G3 X1.0215 Y-0.6421 Z0.75 I0.0372 J0.005
N10615 G1 X1.0385
N10620 X1.0445 Y-0.6418
N10625 X1.0504 Y-0.6407
N10630 X1.0561 Y-0.639
N10635 X1.0617 Y-0.6368
N10640 X1.0671 Y-0.6341
N10645 X1.0723 Y-0.6311
N10650 X1.0773 Y-0.6278
N10655 X1.0821 Y-0.6243
N10660 X1.0867 Y-0.6204
N10665 X1.0912 Y-0.6164
N10670 X1.0954 Y-0.6122
N10675 X1.0995 Y-0.6078
N10680 X1.1034 Y-0.6032
N10685 X1.107 Y-0.5984
N10690 X1.1105 Y-0.5936
N10695 X1.1139 Y-0.5886
N10700 X1.117 Y-0.5834
N10705 X1.1199 Y-0.5782
N10710 X1.1227 Y-0.5729
N10715 X1.1253 Y-0.5675
N10720 X1.1277 Y-0.562
N10725 X1.1299 Y-0.5564
N10730 X1.1319 Y-0.5508
N10735 X1.1338 Y-0.5451
N10740 X1.1355 Y-0.5393
N10745 X1.137 Y-0.5335
N10750 X1.1383 Y-0.5276
N10755 X1.1394 Y-0.5217
N10760 X1.1403 Y-0.5158
N10765 X1.1411 Y-0.5099
N10770 X1.1417 Y-0.5039
N10775 X1.142 Y-0.4979
N10780 X1.1422 Y-0.4919
N10785 Y-0.4859
N10790 X1.142 Y-0.4799
N10795 X1.1416 Y-0.4739
N10800 X1.141 Y-0.4679
N10805 X1.1402 Y-0.462
N10810 X1.1392 Y-0.4561
N10815 X1.1379 Y-0.4502
N10820 X1.1365 Y-0.4444
N10825 X1.1348 Y-0.4386
N10830 X1.1329 Y-0.4329
N10835 X1.1307 Y-0.4273
N10840 X1.1283 Y-0.4218
N10845 X1.1192 Y-0.4062
N10850 X1.1077 Y-0.3923
N10855 X1.0941 Y-0.3803
N10860 X1.0788 Y-0.3707
N10865 X1.0621 Y-0.3636
N10870 X1.0446 Y-0.3593
N10875 X1.0265 Y-0.3579
N10880 X1.0106
N10885 G3 X0.9745 Y-0.3966 Z0.758 I0.0013 J-0.0375
N10890 G1 X0.9748 Y-0.4003
N10895 X1.0018 Y-0.6034
N10900 X1.0026 Y-0.6096 Z0.7572
N10905 G3 X1.0385 Y-0.6421 Z0.75 I0.0372 J0.0049
N10910 G1 X1.054
N10915 X1.06 Y-0.6418
N10920 X1.0659 Y-0.6408
N10925 X1.0717 Y-0.6392
N10930 X1.0773 Y-0.637
N10935 X1.0827 Y-0.6344
N10940 X1.0879 Y-0.6315
N10945 X1.093 Y-0.6282
N10950 X1.0978 Y-0.6247
N10955 X1.1025 Y-0.6209
N10960 X1.1069 Y-0.6169
N10965 X1.1112 Y-0.6127
N10970 X1.1153 Y-0.6083
N10975 X1.1192 Y-0.6037
N10980 X1.1229 Y-0.599
N10985 X1.1264 Y-0.5941
N10990 X1.1297 Y-0.5892
N10995 X1.1329 Y-0.5841
N11000 X1.1359 Y-0.5788
N11005 X1.1387 Y-0.5735
N11010 X1.1413 Y-0.5681
N11015 X1.1437 Y-0.5626
N11020 X1.1459 Y-0.5571
N11025 X1.148 Y-0.5514
N11030 X1.1499 Y-0.5457
N11035 X1.1516 Y-0.54
N11040 X1.1531 Y-0.5342
N11045 X1.1544 Y-0.5283
N11050 X1.1556 Y-0.5224
N11055 X1.1565 Y-0.5165
N11060 X1.1573 Y-0.5106
N11065 X1.1579 Y-0.5046
N11070 X1.1583 Y-0.4986
N11075 X1.1585 Y-0.4926
N11080 Y-0.4866
N11085 X1.1583 Y-0.4806
N11090 X1.158 Y-0.4746
N11095 X1.1574 Y-0.4687
N11100 X1.1566 Y-0.4627
N11105 X1.1556 Y-0.4568
N11110 X1.1544 Y-0.4509
N11115 X1.1529 Y-0.4451
N11120 X1.1513 Y-0.4393
N11125 X1.1494 Y-0.4336
N11130 X1.1472 Y-0.428
N11135 X1.1449 Y-0.4225
N11140 X1.1358 Y-0.4067
N11145 X1.1243 Y-0.3926
N11150 X1.1107 Y-0.3806
N11155 X1.0953 Y-0.3708
N11160 X1.0785 Y-0.3637
N11165 X1.0608 Y-0.3593
N11170 X1.0427 Y-0.3579
N11175 X1.0265
N11180 G3 X0.9904 Y-0.3966 Z0.758 I0.0013 J-0.0375
N11185 G1 X0.9907 Y-0.4002
N11190 X1.0173 Y-0.6034
N11195 X1.0181 Y-0.6095 Z0.7572
N11200 G3 X1.054 Y-0.6421 Z0.75 I0.0372 J0.0049
N11205 G1 X1.0707
N11210 X1.0767 Y-0.6418
N11215 X1.0826 Y-0.6408
N11220 X1.0883 Y-0.6391
N11225 X1.0939 Y-0.6369
N11230 X1.0993 Y-0.6343
N11235 X1.1045 Y-0.6313
N11240 X1.1095 Y-0.628
N11245 X1.1144 Y-0.6245
N11250 X1.119 Y-0.6207
N11255 X1.1235 Y-0.6166
N11260 X1.1277 Y-0.6124
N11265 X1.1318 Y-0.608
N11270 X1.1357 Y-0.6034
N11275 X1.1394 Y-0.5987
N11280 X1.1429 Y-0.5938
N11285 X1.1462 Y-0.5889
N11290 X1.1494 Y-0.5837
N11295 X1.1523 Y-0.5785
N11300 X1.1551 Y-0.5732
N11305 X1.1577 Y-0.5678
N11310 X1.1601 Y-0.5623
N11315 X1.1623 Y-0.5567
N11320 X1.1644 Y-0.5511
N11325 X1.1663 Y-0.5454
N11330 X1.1679 Y-0.5396
N11335 X1.1694 Y-0.5338
N11340 X1.1708 Y-0.528
N11345 X1.1719 Y-0.5221
N11350 X1.1729 Y-0.5162
N11355 X1.1736 Y-0.5102
N11360 X1.1742 Y-0.5042
N11365 X1.1746 Y-0.4983
N11370 X1.1748 Y-0.4923
N11375 Y-0.4863
N11380 X1.1746 Y-0.4803
N11385 X1.1742 Y-0.4743
N11390 X1.1736 Y-0.4683
N11395 X1.1729 Y-0.4623
N11400 X1.1718 Y-0.4564
N11405 X1.1706 Y-0.4506
N11410 X1.1691 Y-0.4448
N11415 X1.1674 Y-0.439
N11420 X1.1655 Y-0.4333
N11425 X1.1633 Y-0.4274
N11430 X1.1555 Y-0.4126
N11435 X1.1457 Y-0.399
N11440 X1.1341 Y-0.387
N11445 X1.1208 Y-0.3768
N11450 X1.1062 Y-0.3687
N11455 X1.0906 Y-0.3627
N11460 X1.0742 Y-0.3591
N11465 X1.0575 Y-0.3579
N11470 X1.0427
N11475 G3 X1.0065 Y-0.3966 Z0.758 I0.0013 J-0.0375
N11480 G1 X1.0068 Y-0.4003
N11485 X1.034 Y-0.6034
N11490 X1.0348 Y-0.6096 Z0.7571
N11495 G3 X1.0707 Y-0.6421 Z0.75 I0.0372 J0.005
N11500 G1 X1.0862
N11505 X1.0922 Y-0.6418
N11510 X1.0981 Y-0.6409
N11515 X1.1039 Y-0.6393
N11520 X1.1095 Y-0.6371
N11525 X1.1149 Y-0.6346
N11530 X1.1202 Y-0.6316
N11535 X1.1252 Y-0.6284
N11540 X1.1301 Y-0.6249
N11545 X1.1347 Y-0.6211
N11550 X1.1392 Y-0.6171
N11555 X1.1435 Y-0.6129
N11560 X1.1476 Y-0.6085
N11565 X1.1515 Y-0.604
N11570 X1.1552 Y-0.5993
N11575 X1.1588 Y-0.5944
N11580 X1.1621 Y-0.5894
N11585 X1.1653 Y-0.5843
N11590 X1.1683 Y-0.5791
N11595 X1.1711 Y-0.5738
N11600 X1.1737 Y-0.5684
N11605 X1.1761 Y-0.5629
N11610 X1.1784 Y-0.5574
N11615 X1.1805 Y-0.5517
N11620 X1.1823 Y-0.5461
N11625 X1.1841 Y-0.5403
N11630 X1.1856 Y-0.5345
N11635 X1.1869 Y-0.5287
N11640 X1.1881 Y-0.5228
N11645 X1.1891 Y-0.5168
N11650 X1.1899 Y-0.5109
N11655 X1.1905 Y-0.5049
N11660 X1.1909 Y-0.4989
N11665 X1.1911 Y-0.4929
N11670 Y-0.4869
N11675 X1.1909 Y-0.4809
N11680 X1.1906 Y-0.475
N11685 X1.19 Y-0.469
N11690 X1.1892 Y-0.463
N11695 X1.1882 Y-0.4571
N11700 X1.187 Y-0.4513
N11705 X1.1855 Y-0.4454
N11710 X1.1838 Y-0.4397
N11715 X1.1819 Y-0.434
N11720 X1.1798 Y-0.4284
N11725 X1.1774 Y-0.4229
N11730 X1.168 Y-0.407
N11735 X1.1563 Y-0.3928
N11740 X1.1424 Y-0.3806
N11745 X1.1268 Y-0.3709
N11750 X1.1098 Y-0.3637
N11755 X1.0919 Y-0.3593
N11760 X1.0735 Y-0.3579
N11765 X1.0575
N11770 G3 X1.0214 Y-0.3966 Z0.758 I0.0013 J-0.0375
N11775 G1 X1.0217 Y-0.4004
N11780 X1.0495 Y-0.6034
N11785 X1.0504 Y-0.6098 Z0.7571
N11790 G3 X1.0862 Y-0.6421 Z0.75 I0.0372 J0.0051
N11795 G1 X1.1025
N11800 X1.1085 Y-0.6418
N11805 X1.1144 Y-0.6409
N11810 X1.1202 Y-0.6393
N11815 X1.1258 Y-0.6371
N11820 X1.1312 Y-0.6345
N11825 X1.1365 Y-0.6316
N11830 X1.1415 Y-0.6284
N11835 X1.1464 Y-0.6248
N11840 X1.151 Y-0.6211
N11845 X1.1555 Y-0.6171
N11850 X1.1598 Y-0.6129
N11855 X1.1639 Y-0.6085
N11860 X1.1678 Y-0.6039
N11865 X1.1715 Y-0.5992
N11870 X1.1751 Y-0.5944
N11875 X1.1784 Y-0.5894
N11880 X1.1816 Y-0.5843
N11885 X1.1846 Y-0.5791
N11890 X1.1874 Y-0.5738
N11895 X1.19 Y-0.5684
N11900 X1.1924 Y-0.5629
N11905 X1.1947 Y-0.5573
N11910 X1.1967 Y-0.5517
N11915 X1.1986 Y-0.546
N11920 X1.2003 Y-0.5403
N11925 X1.2019 Y-0.5345
N11930 X1.2032 Y-0.5286
N11935 X1.2044 Y-0.5227
N11940 X1.2054 Y-0.5168
N11945 X1.2061 Y-0.5109
N11950 X1.2067 Y-0.5049
N11955 X1.2071 Y-0.4989
N11960 X1.2074 Y-0.4929
N11965 Y-0.4869
N11970 X1.2072 Y-0.4809
N11975 X1.2068 Y-0.4749
N11980 X1.2062 Y-0.469
N11985 X1.2054 Y-0.463
N11990 X1.2045 Y-0.4571
N11995 X1.2032 Y-0.4512
N12000 X1.2017 Y-0.4454
N12005 X1.2 Y-0.4396
N12010 X1.1981 Y-0.434
N12015 X1.196 Y-0.4284
N12020 X1.1936 Y-0.4229
N12025 X1.191 Y-0.4175
N12030 X1.1816 Y-0.4028
N12035 X1.17 Y-0.3898
N12040 X1.1567 Y-0.3786
N12045 X1.1417 Y-0.3697
N12050 X1.1256 Y-0.3632
N12055 X1.1086 Y-0.3592
N12060 X1.0913 Y-0.3579
N12065 X1.0735
N12070 G3 X1.0373 Y-0.3966 Z0.758 I0.0013 J-0.0375
N12075 G1 X1.0376 Y-0.4005
N12080 X1.0658 Y-0.6034
N12085 X1.0667 Y-0.6098 Z0.7571
N12090 G3 X1.1025 Y-0.6421 Z0.75 I0.0371 J0.0052
N12095 G1 X1.1185
N12100 X1.1245 Y-0.6418
N12105 X1.1304 Y-0.6409
N12110 X1.1362 Y-0.6393
N12115 X1.1418 Y-0.6372
N12120 X1.1472 Y-0.6347
N12125 X1.1525 Y-0.6318
N12130 X1.1575 Y-0.6285
N12135 X1.1624 Y-0.625
N12140 X1.1671 Y-0.6213
N12145 X1.1716 Y-0.6173
N12150 X1.1759 Y-0.6131
N12155 X1.18 Y-0.6087
N12160 X1.1839 Y-0.6042
N12165 X1.1876 Y-0.5995
N12170 X1.1912 Y-0.5946
N12175 X1.1945 Y-0.5897
N12180 X1.1977 Y-0.5846
N12185 X1.2007 Y-0.5794
N12190 X1.2035 Y-0.5741
N12195 X1.2061 Y-0.5687
N12200 X1.2086 Y-0.5632
N12205 X1.2108 Y-0.5576
N12210 X1.2129 Y-0.552
N12215 X1.2148 Y-0.5463
N12220 X1.2165 Y-0.5406
N12225 X1.2181 Y-0.5348
N12230 X1.2194 Y-0.5289
N12235 X1.2206 Y-0.523
N12240 X1.2216 Y-0.5171
N12245 X1.2224 Y-0.5112
N12250 X1.223 Y-0.5052
N12255 X1.2234 Y-0.4992
N12260 X1.2236 Y-0.4932
N12265 Y-0.4872
N12270 X1.2235 Y-0.4812
N12275 X1.2231 Y-0.4752
N12280 X1.2225 Y-0.4693
N12285 X1.2217 Y-0.4633
N12290 X1.2207 Y-0.4574
N12295 X1.2195 Y-0.4515
N12300 X1.2181 Y-0.4457
N12305 X1.2164 Y-0.4399
N12310 X1.2146 Y-0.4342
N12315 X1.2125 Y-0.4286
N12320 X1.2101 Y-0.4231
N12325 X1.2009 Y-0.4072
N12330 X1.1893 Y-0.3929
N12335 X1.1756 Y-0.3808
N12340 X1.16 Y-0.3709
N12345 X1.1431 Y-0.3637
N12350 X1.1253 Y-0.3593
N12355 X1.107 Y-0.3579
N12360 X1.0913
N12365 G3 X1.0551 Y-0.3966 Z0.758 I0.0013 J-0.0375
N12370 G1 X1.0554 Y-0.4002
N12375 X1.0818 Y-0.6034
N12380 X1.0826 Y-0.6095 Z0.7572
N12385 G3 X1.1185 Y-0.6421 Z0.75 I0.0372 J0.0048
N12390 G1 X1.1353
N12395 X1.1412 Y-0.6418
N12400 X1.1472 Y-0.6408
N12405 X1.1529 Y-0.6392
N12410 X1.1585 Y-0.637
N12415 X1.1639 Y-0.6345
N12420 X1.1692 Y-0.6315
N12425 X1.1742 Y-0.6283
N12430 X1.1791 Y-0.6247
N12435 X1.1837 Y-0.621
N12440 X1.1882 Y-0.617
N12445 X1.1925 Y-0.6128
N12450 X1.1966 Y-0.6084
N12455 X1.2005 Y-0.6038
N12460 X1.2042 Y-0.5991
N12465 X1.2077 Y-0.5942
N12470 X1.2111 Y-0.5893
N12475 X1.2142 Y-0.5842
N12480 X1.2172 Y-0.579
N12485 X1.22 Y-0.5736
N12490 X1.2226 Y-0.5682
N12495 X1.225 Y-0.5628
N12500 X1.2273 Y-0.5572
N12505 X1.2294 Y-0.5516
N12510 X1.2312 Y-0.5459
N12515 X1.2329 Y-0.5401
N12520 X1.2345 Y-0.5343
N12525 X1.2358 Y-0.5285
N12530 X1.2369 Y-0.5226
N12535 X1.2379 Y-0.5166
N12540 X1.2387 Y-0.5107
N12545 X1.2393 Y-0.5047
N12550 X1.2397 Y-0.4987
N12555 X1.2399 Y-0.4927
N12560 Y-0.4867
N12565 X1.2397 Y-0.4807
N12570 X1.2393 Y-0.4748
N12575 X1.2387 Y-0.4688
N12580 X1.238 Y-0.4628
N12585 X1.237 Y-0.4569
N12590 X1.2357 Y-0.4511
N12595 X1.2342 Y-0.4452
N12600 X1.2326 Y-0.4395
N12605 X1.2307 Y-0.4338
N12610 X1.2285 Y-0.4282
N12615 X1.2261 Y-0.4227
N12620 X1.2236 Y-0.4173
N12625 X1.2142 Y-0.4027
N12630 X1.2027 Y-0.3897
N12635 X1.1894 Y-0.3786
N12640 X1.1745 Y-0.3697
N12645 X1.1585 Y-0.3632
N12650 X1.1416 Y-0.3592
N12655 X1.1243 Y-0.3579
N12660 X1.107
N12665 G3 X1.0708 Y-0.3966 Z0.758 I0.0013 J-0.0375
N12670 G1 X1.0711 Y-0.4003
N12675 X1.0986 Y-0.6034
N12680 X1.0994 Y-0.6097 Z0.7571
N12685 G3 X1.1353 Y-0.6421 Z0.75 I0.0372 J0.005
N12690 G1 X1.1509
N12695 X1.1569 Y-0.6418
N12700 X1.1629 Y-0.6409
N12705 X1.1686 Y-0.6394
N12710 X1.1743 Y-0.6373
N12715 X1.1797 Y-0.6347
N12720 X1.1849 Y-0.6318
N12725 X1.19 Y-0.6286
N12730 X1.1949 Y-0.6251
N12735 X1.1996 Y-0.6213
N12740 X1.204 Y-0.6174
N12745 X1.2083 Y-0.6132
N12750 X1.2125 Y-0.6088
N12755 X1.2164 Y-0.6043
N12760 X1.2201 Y-0.5996
N12765 X1.2237 Y-0.5947
N12770 X1.227 Y-0.5898
N12775 X1.2302 Y-0.5847
N12780 X1.2332 Y-0.5795
N12785 X1.236 Y-0.5742
N12790 X1.2386 Y-0.5688
N12795 X1.2411 Y-0.5633
N12800 X1.2434 Y-0.5577
N12805 X1.2454 Y-0.5521
N12810 X1.2473 Y-0.5464
N12815 X1.2491 Y-0.5407
N12820 X1.2506 Y-0.5349
N12825 X1.2519 Y-0.529
N12830 X1.2531 Y-0.5231
N12835 X1.2541 Y-0.5172
N12840 X1.2549 Y-0.5113
N12845 X1.2555 Y-0.5053
N12850 X1.2559 Y-0.4993
N12855 X1.2561 Y-0.4933
N12860 X1.2562 Y-0.4873
N12865 X1.256 Y-0.4813
N12870 X1.2556 Y-0.4753
N12875 X1.2551 Y-0.4694
N12880 X1.2543 Y-0.4634
N12885 X1.2533 Y-0.4575
N12890 X1.2522 Y-0.4516
N12895 X1.2507 Y-0.4458
N12900 X1.2491 Y-0.44
N12905 X1.2472 Y-0.4343
N12910 X1.2451 Y-0.4287
N12915 X1.2428 Y-0.4232
N12920 X1.2336 Y-0.4072
N12925 X1.2221 Y-0.393
N12930 X1.2083 Y-0.3808
N12935 X1.1928 Y-0.371
N12940 X1.1759 Y-0.3637
N12945 X1.1581 Y-0.3593
N12950 X1.1398 Y-0.3579
N12955 X1.1243
N12960 G3 X1.0881 Y-0.3966 Z0.758 I0.0013 J-0.0375
N12965 G1 X1.0884 Y-0.4001
N12970 X1.1143 Y-0.6034
N12975 X1.115 Y-0.6094 Z0.7572
N12980 G3 X1.1509 Y-0.6421 Z0.75 I0.0372 J0.0047
N12985 G1 X1.1677
N12990 X1.1737 Y-0.6418
N12995 X1.1797 Y-0.6409
N13000 X1.1854 Y-0.6392
N13005 X1.191 Y-0.6371
N13010 X1.1964 Y-0.6345
N13015 X1.2017 Y-0.6316
N13020 X1.2067 Y-0.6283
N13025 X1.2116 Y-0.6248
N13030 X1.2162 Y-0.621
N13035 X1.2207 Y-0.617
N13040 X1.225 Y-0.6128
N13045 X1.2291 Y-0.6084
N13050 X1.233 Y-0.6039
N13055 X1.2367 Y-0.5991
N13060 X1.2402 Y-0.5943
N13065 X1.2436 Y-0.5893
N13070 X1.2467 Y-0.5842
N13075 X1.2497 Y-0.579
N13080 X1.2525 Y-0.5737
N13085 X1.2551 Y-0.5683
N13090 X1.2576 Y-0.5628
N13095 X1.2598 Y-0.5572
N13100 X1.2619 Y-0.5516
N13105 X1.2638 Y-0.5459
N13110 X1.2655 Y-0.5402
N13115 X1.267 Y-0.5344
N13120 X1.2683 Y-0.5285
N13125 X1.2695 Y-0.5226
N13130 X1.2704 Y-0.5167
N13135 X1.2712 Y-0.5108
N13140 X1.2718 Y-0.5048
N13145 X1.2722 Y-0.4988
N13150 X1.2724 Y-0.4928
N13155 Y-0.4868
N13160 X1.2723 Y-0.4808
N13165 X1.2719 Y-0.4748
N13170 X1.2713 Y-0.4688
N13175 X1.2706 Y-0.4629
N13180 X1.2696 Y-0.457
N13185 X1.2683 Y-0.4511
N13190 X1.2669 Y-0.4453
N13195 X1.2652 Y-0.4395
N13200 X1.2633 Y-0.4338
N13205 X1.2612 Y-0.4282
N13210 X1.2588 Y-0.4227
N13215 X1.2562 Y-0.4173
N13220 X1.2469 Y-0.4027
N13225 X1.2354 Y-0.3897
N13230 X1.2221 Y-0.3786
N13235 X1.2073 Y-0.3697
N13240 X1.1912 Y-0.3632
N13245 X1.1743 Y-0.3592
N13250 X1.1571 Y-0.3579
N13255 X1.1398
N13260 G3 X1.1037 Y-0.3966 Z0.758 I0.0013 J-0.0375
N13265 G1 X1.104 Y-0.4003
N13270 X1.1311 Y-0.6034
N13275 X1.1319 Y-0.6096 Z0.7572
N13280 G3 X1.1677 Y-0.6421 Z0.75 I0.0372 J0.005
N13285 G1 X1.1847
N13290 X1.1907 Y-0.6418
N13295 X1.1966 Y-0.6408
N13300 X1.2023 Y-0.639
N13305 X1.2079 Y-0.6368
N13310 X1.2133 Y-0.6342
N13315 X1.2185 Y-0.6312
N13320 X1.2235 Y-0.6279
N13325 X1.2284 Y-0.6244
N13330 X1.233 Y-0.6206
N13335 X1.2375 Y-0.6166
N13340 X1.2417 Y-0.6123
N13345 X1.2458 Y-0.6079
N13350 X1.2497 Y-0.6034
N13355 X1.2534 Y-0.5986
N13360 X1.2569 Y-0.5938
N13365 X1.2602 Y-0.5888
N13370 X1.2634 Y-0.5837
N13375 X1.2663 Y-0.5784
N13380 X1.2691 Y-0.5731
N13385 X1.2717 Y-0.5677
N13390 X1.2741 Y-0.5622
N13395 X1.2763 Y-0.5566
N13400 X1.2784 Y-0.551
N13405 X1.2802 Y-0.5453
N13410 X1.2819 Y-0.5395
N13415 X1.2834 Y-0.5337
N13420 X1.2847 Y-0.5279
N13425 X1.2859 Y-0.522
N13430 X1.2868 Y-0.5161
N13435 X1.2876 Y-0.5101
N13440 X1.2882 Y-0.5041
N13445 X1.2885 Y-0.4981
N13450 X1.2887 Y-0.4922
N13455 Y-0.4862
N13460 X1.2885 Y-0.4802
N13465 X1.2881 Y-0.4742
N13470 X1.2875 Y-0.4682
N13475 X1.2867 Y-0.4623
N13480 X1.2857 Y-0.4563
N13485 X1.2845 Y-0.4505
N13490 X1.283 Y-0.4446
N13495 X1.2813 Y-0.4389
N13500 X1.2795 Y-0.4332
N13505 X1.2773 Y-0.4276
N13510 X1.2749 Y-0.4221
N13515 X1.2658 Y-0.4064
N13520 X1.2543 Y-0.3924
N13525 X1.2407 Y-0.3804
N13530 X1.2253 Y-0.3707
N13535 X1.2086 Y-0.3636
N13540 X1.191 Y-0.3593
N13545 X1.1729 Y-0.3579
N13550 X1.1571
N13555 G3 X1.1209 Y-0.3966 Z0.758 I0.0013 J-0.0375
N13560 G1 X1.1212 Y-0.4002
N13565 X1.148 Y-0.6034
N13570 X1.1488 Y-0.6096 Z0.7572
N13575 G3 X1.1847 Y-0.6421 Z0.75 I0.0372 J0.0049
N13580 G1 X1.2002
N13585 X1.2062 Y-0.6418
N13590 X1.2121 Y-0.6409
N13595 X1.2179 Y-0.6392
N13600 X1.2235 Y-0.6371
N13605 X1.2289 Y-0.6345
N13610 X1.2342 Y-0.6316
N13615 X1.2392 Y-0.6284
N13620 X1.2441 Y-0.6248
N13625 X1.2487 Y-0.621
N13630 X1.2532 Y-0.617
N13635 X1.2575 Y-0.6128
N13640 X1.2616 Y-0.6085
N13645 X1.2655 Y-0.6039
N13650 X1.2692 Y-0.5992
N13655 X1.2728 Y-0.5944
N13660 X1.2761 Y-0.5894
N13665 X1.2793 Y-0.5843
N13670 X1.2822 Y-0.5791
N13675 X1.285 Y-0.5738
N13680 X1.2877 Y-0.5684
N13685 X1.2901 Y-0.5629
N13690 X1.2923 Y-0.5573
N13695 X1.2944 Y-0.5517
N13700 X1.2963 Y-0.546
N13705 X1.298 Y-0.5402
N13710 X1.2995 Y-0.5344
N13715 X1.3009 Y-0.5286
N13720 X1.302 Y-0.5227
N13725 X1.303 Y-0.5168
N13730 X1.3038 Y-0.5108
N13735 X1.3044 Y-0.5049
N13740 X1.3048 Y-0.4989
N13745 X1.305 Y-0.4929
N13750 Y-0.4869
N13755 X1.3049 Y-0.4809
N13760 X1.3045 Y-0.4749
N13765 X1.3039 Y-0.4689
N13770 X1.3032 Y-0.463
N13775 X1.3022 Y-0.457
N13780 X1.301 Y-0.4512
N13785 X1.2995 Y-0.4453
N13790 X1.2979 Y-0.4396
N13795 X1.296 Y-0.4339
N13800 X1.2938 Y-0.4283
N13805 X1.2915 Y-0.4228
N13810 X1.2889 Y-0.4173
N13815 X1.2797 Y-0.4027
N13820 X1.2683 Y-0.3897
N13825 X1.255 Y-0.3786
N13830 X1.2402 Y-0.3697
N13835 X1.2242 Y-0.3632
N13840 X1.2073 Y-0.3592
N13845 X1.1901 Y-0.3579
N13850 X1.1729
N13855 G3 X1.1368 Y-0.3966 Z0.758 I0.0013 J-0.0375
N13860 G1 X1.1371 Y-0.4002
N13865 X1.1636 Y-0.6034
N13870 X1.1644 Y-0.6095 Z0.7572
N13875 G3 X1.2002 Y-0.6421 Z0.75 I0.0372 J0.0048
N13880 G1 X1.2169
N13885 X1.2229 Y-0.6418
N13890 X1.2288 Y-0.6408
N13895 X1.2345 Y-0.6391
N13900 X1.2401 Y-0.637
N13905 X1.2455 Y-0.6344
N13910 X1.2508 Y-0.6314
N13915 X1.2558 Y-0.6281
N13920 X1.2606 Y-0.6246
N13925 X1.2653 Y-0.6208
N13930 X1.2698 Y-0.6168
N13935 X1.274 Y-0.6126
N13940 X1.2781 Y-0.6082
N13945 X1.282 Y-0.6036
N13950 X1.2857 Y-0.5989
N13955 X1.2892 Y-0.5941
N13960 X1.2926 Y-0.5891
N13965 X1.2957 Y-0.584
N13970 X1.2987 Y-0.5788
N13975 X1.3015 Y-0.5734
N13980 X1.3041 Y-0.568
N13985 X1.3065 Y-0.5625
N13990 X1.3087 Y-0.557
N13995 X1.3108 Y-0.5513
N14000 X1.3127 Y-0.5456
N14005 X1.3144 Y-0.5399
N14010 X1.3159 Y-0.5341
N14015 X1.3172 Y-0.5282
N14020 X1.3184 Y-0.5223
N14025 X1.3193 Y-0.5164
N14030 X1.3201 Y-0.5105
N14035 X1.3207 Y-0.5045
N14040 X1.3211 Y-0.4985
N14045 X1.3213 Y-0.4925
N14050 Y-0.4865
N14055 X1.3211 Y-0.4805
N14060 X1.3208 Y-0.4745
N14065 X1.3202 Y-0.4686
N14070 X1.3194 Y-0.4626
N14075 X1.3184 Y-0.4567
N14080 X1.3172 Y-0.4508
N14085 X1.3158 Y-0.445
N14090 X1.3141 Y-0.4392
N14095 X1.3122 Y-0.4335
N14100 X1.3101 Y-0.4279
N14105 X1.3024 Y-0.413
N14110 X1.2925 Y-0.3993
N14115 X1.2808 Y-0.3872
N14120 X1.2674 Y-0.3769
N14125 X1.2527 Y-0.3687
N14130 X1.237 Y-0.3627
N14135 X1.2206 Y-0.3591
N14140 X1.2038 Y-0.3579
N14145 X1.1901
N14150 G3 X1.1539 Y-0.3966 Z0.758 I0.0013 J-0.0375
N14155 G1 X1.1542 Y-0.4001
N14160 X1.1802 Y-0.6034
N14165 X1.181 Y-0.6094 Z0.7572
N14170 G3 X1.2169 Y-0.6421 Z0.75 I0.0372 J0.0048
N14175 G1 X1.2324
N14180 X1.2384 Y-0.6418
N14185 X1.2444 Y-0.6409
N14190 X1.2502 Y-0.6393
N14195 X1.2558 Y-0.6372
N14200 X1.2612 Y-0.6347
N14205 X1.2664 Y-0.6318
N14210 X1.2715 Y-0.6285
N14215 X1.2764 Y-0.625
N14220 X1.281 Y-0.6213
N14225 X1.2855 Y-0.6173
N14230 X1.2898 Y-0.6131
N14235 X1.2939 Y-0.6087
N14240 X1.2978 Y-0.6042
N14245 X1.3016 Y-0.5995
N14250 X1.3051 Y-0.5946
N14255 X1.3085 Y-0.5896
N14260 X1.3117 Y-0.5846
N14265 X1.3146 Y-0.5794
N14270 X1.3175 Y-0.5741
N14275 X1.3201 Y-0.5687
N14280 X1.3225 Y-0.5632
N14285 X1.3248 Y-0.5576
N14290 X1.3269 Y-0.552
N14295 X1.3288 Y-0.5463
N14300 X1.3305 Y-0.5406
N14305 X1.332 Y-0.5348
N14310 X1.3334 Y-0.5289
N14315 X1.3345 Y-0.523
N14320 X1.3355 Y-0.5171
N14325 X1.3363 Y-0.5112
N14330 X1.3369 Y-0.5052
N14335 X1.3374 Y-0.4992
N14340 X1.3376 Y-0.4932
N14345 Y-0.4872
N14350 X1.3375 Y-0.4812
N14355 X1.3371 Y-0.4752
N14360 X1.3366 Y-0.4692
N14365 X1.3358 Y-0.4633
N14370 X1.3348 Y-0.4574
N14375 X1.3336 Y-0.4515
N14380 X1.3322 Y-0.4457
N14385 X1.3305 Y-0.4399
N14390 X1.3286 Y-0.4342
N14395 X1.3264 Y-0.4286
N14400 X1.3241 Y-0.4231
N14405 X1.3147 Y-0.4072
N14410 X1.3029 Y-0.3929
N14415 X1.289 Y-0.3807
N14420 X1.2733 Y-0.3709
N14425 X1.2563 Y-0.3637
N14430 X1.2383 Y-0.3593
N14435 X1.2199 Y-0.3579
N14440 X1.2038
N14445 G3 X1.1676 Y-0.3966 Z0.758 I0.0013 J-0.0375
N14450 G1 X1.1679 Y-0.4004
N14455 X1.1957 Y-0.6034
N14460 X1.1966 Y-0.6098 Z0.7571
N14465 G3 X1.2324 Y-0.6421 Z0.75 I0.0372 J0.0051
N14470 G1 X1.2488
N14475 X1.2547 Y-0.6418
N14480 X1.2607 Y-0.6409
N14485 X1.2665 Y-0.6393
N14490 X1.2721 Y-0.6372
N14495 X1.2775 Y-0.6346
N14500 X1.2827 Y-0.6317
N14505 X1.2878 Y-0.6285
N14510 X1.2927 Y-0.625
N14515 X1.2973 Y-0.6212
N14520 X1.3018 Y-0.6172
N14525 X1.3061 Y-0.6131
N14530 X1.3102 Y-0.6087
N14535 X1.3141 Y-0.6041
N14540 X1.3179 Y-0.5994
N14545 X1.3214 Y-0.5946
N14550 X1.3248 Y-0.5896
N14555 X1.328 Y-0.5845
N14560 X1.3309 Y-0.5793
N14565 X1.3337 Y-0.574
N14570 X1.3364 Y-0.5686
N14575 X1.3388 Y-0.5631
N14580 X1.3411 Y-0.5576
N14585 X1.3432 Y-0.552
N14590 X1.3451 Y-0.5463
N14595 X1.3468 Y-0.5405
N14600 X1.3483 Y-0.5347
N14605 X1.3497 Y-0.5289
N14610 X1.3508 Y-0.523
N14615 X1.3518 Y-0.5171
N14620 X1.3526 Y-0.5111
N14625 X1.3532 Y-0.5052
N14630 X1.3537 Y-0.4992
N14635 X1.3539 Y-0.4932
N14640 Y-0.4872
N14645 X1.3537 Y-0.4812
N14650 X1.3534 Y-0.4752
N14655 X1.3528 Y-0.4692
N14660 X1.352 Y-0.4633
N14665 X1.3511 Y-0.4574
N14670 X1.3498 Y-0.4515
N14675 X1.3483 Y-0.4457
N14680 X1.3467 Y-0.4399
N14685 X1.3448 Y-0.4342
N14690 X1.3426 Y-0.4286
N14695 X1.3402 Y-0.4231
N14700 X1.3399 Y-0.4224
N14705 X1.3308 Y-0.4067
N14710 X1.3192 Y-0.3926
N14715 X1.3055 Y-0.3805
N14720 X1.2901 Y-0.3708
N14725 X1.2734 Y-0.3637
N14730 X1.2557 Y-0.3593
N14735 X1.2375 Y-0.3579
N14740 X1.2199
N14745 G3 X1.1837 Y-0.3966 Z0.758 I0.0013 J-0.0375
N14750 G1 X1.184 Y-0.4005
N14755 X1.212 Y-0.6034
N14760 X1.2129 Y-0.6098 Z0.7571
N14765 G3 X1.2488 Y-0.6421 Z0.75 I0.0371 J0.0051
N14770 G1 X1.2667
N14775 X1.2727 Y-0.6418
N14780 X1.2786 Y-0.6407
N14785 X1.2843 Y-0.6389
N14790 X1.2899 Y-0.6366
N14795 X1.2952 Y-0.634
N14800 X1.3004 Y-0.631
N14805 X1.3054 Y-0.6276
N14810 X1.3102 Y-0.6241
N14815 X1.3149 Y-0.6202
N14820 X1.3193 Y-0.6162
N14825 X1.3235 Y-0.6119
N14830 X1.3276 Y-0.6075
N14835 X1.3314 Y-0.6029
N14840 X1.3351 Y-0.5982
N14845 X1.3386 Y-0.5933
N14850 X1.3419 Y-0.5883
N14855 X1.345 Y-0.5832
N14860 X1.348 Y-0.5779
N14865 X1.3508 Y-0.5726
N14870 X1.3533 Y-0.5672
N14875 X1.3557 Y-0.5617
N14880 X1.3579 Y-0.5561
N14885 X1.36 Y-0.5505
N14890 X1.3618 Y-0.5448
N14895 X1.3635 Y-0.539
N14900 X1.365 Y-0.5332
N14905 X1.3663 Y-0.5273
N14910 X1.3674 Y-0.5214
N14915 X1.3683 Y-0.5155
N14920 X1.3691 Y-0.5096
N14925 X1.3696 Y-0.5036
N14930 X1.37 Y-0.4976
N14935 X1.3702 Y-0.4916
N14940 X1.3701 Y-0.4856
N14945 X1.3699 Y-0.4796
N14950 X1.3695 Y-0.4736
N14955 X1.3689 Y-0.4677
N14960 X1.368 Y-0.4617
N14965 X1.367 Y-0.4558
N14970 X1.3657 Y-0.45
N14975 X1.3641 Y-0.4441
N14980 X1.3624 Y-0.4384
N14985 X1.3605 Y-0.4327
N14990 X1.3583 Y-0.4271
N14995 X1.3559 Y-0.4216
N15000 X1.3467 Y-0.4061
N15005 X1.3352 Y-0.3921
N15010 X1.3216 Y-0.3802
N15015 X1.3062 Y-0.3706
N15020 X1.2896 Y-0.3636
N15025 X1.272 Y-0.3593
N15030 X1.254 Y-0.3579
N15035 X1.2375
N15040 G3 X1.2013 Y-0.3966 Z0.758 I0.0013 J-0.0375
N15045 G1 X1.2017 Y-0.4005
N15050 X1.23 Y-0.6034
N15055 X1.2309 Y-0.6098 Z0.7571
N15060 G3 X1.2667 Y-0.6421 Z0.75 I0.0371 J0.0052
N15065 G1 X1.2815
N15070 X1.2875 Y-0.6418
N15075 X1.2934 Y-0.6409
N15080 X1.2992 Y-0.6393
N15085 X1.3048 Y-0.6372
N15090 X1.3102 Y-0.6346
N15095 X1.3154 Y-0.6317
N15100 X1.3205 Y-0.6284
N15105 X1.3254 Y-0.6249
N15110 X1.33 Y-0.6211
N15115 X1.3345 Y-0.6172
N15120 X1.3388 Y-0.613
N15125 X1.3429 Y-0.6086
N15130 X1.3468 Y-0.604
N15135 X1.3505 Y-0.5993
N15140 X1.3541 Y-0.5945
N15145 X1.3574 Y-0.5895
N15150 X1.3606 Y-0.5844
N15155 X1.3636 Y-0.5792
N15160 X1.3664 Y-0.5739
N15165 X1.369 Y-0.5685
N15170 X1.3715 Y-0.563
N15175 X1.3737 Y-0.5575
N15180 X1.3758 Y-0.5518
N15185 X1.3777 Y-0.5462
N15190 X1.3794 Y-0.5404
N15195 X1.3809 Y-0.5346
N15200 X1.3823 Y-0.5288
N15205 X1.3834 Y-0.5229
N15210 X1.3844 Y-0.5169
N15215 X1.3852 Y-0.511
N15220 X1.3858 Y-0.505
N15225 X1.3862 Y-0.499
N15230 X1.3864 Y-0.493
N15235 Y-0.487
N15240 X1.3862 Y-0.481
N15245 X1.3859 Y-0.4751
N15250 X1.3853 Y-0.4691
N15255 X1.3845 Y-0.4631
N15260 X1.3835 Y-0.4572
N15265 X1.3823 Y-0.4513
N15270 X1.3808 Y-0.4455
N15275 X1.3792 Y-0.4398
N15280 X1.3773 Y-0.4341
N15285 X1.3751 Y-0.4285
N15290 X1.3728 Y-0.4229
N15295 X1.3702 Y-0.4175
N15300 X1.361 Y-0.4029
N15305 X1.3495 Y-0.3898
N15310 X1.3362 Y-0.3787
N15315 X1.3214 Y-0.3697
N15320 X1.3053 Y-0.3632
N15325 X1.2885 Y-0.3592
N15330 X1.2712 Y-0.3579
N15335 X1.254
N15340 G3 X1.2178 Y-0.3966 Z0.758 I0.0013 J-0.0375
N15345 G1 X1.2181 Y-0.4002
N15350 X1.2448 Y-0.6034
N15355 X1.2456 Y-0.6096 Z0.7572
N15360 G3 X1.2815 Y-0.6421 Z0.75 I0.0372 J0.0049
N15365 G1 X1.2985
N15370 X1.3044 Y-0.6418
N15375 X1.3104 Y-0.6408
N15380 X1.3161 Y-0.6391
N15385 X1.3217 Y-0.6369
N15390 X1.3271 Y-0.6343
N15395 X1.3323 Y-0.6313
N15400 X1.3373 Y-0.6281
N15405 X1.3422 Y-0.6245
N15410 X1.3468 Y-0.6207
N15415 X1.3513 Y-0.6167
N15420 X1.3556 Y-0.6125
N15425 X1.3596 Y-0.6081
N15430 X1.3635 Y-0.6035
N15435 X1.3672 Y-0.5988
N15440 X1.3708 Y-0.5939
N15445 X1.3741 Y-0.5889
N15450 X1.3772 Y-0.5838
N15455 X1.3802 Y-0.5786
N15460 X1.383 Y-0.5733
N15465 X1.3856 Y-0.5679
N15470 X1.388 Y-0.5624
N15475 X1.3902 Y-0.5568
N15480 X1.3923 Y-0.5512
N15485 X1.3941 Y-0.5455
N15490 X1.3958 Y-0.5397
N15495 X1.3973 Y-0.5339
N15500 X1.3987 Y-0.5281
N15505 X1.3998 Y-0.5222
N15510 X1.4007 Y-0.5163
N15515 X1.4015 Y-0.5103
N15520 X1.4021 Y-0.5043
N15525 X1.4025 Y-0.4984
N15530 X1.4027 Y-0.4924
N15535 Y-0.4864
N15540 X1.4025 Y-0.4804
N15545 X1.4021 Y-0.4744
N15550 X1.4015 Y-0.4684
N15555 X1.4007 Y-0.4625
N15560 X1.3997 Y-0.4565
N15565 X1.3985 Y-0.4507
N15570 X1.397 Y-0.4448
N15575 X1.3953 Y-0.4391
N15580 X1.3934 Y-0.4334
N15585 X1.3913 Y-0.4278
N15590 X1.3889 Y-0.4223
N15595 X1.3798 Y-0.4066
N15600 X1.3683 Y-0.3925
N15605 X1.3547 Y-0.3805
N15610 X1.3393 Y-0.3708
N15615 X1.3226 Y-0.3637
N15620 X1.305 Y-0.3593
N15625 X1.2869 Y-0.3579
N15630 X1.2712
N15635 G3 X1.235 Y-0.3966 Z0.758 I0.0013 J-0.0375
N15640 G1 X1.2353 Y-0.4002
N15645 X1.2618 Y-0.6034
N15650 X1.2626 Y-0.6095 Z0.7572
N15655 G3 X1.2985 Y-0.6421 Z0.75 I0.0372 J0.0048
N15660 G1 X1.314
N15665 X1.32 Y-0.6418
N15670 X1.3259 Y-0.6409
N15675 X1.3317 Y-0.6393
N15680 X1.3373 Y-0.6372
N15685 X1.3427 Y-0.6346
N15690 X1.3479 Y-0.6317
N15695 X1.353 Y-0.6285
N15700 X1.3579 Y-0.625
N15705 X1.3625 Y-0.6212
N15710 X1.367 Y-0.6172
N15715 X1.3713 Y-0.613
N15720 X1.3754 Y-0.6086
N15725 X1.3793 Y-0.6041
N15730 X1.3831 Y-0.5994
N15735 X1.3866 Y-0.5945
N15740 X1.39 Y-0.5896
N15745 X1.3931 Y-0.5845
N15750 X1.3961 Y-0.5793
N15755 X1.3989 Y-0.574
N15760 X1.4015 Y-0.5686
N15765 X1.404 Y-0.5631
N15770 X1.4062 Y-0.5575
N15775 X1.4083 Y-0.5519
N15780 X1.4102 Y-0.5462
N15785 X1.4119 Y-0.5405
N15790 X1.4134 Y-0.5347
N15795 X1.4148 Y-0.5288
N15800 X1.4159 Y-0.5229
N15805 X1.4169 Y-0.517
N15810 X1.4177 Y-0.5111
N15815 X1.4183 Y-0.5051
N15820 X1.4187 Y-0.4991
N15825 X1.4189 Y-0.4931
N15830 X1.419 Y-0.4871
N15835 X1.4188 Y-0.4811
N15840 X1.4184 Y-0.4751
N15845 X1.4179 Y-0.4691
N15850 X1.4171 Y-0.4632
N15855 X1.4162 Y-0.4573
N15860 X1.4149 Y-0.4514
N15865 X1.4135 Y-0.4456
N15870 X1.4118 Y-0.4398
N15875 X1.41 Y-0.4341
N15880 X1.4078 Y-0.4285
N15885 X1.4055 Y-0.423
N15890 X1.4029 Y-0.4175
N15895 X1.3937 Y-0.4029
N15900 X1.3823 Y-0.3898
N15905 X1.369 Y-0.3787
N15910 X1.3542 Y-0.3697
N15915 X1.3381 Y-0.3632
N15920 X1.3213 Y-0.3592
N15925 X1.304 Y-0.3579
N15930 X1.2869
N15935 G3 X1.2507 Y-0.3966 Z0.758 I0.0013 J-0.0375
N15940 G1 X1.251 Y-0.4001
N15945 X1.2773 Y-0.6034
N15950 X1.2781 Y-0.6095 Z0.7572
N15955 G3 X1.314 Y-0.6421 Z0.75 I0.0372 J0.0048
N15960 G1 X1.3309
N15965 X1.3369 Y-0.6418
N15970 X1.3428 Y-0.6408
N15975 X1.3486 Y-0.6391
N15980 X1.3541 Y-0.6369
N15985 X1.3596 Y-0.6343
N15990 X1.3648 Y-0.6314
N15995 X1.3698 Y-0.6281
N16000 X1.3746 Y-0.6246
N16005 X1.3793 Y-0.6208
N16010 X1.3838 Y-0.6168
N16015 X1.388 Y-0.6126
N16020 X1.3921 Y-0.6082
N16025 X1.396 Y-0.6036
N16030 X1.3997 Y-0.5989
N16035 X1.4032 Y-0.594
N16040 X1.4066 Y-0.589
N16045 X1.4097 Y-0.5839
N16050 X1.4127 Y-0.5787
N16055 X1.4155 Y-0.5734
N16060 X1.4181 Y-0.568
N16065 X1.4205 Y-0.5625
N16070 X1.4227 Y-0.5569
N16075 X1.4248 Y-0.5513
N16080 X1.4267 Y-0.5456
N16085 X1.4283 Y-0.5398
N16090 X1.4299 Y-0.534
N16095 X1.4312 Y-0.5282
N16100 X1.4323 Y-0.5223
N16105 X1.4333 Y-0.5164
N16110 X1.4341 Y-0.5104
N16115 X1.4347 Y-0.5045
N16120 X1.4351 Y-0.4985
N16125 X1.4353 Y-0.4925
N16130 Y-0.4865
N16135 X1.4351 Y-0.4805
N16140 X1.4347 Y-0.4745
N16145 X1.4341 Y-0.4685
N16150 X1.4333 Y-0.4626
N16155 X1.4323 Y-0.4566
N16160 X1.4311 Y-0.4508
N16165 X1.4297 Y-0.4449
N16170 X1.428 Y-0.4392
N16175 X1.4261 Y-0.4335
N16180 X1.424 Y-0.4279
N16185 X1.4216 Y-0.4224
N16190 X1.4126 Y-0.4066
N16195 X1.4011 Y-0.3925
N16200 X1.3875 Y-0.3805
N16205 X1.3721 Y-0.3708
N16210 X1.3554 Y-0.3637
N16215 X1.3378 Y-0.3593
N16220 X1.3196 Y-0.3579
N16225 X1.304
N16230 G3 X1.2678 Y-0.3966 Z0.758 I0.0013 J-0.0375
N16235 G1 X1.2681 Y-0.4001
N16240 X1.2942 Y-0.6034
N16245 X1.295 Y-0.6094 Z0.7572
N16250 G3 X1.3309 Y-0.6421 Z0.75 I0.0372 J0.0048
N16255 G1 X1.3465
N16260 X1.3524 Y-0.6418
N16265 X1.3584 Y-0.6409
N16270 X1.3642 Y-0.6393
N16275 X1.3698 Y-0.6372
N16280 X1.3752 Y-0.6347
N16285 X1.3804 Y-0.6317
N16290 X1.3855 Y-0.6285
N16295 X1.3904 Y-0.625
N16300 X1.395 Y-0.6212
N16305 X1.3995 Y-0.6172
N16310 X1.4038 Y-0.6131
N16315 X1.4079 Y-0.6087
N16320 X1.4118 Y-0.6041
N16325 X1.4156 Y-0.5994
N16330 X1.4191 Y-0.5946
N16335 X1.4225 Y-0.5896
N16340 X1.4256 Y-0.5845
N16345 X1.4286 Y-0.5793
N16350 X1.4314 Y-0.574
N16355 X1.4341 Y-0.5686
N16360 X1.4365 Y-0.5631
N16365 X1.4388 Y-0.5576
N16370 X1.4408 Y-0.552
N16375 X1.4427 Y-0.5463
N16380 X1.4445 Y-0.5405
N16385 X1.446 Y-0.5347
N16390 X1.4473 Y-0.5289
N16395 X1.4485 Y-0.523
N16400 X1.4495 Y-0.5171
N16405 X1.4503 Y-0.5111
N16410 X1.4509 Y-0.5051
N16415 X1.4513 Y-0.4992
N16420 X1.4515 Y-0.4932
N16425 X1.4516 Y-0.4872
N16430 X1.4514 Y-0.4812
N16435 X1.4511 Y-0.4752
N16440 X1.4505 Y-0.4692
N16445 X1.4498 Y-0.4632
N16450 X1.4488 Y-0.4573
N16455 X1.4476 Y-0.4515
N16460 X1.4461 Y-0.4456
N16465 X1.4445 Y-0.4399
N16470 X1.4427 Y-0.4341
N16475 X1.4405 Y-0.4285
N16480 X1.4382 Y-0.423
N16485 X1.4356 Y-0.4176
N16490 X1.4264 Y-0.4029
N16495 X1.415 Y-0.3899
N16500 X1.4017 Y-0.3787
N16505 X1.3869 Y-0.3698
N16510 X1.3708 Y-0.3632
N16515 X1.354 Y-0.3592
N16520 X1.3367 Y-0.3579
N16525 X1.3196
N16530 G3 X1.2835 Y-0.3966 Z0.758 I0.0013 J-0.0375
N16535 G1 X1.2838 Y-0.4001
N16540 X1.3098 Y-0.6034
N16545 X1.3106 Y-0.6094 Z0.7572
N16550 G3 X1.3465 Y-0.6421 Z0.75 I0.0372 J0.0048
N16555 G1 X1.3631
N16560 X1.3691 Y-0.6418
N16565 X1.375 Y-0.6409
N16570 X1.3808 Y-0.6392
N16575 X1.3864 Y-0.6371
N16580 X1.3918 Y-0.6345
N16585 X1.397 Y-0.6316
N16590 X1.4021 Y-0.6283
N16595 X1.4069 Y-0.6248
N16600 X1.4116 Y-0.621
N16605 X1.4161 Y-0.617
N16610 X1.4204 Y-0.6128
N16615 X1.4244 Y-0.6084
N16620 X1.4283 Y-0.6039
N16625 X1.4321 Y-0.5991
N16630 X1.4356 Y-0.5943
N16635 X1.4389 Y-0.5893
N16640 X1.4421 Y-0.5842
N16645 X1.4451 Y-0.579
N16650 X1.4479 Y-0.5737
N16655 X1.4505 Y-0.5683
N16660 X1.4529 Y-0.5628
N16665 X1.4552 Y-0.5572
N16670 X1.4572 Y-0.5516
N16675 X1.4591 Y-0.5459
N16680 X1.4608 Y-0.5402
N16685 X1.4624 Y-0.5344
N16690 X1.4637 Y-0.5285
N16695 X1.4649 Y-0.5226
N16700 X1.4658 Y-0.5167
N16705 X1.4666 Y-0.5108
N16710 X1.4672 Y-0.5048
N16715 X1.4676 Y-0.4988
N16720 X1.4679 Y-0.4928
N16725 Y-0.4868
N16730 X1.4677 Y-0.4808
N16735 X1.4673 Y-0.4748
N16740 X1.4668 Y-0.4688
N16745 X1.466 Y-0.4629
N16750 X1.465 Y-0.457
N16755 X1.4638 Y-0.4511
N16760 X1.4624 Y-0.4453
N16765 X1.4607 Y-0.4395
N16770 X1.4589 Y-0.4338
N16775 X1.4568 Y-0.4282
N16780 X1.4544 Y-0.4227
N16785 X1.4454 Y-0.4069
N16790 X1.4339 Y-0.3927
N16795 X1.4202 Y-0.3806
N16800 X1.4049 Y-0.3709
N16805 X1.3881 Y-0.3637
N16810 X1.3704 Y-0.3593
N16815 X1.3522 Y-0.3579
N16820 X1.3367
N16825 G3 X1.3005 Y-0.3966 Z0.758 I0.0013 J-0.0375
N16830 G1 X1.3008 Y-0.4
N16835 X1.3265 Y-0.6034
N16840 X1.3272 Y-0.6094 Z0.7572
N16845 G3 X1.3631 Y-0.6421 Z0.75 I0.0372 J0.0047
N16850 G1 X1.3802
N16855 X1.3862 Y-0.6418
N16860 X1.3921 Y-0.6407
N16865 X1.3978 Y-0.639
N16870 X1.4034 Y-0.6368
N16875 X1.4088 Y-0.6342
N16880 X1.414 Y-0.6312
N16885 X1.419 Y-0.6279
N16890 X1.4238 Y-0.6243
N16895 X1.4285 Y-0.6205
N16900 X1.4329 Y-0.6165
N16905 X1.4372 Y-0.6122
N16910 X1.4412 Y-0.6078
N16915 X1.4451 Y-0.6033
N16920 X1.4488 Y-0.5985
N16925 X1.4523 Y-0.5937
N16930 X1.4556 Y-0.5887
N16935 X1.4588 Y-0.5835
N16940 X1.4617 Y-0.5783
N16945 X1.4645 Y-0.573
N16950 X1.4671 Y-0.5676
N16955 X1.4695 Y-0.5621
N16960 X1.4717 Y-0.5565
N16965 X1.4738 Y-0.5509
N16970 X1.4756 Y-0.5452
N16975 X1.4773 Y-0.5394
N16980 X1.4788 Y-0.5336
N16985 X1.4802 Y-0.5278
N16990 X1.4813 Y-0.5219
N16995 X1.4822 Y-0.5159
N17000 X1.483 Y-0.51
N17005 X1.4836 Y-0.504
N17010 X1.484 Y-0.498
N17015 X1.4842 Y-0.492
N17020 Y-0.486
N17025 X1.484 Y-0.48
N17030 X1.4836 Y-0.474
N17035 X1.483 Y-0.4681
N17040 X1.4822 Y-0.4621
N17045 X1.4812 Y-0.4562
N17050 X1.48 Y-0.4503
N17055 X1.4785 Y-0.4445
N17060 X1.4768 Y-0.4388
N17065 X1.4749 Y-0.4331
N17070 X1.4727 Y-0.4275
N17075 X1.4704 Y-0.422
N17080 X1.4613 Y-0.4063
N17085 X1.4498 Y-0.3923
N17090 X1.4362 Y-0.3804
N17095 X1.4209 Y-0.3707
N17100 X1.4042 Y-0.3636
N17105 X1.3866 Y-0.3593
N17110 X1.3686 Y-0.3579
N17115 X1.3522
N17120 G3 X1.3161 Y-0.3966 Z0.758 I0.0013 J-0.0375
N17125 G1 X1.3164 Y-0.4003
N17130 X1.3435 Y-0.6034
N17135 X1.3443 Y-0.6096 Z0.7571
N17140 G3 X1.3802 Y-0.6421 Z0.75 I0.0372 J0.005
N17145 G1 X1.3968
N17150 X1.4028 Y-0.6418
N17155 X1.4087 Y-0.6407
N17160 X1.4145 Y-0.6389
N17165 X1.42 Y-0.6367
N17170 X1.4254 Y-0.634
N17175 X1.4306 Y-0.631
N17180 X1.4356 Y-0.6277
N17185 X1.4404 Y-0.6241
N17190 X1.445 Y-0.6203
N17195 X1.4495 Y-0.6162
N17200 X1.4537 Y-0.612
N17205 X1.4578 Y-0.6076
N17210 X1.4616 Y-0.603
N17215 X1.4653 Y-0.5983
N17220 X1.4688 Y-0.5934
N17225 X1.4721 Y-0.5884
N17230 X1.4753 Y-0.5833
N17235 X1.4782 Y-0.578
N17240 X1.481 Y-0.5727
N17245 X1.4835 Y-0.5673
N17250 X1.4859 Y-0.5618
N17255 X1.4882 Y-0.5562
N17260 X1.4902 Y-0.5506
N17265 X1.492 Y-0.5449
N17270 X1.4937 Y-0.5391
N17275 X1.4952 Y-0.5333
N17280 X1.4965 Y-0.5274
N17285 X1.4976 Y-0.5215
N17290 X1.4986 Y-0.5156
N17295 X1.4994 Y-0.5097
N17300 X1.4999 Y-0.5037
N17305 X1.5003 Y-0.4977
N17310 X1.5005 Y-0.4917
N17315 Y-0.4857
N17320 X1.5003 Y-0.4797
N17325 X1.4999 Y-0.4737
N17330 X1.4993 Y-0.4677
N17335 X1.4985 Y-0.4618
N17340 X1.4974 Y-0.4559
N17345 X1.4962 Y-0.45
N17350 X1.4947 Y-0.4442
N17355 X1.493 Y-0.4385
N17360 X1.4911 Y-0.4328
N17365 X1.4887 Y-0.4267
N17370 X1.481 Y-0.412
N17375 X1.4712 Y-0.3986
N17380 X1.4597 Y-0.3867
N17385 X1.4465 Y-0.3766
N17390 X1.432 Y-0.3685
N17395 X1.4165 Y-0.3626
N17400 X1.4003 Y-0.3591
N17405 X1.3837 Y-0.3579
N17410 X1.3686
N17415 G3 X1.3324 Y-0.3966 Z0.758 I0.0013 J-0.0375
N17420 G1 X1.3327 Y-0.4004
N17425 X1.3601 Y-0.6034
N17430 X1.361 Y-0.6097 Z0.7571
N17435 G3 X1.3968 Y-0.6421 Z0.75 I0.0372 J0.005
N17440 G1 X1.4124
N17445 X1.4184 Y-0.6418
N17450 X1.4243 Y-0.6408
N17455 X1.4301 Y-0.6391
N17460 X1.4357 Y-0.6369
N17465 X1.4411 Y-0.6343
N17470 X1.4463 Y-0.6314
N17475 X1.4513 Y-0.6281
N17480 X1.4561 Y-0.6245
N17485 X1.4608 Y-0.6207
N17490 X1.4652 Y-0.6167
N17495 X1.4695 Y-0.6125
N17500 X1.4736 Y-0.6081
N17505 X1.4775 Y-0.6035
N17510 X1.4812 Y-0.5988
N17515 X1.4847 Y-0.594
N17520 X1.488 Y-0.589
N17525 X1.4912 Y-0.5839
N17530 X1.4942 Y-0.5786
N17535 X1.4969 Y-0.5733
N17540 X1.4995 Y-0.5679
N17545 X1.502 Y-0.5624
N17550 X1.5042 Y-0.5569
N17555 X1.5063 Y-0.5512
N17560 X1.5081 Y-0.5455
N17565 X1.5098 Y-0.5398
N17570 X1.5114 Y-0.534
N17575 X1.5127 Y-0.5281
N17580 X1.5138 Y-0.5222
N17585 X1.5148 Y-0.5163
N17590 X1.5156 Y-0.5104
N17595 X1.5162 Y-0.5044
N17600 X1.5166 Y-0.4984
N17605 X1.5168 Y-0.4924
N17610 Y-0.4864
N17615 X1.5166 Y-0.4804
N17620 X1.5162 Y-0.4744
N17625 X1.5156 Y-0.4684
N17630 X1.5148 Y-0.4625
N17635 X1.5138 Y-0.4566
N17640 X1.5126 Y-0.4507
N17645 X1.5111 Y-0.4449
N17650 X1.5094 Y-0.4391
N17655 X1.5075 Y-0.4335
N17660 X1.5053 Y-0.4279
N17665 X1.5029 Y-0.4224
N17670 X1.4936 Y-0.4066
N17675 X1.4819 Y-0.3925
N17680 X1.4681 Y-0.3805
N17685 X1.4525 Y-0.3708
N17690 X1.4357 Y-0.3637
N17695 X1.4179 Y-0.3593
N17700 X1.3996 Y-0.3579
N17705 X1.3837
N17710 G3 X1.3476 Y-0.3966 Z0.758 I0.0013 J-0.0375
N17715 G1 X1.3479 Y-0.4004
N17720 X1.3757 Y-0.6034
N17725 X1.3766 Y-0.6098 Z0.7571
N17730 G3 X1.4124 Y-0.6421 Z0.75 I0.0372 J0.0051
N17735 G1 X1.4287
N17740 X1.4347 Y-0.6418
N17745 X1.4406 Y-0.6408
N17750 X1.4464 Y-0.6391
N17755 X1.452 Y-0.6369
N17760 X1.4574 Y-0.6343
N17765 X1.4626 Y-0.6313
N17770 X1.4676 Y-0.6281
N17775 X1.4724 Y-0.6245
N17780 X1.4771 Y-0.6207
N17785 X1.4816 Y-0.6167
N17790 X1.4858 Y-0.6125
N17795 X1.4899 Y-0.6081
N17800 X1.4938 Y-0.6035
N17805 X1.4975 Y-0.5988
N17810 X1.501 Y-0.5939
N17815 X1.5043 Y-0.5889
N17820 X1.5075 Y-0.5838
N17825 X1.5105 Y-0.5786
N17830 X1.5132 Y-0.5733
N17835 X1.5158 Y-0.5679
N17840 X1.5183 Y-0.5624
N17845 X1.5205 Y-0.5568
N17850 X1.5226 Y-0.5512
N17855 X1.5244 Y-0.5455
N17860 X1.5261 Y-0.5398
N17865 X1.5277 Y-0.534
N17870 X1.529 Y-0.5281
N17875 X1.5301 Y-0.5222
N17880 X1.5311 Y-0.5163
N17885 X1.5319 Y-0.5103
N17890 X1.5325 Y-0.5044
N17895 X1.5328 Y-0.4984
N17900 X1.533 Y-0.4924
N17905 Y-0.4864
N17910 X1.5329 Y-0.4804
N17915 X1.5325 Y-0.4744
N17920 X1.5319 Y-0.4684
N17925 X1.5311 Y-0.4625
N17930 X1.5301 Y-0.4566
N17935 X1.5288 Y-0.4507
N17940 X1.5273 Y-0.4449
N17945 X1.5256 Y-0.4391
N17950 X1.5237 Y-0.4334
N17955 X1.5215 Y-0.4279
N17960 X1.5191 Y-0.4224
N17965 X1.5165 Y-0.417
N17970 X1.5071 Y-0.4024
N17975 X1.4957 Y-0.3895
N17980 X1.4823 Y-0.3785
N17985 X1.4675 Y-0.3696
N17990 X1.4514 Y-0.3631
N17995 X1.4346 Y-0.3592
N18000 X1.4174 Y-0.3579
N18005 X1.3996
N18010 G3 X1.3634 Y-0.3966 Z0.758 I0.0013 J-0.0375
N18015 G1 X1.3638 Y-0.4005
N18020 X1.392 Y-0.6034
N18025 X1.3929 Y-0.6098 Z0.7571
N18030 G3 X1.4287 Y-0.6421 Z0.75 I0.0371 J0.0052
N18035 G1 X1.4447
N18040 X1.4507 Y-0.6418
N18045 X1.4566 Y-0.6408
N18050 X1.4624 Y-0.6392
N18055 X1.4679 Y-0.637
N18060 X1.4734 Y-0.6344
N18065 X1.4786 Y-0.6315
N18070 X1.4836 Y-0.6282
N18075 X1.4885 Y-0.6247
N18080 X1.4931 Y-0.6209
N18085 X1.4976 Y-0.6169
N18090 X1.5019 Y-0.6127
N18095 X1.506 Y-0.6083
N18100 X1.5099 Y-0.6038
N18105 X1.5136 Y-0.5991
N18110 X1.5171 Y-0.5942
N18115 X1.5205 Y-0.5892
N18120 X1.5236 Y-0.5841
N18125 X1.5266 Y-0.5789
N18130 X1.5294 Y-0.5736
N18135 X1.532 Y-0.5682
N18140 X1.5344 Y-0.5627
N18145 X1.5367 Y-0.5571
N18150 X1.5388 Y-0.5515
N18155 X1.5406 Y-0.5458
N18160 X1.5423 Y-0.5401
N18165 X1.5439 Y-0.5343
N18170 X1.5452 Y-0.5284
N18175 X1.5464 Y-0.5225
N18180 X1.5473 Y-0.5166
N18185 X1.5481 Y-0.5107
N18190 X1.5487 Y-0.5047
N18195 X1.5491 Y-0.4987
N18200 X1.5493 Y-0.4927
N18205 Y-0.4867
N18210 X1.5491 Y-0.4807
N18215 X1.5487 Y-0.4747
N18220 X1.5482 Y-0.4687
N18225 X1.5474 Y-0.4628
N18230 X1.5464 Y-0.4569
N18235 X1.5452 Y-0.451
N18240 X1.5437 Y-0.4452
N18245 X1.542 Y-0.4394
N18250 X1.5402 Y-0.4337
N18255 X1.538 Y-0.4281
N18260 X1.5357 Y-0.4226
N18265 X1.5265 Y-0.4068
N18270 X1.5149 Y-0.3927
N18275 X1.5013 Y-0.3806
N18280 X1.4858 Y-0.3708
N18285 X1.469 Y-0.3637
N18290 X1.4513 Y-0.3593
N18295 X1.4331 Y-0.3579
N18300 X1.4174
N18305 G3 X1.3812 Y-0.3966 Z0.758 I0.0013 J-0.0375
N18310 G1 X1.3815 Y-0.4002
N18315 X1.408 Y-0.6034
N18320 X1.4088 Y-0.6095 Z0.7572
N18325 G3 X1.4447 Y-0.6421 Z0.75 I0.0372 J0.0049
N18330 G1 X1.4614
N18335 X1.4674 Y-0.6418
N18340 X1.4733 Y-0.6408
N18345 X1.4791 Y-0.6391
N18350 X1.4847 Y-0.6369
N18355 X1.4901 Y-0.6342
N18360 X1.4953 Y-0.6313
N18365 X1.5003 Y-0.628
N18370 X1.5051 Y-0.6244
N18375 X1.5098 Y-0.6206
N18380 X1.5142 Y-0.6166
N18385 X1.5185 Y-0.6124
N18390 X1.5226 Y-0.608
N18395 X1.5265 Y-0.6034
N18400 X1.5302 Y-0.5987
N18405 X1.5337 Y-0.5938
N18410 X1.537 Y-0.5888
N18415 X1.5401 Y-0.5837
N18420 X1.5431 Y-0.5785
N18425 X1.5459 Y-0.5732
N18430 X1.5485 Y-0.5678
N18435 X1.5509 Y-0.5623
N18440 X1.5531 Y-0.5567
N18445 X1.5552 Y-0.5511
N18450 X1.5571 Y-0.5454
N18455 X1.5587 Y-0.5396
N18460 X1.5602 Y-0.5338
N18465 X1.5616 Y-0.528
N18470 X1.5627 Y-0.5221
N18475 X1.5637 Y-0.5161
N18480 X1.5644 Y-0.5102
N18485 X1.565 Y-0.5042
N18490 X1.5654 Y-0.4982
N18495 X1.5656 Y-0.4922
N18500 Y-0.4862
N18505 X1.5654 Y-0.4802
N18510 X1.565 Y-0.4743
N18515 X1.5644 Y-0.4683
N18520 X1.5636 Y-0.4623
N18525 X1.5626 Y-0.4564
N18530 X1.5613 Y-0.4506
N18535 X1.5599 Y-0.4447
N18540 X1.5582 Y-0.439
N18545 X1.5563 Y-0.4333
N18550 X1.5541 Y-0.4277
N18555 X1.5517 Y-0.4222
N18560 X1.5491 Y-0.4168
N18565 X1.5398 Y-0.4023
N18570 X1.5284 Y-0.3894
N18575 X1.5151 Y-0.3784
N18580 X1.5003 Y-0.3696
N18585 X1.4843 Y-0.3631
N18590 X1.4676 Y-0.3592
N18595 X1.4504 Y-0.3579
N18600 X1.4331
N18605 G3 X1.3969 Y-0.3966 Z0.758 I0.0013 J-0.0375
N18610 G1 X1.3972 Y-0.4004
N18615 X1.4247 Y-0.6034
N18620 X1.4256 Y-0.6097 Z0.7571
N18625 G3 X1.4614 Y-0.6421 Z0.75 I0.0372 J0.005
N18630 G1 X1.4771
N18635 X1.4831 Y-0.6418
N18640 X1.489 Y-0.6409
N18645 X1.4948 Y-0.6392
N18650 X1.5004 Y-0.6371
N18655 X1.5058 Y-0.6345
N18660 X1.5111 Y-0.6316
N18665 X1.5161 Y-0.6283
N18670 X1.5209 Y-0.6248
N18675 X1.5256 Y-0.621
N18680 X1.5301 Y-0.617
N18685 X1.5344 Y-0.6128
N18690 X1.5385 Y-0.6084
N18695 X1.5424 Y-0.6039
N18700 X1.5461 Y-0.5992
N18705 X1.5496 Y-0.5943
N18710 X1.553 Y-0.5893
N18715 X1.5561 Y-0.5842
N18720 X1.5591 Y-0.579
N18725 X1.5619 Y-0.5737
N18730 X1.5645 Y-0.5683
N18735 X1.567 Y-0.5628
N18740 X1.5692 Y-0.5573
N18745 X1.5713 Y-0.5516
N18750 X1.5732 Y-0.5459
N18755 X1.5749 Y-0.5402
N18760 X1.5764 Y-0.5344
N18765 X1.5777 Y-0.5285
N18770 X1.5789 Y-0.5227
N18775 X1.5799 Y-0.5167
N18780 X1.5806 Y-0.5108
N18785 X1.5812 Y-0.5048
N18790 X1.5816 Y-0.4988
N18795 X1.5819 Y-0.4928
N18800 Y-0.4868
N18805 X1.5817 Y-0.4808
N18810 X1.5813 Y-0.4748
N18815 X1.5808 Y-0.4689
N18820 X1.58 Y-0.4629
N18825 X1.579 Y-0.457
N18830 X1.5778 Y-0.4511
N18835 X1.5764 Y-0.4453
N18840 X1.5747 Y-0.4395
N18845 X1.5728 Y-0.4338
N18850 X1.5707 Y-0.4282
N18855 X1.5684 Y-0.4227
N18860 X1.5593 Y-0.4069
N18865 X1.5477 Y-0.3927
N18870 X1.5341 Y-0.3806
N18875 X1.5186 Y-0.3709
N18880 X1.5018 Y-0.3637
N18885 X1.4841 Y-0.3593
N18890 X1.4659 Y-0.3579
N18895 X1.4504
N18900 G3 X1.4142 Y-0.3966 Z0.758 I0.0013 J-0.0375
N18905 G1 X1.4145 Y-0.4001
N18910 X1.4405 Y-0.6034
N18915 X1.4412 Y-0.6094 Z0.7572
N18920 G3 X1.4771 Y-0.6421 Z0.75 I0.0372 J0.0048
N18925 G1 X1.4946
N18930 X1.5006 Y-0.6418
N18935 X1.5065 Y-0.6407
N18940 X1.5122 Y-0.6389
N18945 X1.5178 Y-0.6367
N18950 X1.5232 Y-0.634
N18955 X1.5284 Y-0.631
N18960 X1.5334 Y-0.6277
N18965 X1.5382 Y-0.6241
N18970 X1.5428 Y-0.6203
N18975 X1.5472 Y-0.6162
N18980 X1.5515 Y-0.612
N18985 X1.5555 Y-0.6076
N18990 X1.5594 Y-0.603
N18995 X1.5631 Y-0.5982
N19000 X1.5666 Y-0.5934
N19005 X1.5699 Y-0.5884
N19010 X1.573 Y-0.5832
N19015 X1.576 Y-0.578
N19020 X1.5787 Y-0.5727
N19025 X1.5813 Y-0.5673
N19030 X1.5837 Y-0.5618
N19035 X1.5859 Y-0.5562
N19040 X1.5879 Y-0.5505
N19045 X1.5898 Y-0.5448
N19050 X1.5915 Y-0.5391
N19055 X1.5929 Y-0.5333
N19060 X1.5942 Y-0.5274
N19065 X1.5954 Y-0.5215
N19070 X1.5963 Y-0.5156
N19075 X1.5971 Y-0.5096
N19080 X1.5976 Y-0.5037
N19085 X1.598 Y-0.4977
N19090 X1.5982 Y-0.4917
N19095 Y-0.4857
N19100 X1.5979 Y-0.4797
N19105 X1.5975 Y-0.4737
N19110 X1.5969 Y-0.4677
N19115 X1.5961 Y-0.4618
N19120 X1.5951 Y-0.4559
N19125 X1.5938 Y-0.45
N19130 X1.5923 Y-0.4442
N19135 X1.5907 Y-0.4384
N19140 X1.5887 Y-0.4327
N19145 X1.5865 Y-0.4272
N19150 X1.5841 Y-0.4217
N19155 X1.575 Y-0.4061
N19160 X1.5635 Y-0.3921
N19165 X1.5499 Y-0.3802
N19170 X1.5346 Y-0.3706
N19175 X1.518 Y-0.3636
N19180 X1.5004 Y-0.3593
N19185 X1.4824 Y-0.3579
N19190 X1.4659
N19195 G3 X1.4297 Y-0.3966 Z0.758 I0.0013 J-0.0375
N19200 G1 X1.4301 Y-0.4004
N19205 X1.4579 Y-0.6034
N19210 X1.4588 Y-0.6098 Z0.7571
N19215 G3 X1.4946 Y-0.6421 Z0.75 I0.0372 J0.0051
N19220 G1 X1.5093
N19225 X1.5153 Y-0.6418
N19230 X1.5212 Y-0.6409
N19235 X1.527 Y-0.6393
N19240 X1.5326 Y-0.6372
N19245 X1.5381 Y-0.6347
N19250 X1.5433 Y-0.6317
N19255 X1.5484 Y-0.6285
N19260 X1.5532 Y-0.625
N19265 X1.5579 Y-0.6212
N19270 X1.5624 Y-0.6173
N19275 X1.5667 Y-0.6131
N19280 X1.5708 Y-0.6087
N19285 X1.5747 Y-0.6041
N19290 X1.5784 Y-0.5994
N19295 X1.582 Y-0.5946
N19300 X1.5854 Y-0.5896
N19305 X1.5885 Y-0.5845
N19310 X1.5915 Y-0.5793
N19315 X1.5943 Y-0.574
N19320 X1.5969 Y-0.5686
N19325 X1.5994 Y-0.5632
N19330 X1.6017 Y-0.5576
N19335 X1.6037 Y-0.552
N19340 X1.6056 Y-0.5463
N19345 X1.6073 Y-0.5405
N19350 X1.6089 Y-0.5347
N19355 X1.6102 Y-0.5289
N19360 X1.6114 Y-0.523
N19365 X1.6124 Y-0.5171
N19370 X1.6132 Y-0.5111
N19375 X1.6138 Y-0.5052
N19380 X1.6142 Y-0.4992
N19385 X1.6144 Y-0.4932
N19390 X1.6145 Y-0.4872
N19395 X1.6143 Y-0.4812
N19400 X1.614 Y-0.4752
N19405 X1.6134 Y-0.4692
N19410 X1.6126 Y-0.4633
N19415 X1.6117 Y-0.4574
N19420 X1.6105 Y-0.4515
N19425 X1.609 Y-0.4457
N19430 X1.6074 Y-0.4399
N19435 X1.6055 Y-0.4342
N19440 X1.6034 Y-0.4286
N19445 X1.601 Y-0.423
N19450 X1.5919 Y-0.4072
N19455 X1.5804 Y-0.3929
N19460 X1.5667 Y-0.3808
N19465 X1.5513 Y-0.3709
N19470 X1.5345 Y-0.3637
N19475 X1.5167 Y-0.3593
N19480 X1.4984 Y-0.3579
N19485 X1.4824
N19490 G3 X1.4463 Y-0.3966 Z0.758 I0.0013 J-0.0375
N19495 G1 X1.4465 Y-0.4001
N19500 X1.4727 Y-0.6034
N19505 X1.4734 Y-0.6094 Z0.7572
N19510 G3 X1.5093 Y-0.6421 Z0.75 I0.0372 J0.0048
N19515 G1 X1.5264
N19520 X1.5324 Y-0.6418
N19525 X1.5383 Y-0.6408
N19530 X1.5441 Y-0.6391
N19535 X1.5497 Y-0.6369
N19540 X1.5551 Y-0.6343
N19545 X1.5603 Y-0.6313
N19550 X1.5653 Y-0.6281
N19555 X1.5702 Y-0.6245
N19560 X1.5748 Y-0.6207
N19565 X1.5793 Y-0.6167
N19570 X1.5835 Y-0.6125
N19575 X1.5876 Y-0.6081
N19580 X1.5915 Y-0.6035
N19585 X1.5952 Y-0.5988
N19590 X1.5987 Y-0.594
N19595 X1.6021 Y-0.589
N19600 X1.6052 Y-0.5839
N19605 X1.6082 Y-0.5786
N19610 X1.611 Y-0.5733
N19615 X1.6136 Y-0.5679
N19620 X1.616 Y-0.5624
N19625 X1.6182 Y-0.5569
N19630 X1.6203 Y-0.5512
N19635 X1.6222 Y-0.5455
N19640 X1.6238 Y-0.5398
N19645 X1.6254 Y-0.534
N19650 X1.6267 Y-0.5281
N19655 X1.6278 Y-0.5222
N19660 X1.6288 Y-0.5163
N19665 X1.6296 Y-0.5104
N19670 X1.6302 Y-0.5044
N19675 X1.6305 Y-0.4984
N19680 X1.6307 Y-0.4924
N19685 X1.6308 Y-0.4864
N19690 X1.6306 Y-0.4804
N19695 X1.6302 Y-0.4744
N19700 X1.6296 Y-0.4684
N19705 X1.6288 Y-0.4625
N19710 X1.6278 Y-0.4566
N19715 X1.6265 Y-0.4507
N19720 X1.6251 Y-0.4449
N19725 X1.6234 Y-0.4391
N19730 X1.6215 Y-0.4334
N19735 X1.6193 Y-0.4278
N19740 X1.617 Y-0.4223
N19745 X1.6078 Y-0.4066
N19750 X1.5963 Y-0.3925
N19755 X1.5827 Y-0.3805
N19760 X1.5673 Y-0.3708
N19765 X1.5505 Y-0.3637
N19770 X1.5329 Y-0.3593
N19775 X1.5147 Y-0.3579
N19780 X1.4984
N19785 G3 X1.4623 Y-0.3966 Z0.758 I0.0013 J-0.0375
N19790 G1 X1.4626 Y-0.4003
N19795 X1.4897 Y-0.6034
N19800 X1.4906 Y-0.6096 Z0.7571
N19805 G3 X1.5264 Y-0.6421 Z0.75 I0.0372 J0.005
N19810 G1 X1.5431
N19815 X1.5491 Y-0.6418
N19820 X1.555 Y-0.6407
N19825 X1.5607 Y-0.639
N19830 X1.5663 Y-0.6368
N19835 X1.5717 Y-0.6342
N19840 X1.5769 Y-0.6312
N19845 X1.5819 Y-0.6279
N19850 X1.5867 Y-0.6243
N19855 X1.5914 Y-0.6205
N19860 X1.5958 Y-0.6165
N19865 X1.6001 Y-0.6123
N19870 X1.6041 Y-0.6079
N19875 X1.608 Y-0.6033
N19880 X1.6117 Y-0.5985
N19885 X1.6152 Y-0.5937
N19890 X1.6185 Y-0.5887
N19895 X1.6217 Y-0.5836
N19900 X1.6246 Y-0.5783
N19905 X1.6274 Y-0.573
N19910 X1.63 Y-0.5676
N19915 X1.6324 Y-0.5621
N19920 X1.6346 Y-0.5565
N19925 X1.6367 Y-0.5509
N19930 X1.6385 Y-0.5452
N19935 X1.6402 Y-0.5394
N19940 X1.6417 Y-0.5336
N19945 X1.643 Y-0.5278
N19950 X1.6442 Y-0.5219
N19955 X1.6451 Y-0.516
N19960 X1.6459 Y-0.51
N19965 X1.6465 Y-0.504
N19970 X1.6468 Y-0.4981
N19975 X1.647 Y-0.4921
N19980 Y-0.4861
N19985 X1.6468 Y-0.4801
N19990 X1.6464 Y-0.4741
N19995 X1.6458 Y-0.4681
N20000 X1.645 Y-0.4622
N20005 X1.644 Y-0.4562
N20010 X1.6427 Y-0.4504
N20015 X1.6413 Y-0.4446
N20020 X1.6396 Y-0.4388
N20025 X1.6377 Y-0.4331
N20030 X1.6353 Y-0.427
N20035 X1.6275 Y-0.4122
N20040 X1.6178 Y-0.3988
N20045 X1.6062 Y-0.3868
N20050 X1.5929 Y-0.3767
N20055 X1.5784 Y-0.3686
N20060 X1.5628 Y-0.3627
N20065 X1.5466 Y-0.3591
N20070 X1.53 Y-0.3579
N20075 X1.5147
N20080 G3 X1.4786 Y-0.3966 Z0.758 I0.0013 J-0.0375
N20085 G1 X1.4789 Y-0.4004
N20090 X1.5064 Y-0.6034
N20095 X1.5072 Y-0.6097 Z0.7571
N20100 G3 X1.5431 Y-0.6421 Z0.75 I0.0372 J0.005
N20105 G1 X1.5586
N20110 X1.5646 Y-0.6418
N20115 X1.5705 Y-0.6409
N20120 X1.5763 Y-0.6392
N20125 X1.5819 Y-0.6371
N20130 X1.5873 Y-0.6345
N20135 X1.5926 Y-0.6315
N20140 X1.5976 Y-0.6283
N20145 X1.6024 Y-0.6247
N20150 X1.6071 Y-0.621
N20155 X1.6116 Y-0.617
N20160 X1.6159 Y-0.6128
N20165 X1.6199 Y-0.6084
N20170 X1.6239 Y-0.6038
N20175 X1.6276 Y-0.5991
N20180 X1.6311 Y-0.5942
N20185 X1.6344 Y-0.5893
N20190 X1.6376 Y-0.5842
N20195 X1.6406 Y-0.579
N20200 X1.6434 Y-0.5736
N20205 X1.646 Y-0.5682
N20210 X1.6484 Y-0.5628
N20215 X1.6507 Y-0.5572
N20220 X1.6527 Y-0.5516
N20225 X1.6546 Y-0.5459
N20230 X1.6563 Y-0.5401
N20235 X1.6579 Y-0.5343
N20240 X1.6592 Y-0.5285
N20245 X1.6603 Y-0.5226
N20250 X1.6613 Y-0.5167
N20255 X1.6621 Y-0.5107
N20260 X1.6627 Y-0.5047
N20265 X1.6631 Y-0.4988
N20270 X1.6633 Y-0.4928
N20275 Y-0.4868
N20280 X1.6631 Y-0.4808
N20285 X1.6628 Y-0.4748
N20290 X1.6622 Y-0.4688
N20295 X1.6614 Y-0.4628
N20300 X1.6604 Y-0.4569
N20305 X1.6591 Y-0.4511
N20310 X1.6577 Y-0.4452
N20315 X1.656 Y-0.4395
N20320 X1.6541 Y-0.4338
N20325 X1.6519 Y-0.4282
N20330 X1.6495 Y-0.4227
N20335 X1.6402 Y-0.4068
N20340 X1.6284 Y-0.3927
N20345 X1.6146 Y-0.3806
N20350 X1.599 Y-0.3708
N20355 X1.582 Y-0.3637
N20360 X1.5642 Y-0.3593
N20365 X1.5458 Y-0.3579
N20370 X1.53
N20375 G3 X1.4938 Y-0.3966 Z0.758 I0.0013 J-0.0375
N20380 G1 X1.4941 Y-0.4004
N20385 X1.5219 Y-0.6034
N20390 X1.5228 Y-0.6098 Z0.7571
N20395 G3 X1.5586 Y-0.6421 Z0.75 I0.0372 J0.0051
N20400 G1 X1.5749
N20405 X1.5809 Y-0.6418
N20410 X1.5869 Y-0.6408
N20415 X1.5926 Y-0.6392
N20420 X1.5982 Y-0.637
N20425 X1.6036 Y-0.6345
N20430 X1.6089 Y-0.6315
N20435 X1.6139 Y-0.6283
N20440 X1.6188 Y-0.6247
N20445 X1.6234 Y-0.6209
N20450 X1.6279 Y-0.6169
N20455 X1.6322 Y-0.6127
N20460 X1.6363 Y-0.6083
N20465 X1.6402 Y-0.6038
N20470 X1.6439 Y-0.5991
N20475 X1.6474 Y-0.5942
N20480 X1.6507 Y-0.5892
N20485 X1.6539 Y-0.5841
N20490 X1.6569 Y-0.5789
N20495 X1.6597 Y-0.5736
N20500 X1.6623 Y-0.5682
N20505 X1.6647 Y-0.5627
N20510 X1.667 Y-0.5572
N20515 X1.669 Y-0.5515
N20520 X1.6709 Y-0.5458
N20525 X1.6726 Y-0.5401
N20530 X1.6741 Y-0.5343
N20535 X1.6755 Y-0.5284
N20540 X1.6766 Y-0.5225
N20545 X1.6776 Y-0.5166
N20550 X1.6784 Y-0.5107
N20555 X1.679 Y-0.5047
N20560 X1.6794 Y-0.4987
N20565 X1.6796 Y-0.4927
N20570 Y-0.4867
N20575 X1.6794 Y-0.4807
N20580 X1.679 Y-0.4747
N20585 X1.6784 Y-0.4688
N20590 X1.6776 Y-0.4628
N20595 X1.6766 Y-0.4569
N20600 X1.6754 Y-0.451
N20605 X1.6739 Y-0.4452
N20610 X1.6722 Y-0.4395
N20615 X1.6703 Y-0.4338
N20620 X1.6681 Y-0.4282
N20625 X1.6657 Y-0.4227
N20630 X1.6631 Y-0.4173
N20635 X1.6537 Y-0.4027
N20640 X1.6422 Y-0.3897
N20645 X1.6288 Y-0.3786
N20650 X1.6139 Y-0.3697
N20655 X1.5978 Y-0.3632
N20660 X1.5809 Y-0.3592
N20665 X1.5636 Y-0.3579
N20670 X1.5458
N20675 G3 X1.5097 Y-0.3966 Z0.758 I0.0013 J-0.0375
N20680 G1 X1.51 Y-0.4005
N20685 X1.5382 Y-0.6034
N20690 X1.5391 Y-0.6098 Z0.7571
N20695 G3 X1.5749 Y-0.6421 Z0.75 I0.0371 J0.0052
N20700 G1 X1.5909
N20705 X1.5969 Y-0.6418
N20710 X1.6028 Y-0.6409
N20715 X1.6086 Y-0.6393
N20720 X1.6142 Y-0.6371
N20725 X1.6196 Y-0.6346
N20730 X1.6249 Y-0.6317
N20735 X1.6299 Y-0.6284
N20740 X1.6348 Y-0.6249
N20745 X1.6394 Y-0.6211
N20750 X1.6439 Y-0.6172
N20755 X1.6482 Y-0.613
